; HEADER_BLOCK_START
; generated by OrcaSlicer 1.8.1 on 2023-12-23 at 16:14:02
; total layer number: 80
; HEADER_BLOCK_END

; THUMBNAIL_BLOCK_START

;
; THUMBNAIL_BLOCK_END

; external perimeters extrusion width = 0.52mm
; perimeters extrusion width = 0.52mm
; infill extrusion width = 0.55mm
; solid infill extrusion width = 0.55mm
; top infill extrusion width = 0.55mm
; support material extrusion width = 0.55mm
; first layer extrusion width = 0.58mm

; external perimeters extrusion width = 0.52mm
; perimeters extrusion width = 0.52mm
; infill extrusion width = 0.55mm
; solid infill extrusion width = 0.55mm
; top infill extrusion width = 0.55mm
; support material extrusion width = 0.55mm
; first layer extrusion width = 0.58mm

; EXECUTABLE_BLOCK_START
EXCLUDE_OBJECT_DEFINE NAME=10x11-chain-edge2.stl_id_0_copy_0 CENTER=181.379,164.171 POLYGON=[[172.879,149.717],[189.879,149.717],[189.879,178.626],[172.879,178.626],[172.879,149.717]]
EXCLUDE_OBJECT_DEFINE NAME=10x11-chain-edge1.stl_id_1_copy_0 CENTER=156.09,164.871 POLYGON=[[147.49,151.023],[164.69,151.023],[164.69,168.673],[164.49,173.885],[163.09,178.705],[162.802,178.713],[162.546,178.72],[149.655,178.717],[149.385,178.712],[149.09,178.705],[147.69,173.885],[147.49,168.673],[147.49,151.023]]
M73 P0 R5
;TYPE:Custom
M104 S0
M140 S0
START_PRINT BED=75 HOTEND=215
G90
G21
M83 ; use relative distances for extrusion
; filament start gcode
SET_PRESSURE_ADVANCE ADVANCE=0.032; Override pressure advance value
M106 S0
;LAYER_CHANGE
;Z:0.2
;HEIGHT:0.2
;BEFORE_LAYER_CHANGE
;0.2
G92 E0

;DSLR_SNAPSHOT
TIMELAPSE_TAKE_FRAME
;_SET_FAN_SPEED_CHANGING_LAYER
SET_VELOCITY_LIMIT ACCEL=10000 ACCEL_TO_DECEL=5000
SET_VELOCITY_LIMIT SQUARE_CORNER_VELOCITY=10
G1 E-.4 F4200
G1 X144.063 Y148.684 F24000
G1 Z.2
G1 E.4 F4200
;TYPE:Skirt
;WIDTH:0.58
G1 F3000
G1 X145.386 Y147.448 E.07278
G1 X147.277 Y146.88 E.07935
G1 X172.666 Y145.574 E1.02178
G1 X189.879 Y145.568 E.69184
G1 X191.646 Y145.964 E.07278
G1 X193.076 Y147.074 E.07278
G1 X193.897 Y148.688 E.07278
G1 X194.027 Y149.717 E.04169
G1 X194.027 Y172.796 E.9276
G1 X193.632 Y174.563 E.07278
G1 X192.522 Y175.993 E.07278
G1 X191.412 Y176.65 E.05181
G1 X168.608 Y185.724 E.98645
G1 X167.075 Y186.018 E.06277
G1 X145.105 Y186.018 E.883
G1 X143.338 Y185.623 E.07278
G1 X141.908 Y184.513 E.07278
G1 X141.087 Y182.899 E.07278
G1 X140.957 Y181.87 E.04169
G1 X140.957 Y165.915 E.64128
M73 P1 R5
G1 X141.009 Y165.259 E.02645
G1 X143.394 Y150.367 E.60618
G1 X144.045 Y148.731 E.07077
G1 X144.553 Y148.942 F24000
G1 F3000
G1 X144.573 Y148.894 E.00213
G1 X145.859 Y147.801 E.06784
G1 X147.305 Y147.416 E.0601
G1 X172.693 Y146.11 E1.02178
G1 X189.879 Y146.106 E.69073
G1 X191.52 Y146.5 E.06784
G1 X192.802 Y147.597 E.06784
G1 X193.49 Y149.717 E.08956
G1 X193.49 Y172.796 E.9276
G1 X193.095 Y174.437 E.06784
G1 X191.998 Y175.719 E.06784
G1 X191.214 Y176.151 E.03598
G1 X168.41 Y185.225 E.98645
G1 X167.075 Y185.481 E.05464
G1 X145.105 Y185.481 E.883
G1 X143.464 Y185.087 E.06784
G1 X142.182 Y183.99 E.06784
G1 X141.494 Y181.87 E.08956
G1 X141.54 Y165.344 E.66423
G1 X143.924 Y150.452 E.60618
M73 P2 R5
G1 X144.534 Y148.989 E.0637
G1 X145.038 Y149.211 F24000
G1 F3000
G1 X145.081 Y149.113 E.00429
G1 X146.324 Y148.178 E.06252
G1 X147.332 Y147.953 E.04151
G1 X172.879 Y146.643 E1.02813
G1 X189.879 Y146.643 E.68327
G1 X191.384 Y147.036 E.06252
G1 X192.503 Y148.116 E.06252
G1 X192.953 Y149.717 E.06684
G1 X192.953 Y172.796 E.9276
G1 X192.559 Y174.3 E.06252
G1 X191.015 Y175.652 E.08247
G1 X168.211 Y184.726 E.98645
G1 X167.075 Y184.944 E.04652
G1 X145.105 Y184.944 E.883
G1 X143.601 Y184.551 E.06252
G1 X142.481 Y183.471 E.06252
G1 X142.031 Y181.87 E.06684
G1 X142.07 Y165.429 E.66082
G1 X144.455 Y150.537 E.60618
G1 X145.018 Y149.256 E.05622
G1 X145.517 Y149.492 F24000
G1 F3000
G1 X145.586 Y149.346 E.00649
G1 X147.36 Y148.489 E.07916
M73 P3 R5
G1 X172.748 Y147.183 E1.02178
G1 X189.879 Y147.18 E.68851
G1 X191.234 Y147.572 E.05669
G1 X192.17 Y148.627 E.05669
G1 X192.416 Y149.717 E.0449
G1 X192.416 Y172.796 E.9276
G1 X192.024 Y174.151 E.05669
G1 X190.817 Y175.153 E.06306
G1 X168.013 Y184.227 E.98645
G1 X167.075 Y184.407 E.03839
G1 X145.105 Y184.407 E.883
G1 X143.75 Y184.015 E.05669
G1 X142.814 Y182.96 E.05669
G1 X142.568 Y181.87 E.0449
G1 X142.6 Y165.514 E.6574
G1 X144.985 Y150.622 E.60618
G1 X145.496 Y149.537 E.04819
; printing object 10x11-chain-edge2.stl id:0 copy 0
G1 E-.4 F4200
EXCLUDE_OBJECT_START NAME=10x11-chain-edge2.stl_id_0_copy_0
G1 X181.379 Y152.401 F24000
G1 E.4 F4200
;TYPE:Inner wall
;WIDTH:0.492776
G1 F4800
G1 X180.982 Y151.674 E.02786
G1 X181.775 Y151.674 E.02669
G1 X181.677 Y151.809 E.00561
G1 X181.383 Y152.392 E.02197
G1 E-.4 F4200
G1 X174.882 Y156.321 F24000
G1 E.4 F4200
;WIDTH:0.579999
G1 F4800
G1 X175.326 Y156.762 E.02511
G1 X175.801 Y157.107 E.02364
G1 X176.358 Y157.391 E.02511
G1 X176.912 Y157.572 E.02341
G1 X177.535 Y157.671 E.02535
G1 X178.123 Y157.671 E.02364
G1 X178.74 Y157.573 E.02511
G1 X179.299 Y157.391 E.02364
G1 X179.856 Y157.107 E.02511
G1 X180.332 Y156.762 E.02364
G1 X180.774 Y156.32 E.02511
G2 X181.379 Y155.335 I-2.807 J-2.403 E.04665
M73 P4 R5
G2 X182.426 Y156.762 I3.86 J-1.735 E.07166
G1 X182.901 Y157.107 E.02364
G1 X183.458 Y157.391 E.02511
G1 X184.018 Y157.573 E.02364
G1 X184.635 Y157.671 E.02511
G1 X185.223 Y157.671 E.02364
G1 X185.893 Y157.564 E.02728
G1 X186.399 Y157.391 E.02149
G1 X186.956 Y157.107 E.02511
G1 X187.432 Y156.762 E.02364
G1 X187.875 Y156.321 E.02511
G3 X187.877 Y165.566 I-1266.684 J4.934 E.37154
G1 X182.626 Y165.566 E.21106
G1 X182.849 Y165.491 E.00945
G1 X183.406 Y165.207 E.02511
G1 X183.882 Y164.862 E.02364
G1 X184.324 Y164.42 E.02511
G1 X184.669 Y163.944 E.02364
G1 X184.967 Y163.359 E.02637
G1 X185.135 Y162.828 E.02239
G1 X185.232 Y162.211 E.02511
G1 X185.232 Y161.623 E.02364
G1 X185.135 Y161.006 E.02511
G1 X184.953 Y160.446 E.02364
G1 X184.667 Y159.884 E.02535
G1 X184.324 Y159.414 E.02341
G1 X183.882 Y158.972 E.02511
G1 X183.406 Y158.626 E.02364
G1 X182.849 Y158.343 E.02511
G1 X182.29 Y158.161 E.02364
G1 X181.673 Y158.063 E.02511
G1 X181.085 Y158.063 E.02364
G1 X180.468 Y158.161 E.02511
G1 X179.908 Y158.343 E.02364
G1 X179.351 Y158.626 E.02511
G1 X178.876 Y158.972 E.02364
G1 X178.434 Y159.414 E.02511
G1 X178.091 Y159.884 E.02341
G1 X177.804 Y160.446 E.02535
G1 X177.623 Y161.006 E.02364
G1 X177.525 Y161.623 E.02511
G1 X177.525 Y162.211 E.02364
G1 X177.628 Y162.859 E.02637
G1 X177.804 Y163.387 E.0224
G1 X178.088 Y163.944 E.02511
G1 X178.434 Y164.42 E.02364
G1 X178.876 Y164.862 E.02511
G1 X179.351 Y165.207 E.02364
G1 X179.908 Y165.491 E.02511
G1 X180.138 Y165.566 E.0097
G1 X174.88 Y165.566 E.21132
G3 X174.882 Y156.331 I1263.866 J-4.31 E.37114
G1 E-.4 F4200
G1 X180.153 Y165.037 F24000
G1 E.4 F4200
;WIDTH:0.708765
G1 F4800
G1 X179.971 Y164.937 E.01034
;WIDTH:0.665843
G1 X179.783 Y164.833 E.01001
;WIDTH:0.622921
G1 X179.595 Y164.729 E.00932
;WIDTH:0.579999
G1 X179.255 Y164.482 E.01688
G1 X178.814 Y164.04 E.02511
G1 X178.567 Y163.7 E.01688
G1 X178.283 Y163.144 E.02511
G1 X178.153 Y162.744 E.01688
G1 X178.055 Y162.127 E.02511
G1 X178.055 Y161.707 E.01688
G1 X178.153 Y161.09 E.02511
G1 X178.283 Y160.69 E.01688
G1 X178.569 Y160.13 E.02528
G1 X178.814 Y159.794 E.01672
G1 X179.255 Y159.352 E.02511
G3 X181.672 Y158.607 I2.128 J2.611 E.10418
G3 X183.162 Y159.105 I-.315 J3.42 E.06372
G3 X184.702 Y161.707 I-1.888 J2.874 E.12582
G1 X184.718 Y161.917 E.00847
G1 X184.604 Y162.744 E.03356
G1 X184.474 Y163.144 E.01688
G1 X184.191 Y163.7 E.02511
G1 X183.944 Y164.04 E.01688
G1 X183.502 Y164.482 E.02511
G1 X183.162 Y164.729 E.01688
G1 X182.605 Y165.012 E.02511
;WIDTH:0.622921
G1 X182.529 Y165.06 E.0039
;WIDTH:0.665843
G1 X182.452 Y165.107 E.00419
;WIDTH:0.708765
G1 X182.376 Y165.154 E.00448
;WIDTH:0.751687
G1 X182.299 Y165.201 E.00477
;WIDTH:0.794608
G1 X182.223 Y165.248 E.00506
G1 X181.602 Y165.322 E.03518
;WIDTH:0.745434
G1 X181.156 Y165.322 E.02345
;WIDTH:0.794608
G1 X180.535 Y165.248 E.03518
G1 X180.347 Y165.144 E.01208
;WIDTH:0.751687
G1 X180.161 Y165.042 E.01124
G1 X180.568 Y164.59 F24000
;WIDTH:0.579999
G1 F4800
G1 X180.396 Y164.534 E.0073
G1 X179.839 Y164.25 E.02511
G1 X179.635 Y164.102 E.01013
G1 X179.193 Y163.66 E.02511
G1 X179.045 Y163.456 E.01013
G1 X178.762 Y162.9 E.02511
G1 X178.684 Y162.66 E.01013
G1 X178.586 Y162.043 E.02511
G1 X178.586 Y161.791 E.01013
G1 X178.684 Y161.174 E.02511
G1 X178.762 Y160.934 E.01013
G1 X179.046 Y160.375 E.02521
G1 X179.193 Y160.173 E.01003
G1 X179.635 Y159.731 E.02511
G3 X180.636 Y159.222 I2.294 J3.266 E.04527
G1 X181.253 Y159.124 E.02511
G3 X182.122 Y159.222 I.022 J3.72 E.03524
G3 X182.918 Y159.583 I-1.25 J3.812 E.03522
G3 X183.564 Y160.173 I-2.169 J3.022 E.03524
G3 X184.074 Y161.174 I-3.265 J2.294 E.04527
G3 X184.181 Y161.917 I-4.668 J1.056 E.03021
G1 X184.074 Y162.66 E.03018
G1 X183.996 Y162.9 E.01013
G1 X183.712 Y163.456 E.02511
G1 X183.564 Y163.66 E.01013
G1 X183.122 Y164.102 E.02511
G1 X182.918 Y164.25 E.01013
G1 X182.362 Y164.534 E.02511
G1 X182.122 Y164.612 E.01013
G1 X181.505 Y164.71 E.02511
G1 X181.253 Y164.71 E.01013
G1 X180.636 Y164.612 E.02511
G1 X180.578 Y164.593 E.00243
G1 X180.776 Y164.089 F24000
;TYPE:Outer wall
G1 F4800
G1 X180.72 Y164.081 E.00227
G1 X180.083 Y163.772 E.02845
G1 X179.573 Y163.281 E.02845
G1 X179.24 Y162.656 E.02845
G1 X179.116 Y161.959 E.02845
G1 X179.214 Y161.258 E.02845
G3 X179.573 Y160.553 I3.8 J1.492 E.03183
G1 X180.015 Y160.111 E.02511
G3 X180.72 Y159.752 I2.346 J3.733 E.03183
G1 X181.337 Y159.655 E.02511
G1 X182.038 Y159.752 E.02845
G1 X182.595 Y160.021 E.02487
G1 X182.802 Y160.171 E.01025
G1 X183.184 Y160.553 E.02173
G1 X183.517 Y161.178 E.02845
G1 X183.644 Y161.917 E.03014
G1 X183.543 Y162.576 E.0268
G1 X183.234 Y163.213 E.02845
G1 X182.742 Y163.722 E.02845
G1 X182.118 Y164.055 E.02845
G1 X181.421 Y164.179 E.02845
G1 X180.785 Y164.091 E.02578
G1 E-.4 F4200
G1 X174.343 Y166.103 F24000
G1 E.4 F4200
;TYPE:Inner wall
G1 F4800
G1 X174.337 Y155.137 E.44073
;WIDTH:0.567591
G1 X174.316 Y154.98 E.00624
;WIDTH:0.525874
G1 X174.295 Y154.822 E.00574
;WIDTH:0.484157
G1 X174.274 Y154.664 E.00525
;WIDTH:0.44244
G1 X174.25 Y153.594 E.03201
;WIDTH:0.434775
G1 X174.27 Y153.228 E.01075
;WIDTH:0.476282
G1 X174.291 Y152.862 E.01188
;WIDTH:0.517788
G1 X174.312 Y152.496 E.01302
;WIDTH:0.55529
G1 X174.331 Y152.34 E.00603
;WIDTH:0.592792
G1 X174.349 Y152.184 E.00647
;WIDTH:0.630294
G1 X174.368 Y152.028 E.00692
;WIDTH:0.667796
G1 X174.387 Y151.872 E.00736
;WIDTH:0.704433
G1 X174.405 Y151.567 E.01513
;WIDTH:0.741069
G1 X174.423 Y151.262 E.01597
G1 X175.582 Y151.262 E.06052
G1 X175.056 Y151.814 E.03984
G1 X175.017 Y151.914 E.0056
;WIDTH:0.704433
G1 X174.978 Y152.013 E.00531
;WIDTH:0.667796
G1 X174.923 Y152.161 E.00736
;WIDTH:0.630294
G1 X174.869 Y152.309 E.00692
;WIDTH:0.592792
G1 X174.815 Y152.457 E.00647
;WIDTH:0.55529
G1 X174.761 Y152.604 E.00603
;WIDTH:0.517788
G1 X174.716 Y152.802 E.00722
;WIDTH:0.480114
G1 X174.671 Y153 E.00664
;WIDTH:0.44244
G1 X174.598 Y153.621 E.0187
;WIDTH:0.393268
G1 X174.598 Y154.012 E.01025
;WIDTH:0.436849
G1 X174.633 Y154.269 E.00765
;WIDTH:0.48043
G1 X174.668 Y154.526 E.0085
;WIDTH:0.524011
G1 X174.703 Y154.784 E.00934
;WIDTH:0.567591
G1 X174.739 Y155.041 E.01019
;WIDTH:0.579999
G1 X175.017 Y155.6 E.02511
G1 X175.264 Y155.94 E.01688
G1 X175.705 Y156.382 E.02511
G1 X176.045 Y156.629 E.01688
G1 X176.602 Y156.912 E.02511
G1 X176.997 Y157.042 E.01672
G1 X177.619 Y157.14 E.02528
G1 X178.039 Y157.14 E.01688
G1 X178.656 Y157.042 E.02511
G1 X179.055 Y156.912 E.01688
G1 X179.612 Y156.629 E.02511
G1 X179.952 Y156.382 E.01688
G1 X180.394 Y155.94 E.02511
G1 X180.641 Y155.6 E.01688
G1 X180.924 Y155.044 E.02511
G1 X181.054 Y154.644 E.01688
G1 X181.132 Y154.024 E.02513
;WIDTH:0.539157
G1 X181.132 Y153.61 E.01536
;WIDTH:0.579999
G1 X181.002 Y152.774 E.03399
G2 X180.394 Y151.694 I-4.494 J1.816 E.04998
G1 X179.855 Y151.181 E.0299
G1 X182.903 Y151.181 E.12251
G1 X182.805 Y151.252 E.00484
G1 X182.364 Y151.694 E.02511
G1 X182.117 Y152.033 E.01688
G1 X181.833 Y152.59 E.02511
G1 X181.703 Y152.99 E.01688
G1 X181.626 Y153.61 E.02513
;WIDTH:0.539157
G1 X181.626 Y154.024 E.01536
;WIDTH:0.579999
G1 X181.703 Y154.644 E.02513
G1 X181.833 Y155.044 E.01688
G1 X182.117 Y155.6 E.02511
G2 X183.145 Y156.629 I3.328 J-2.299 E.05879
G1 X183.702 Y156.912 E.02511
G2 X185.139 Y157.14 I1.341 J-3.816 E.05879
G1 X185.756 Y157.042 E.02511
G1 X186.155 Y156.912 E.01688
G1 X186.712 Y156.629 E.02511
G1 X187.052 Y156.382 E.01688
G1 X187.494 Y155.94 E.02511
G1 X187.741 Y155.6 E.01688
G1 X188.019 Y155.041 E.02511
;WIDTH:0.56759
G1 X188.041 Y154.905 E.00541
;WIDTH:0.525874
G1 X188.064 Y154.769 E.00498
;WIDTH:0.484157
G1 X188.086 Y154.633 E.00455
;WIDTH:0.44244
G1 X188.16 Y154.012 E.0187
;WIDTH:0.393267
G1 X188.16 Y153.621 E.01025
;WIDTH:0.44244
G1 X188.086 Y153 E.0187
;WIDTH:0.480114
G1 X188.041 Y152.802 E.00664
;WIDTH:0.517787
G1 X187.997 Y152.604 E.00722
;WIDTH:0.562444
G1 X187.938 Y152.446 E.00656
;WIDTH:0.6071
G1 X187.878 Y152.288 E.00712
;WIDTH:0.651757
G1 X187.819 Y152.13 E.00769
;WIDTH:0.696413
G1 X187.76 Y151.972 E.00825
;WIDTH:0.741069
G2 X187.551 Y151.637 I-.57 J.123 E.02108
G1 X187.176 Y151.262 E.02771
G1 X188.334 Y151.262 E.06052
G1 X188.334 Y151.611 E.01824
G1 X188.352 Y151.741 E.00689
;WIDTH:0.704431
G1 X188.371 Y151.872 E.00652
;WIDTH:0.667792
G1 X188.393 Y152.091 E.01032
;WIDTH:0.622722
G1 X188.416 Y152.311 E.00957
;WIDTH:0.577652
G1 X188.438 Y152.53 E.00883
;WIDTH:0.532581
G1 X188.461 Y152.75 E.00809
;WIDTH:0.487511
G1 X188.483 Y152.969 E.00734
;WIDTH:0.44244
G3 X188.483 Y154.664 I-13.59 J.848 E.05072
;WIDTH:0.484157
G1 X188.462 Y154.822 E.00525
;WIDTH:0.525874
G1 X188.442 Y154.98 E.00574
;WIDTH:0.56759
G1 X188.421 Y155.137 E.00624
;WIDTH:0.579999
G1 X188.415 Y166.103 E.44073
G1 X182.867 Y166.103 E.22296
;WIDTH:0.622921
G1 X182.75 Y166.081 E.00517
;WIDTH:0.665843
G1 X182.633 Y166.06 E.00555
;WIDTH:0.708765
G1 X182.516 Y166.038 E.00593
;WIDTH:0.751687
G1 X182.399 Y166.017 E.00632
;WIDTH:0.794608
G1 X182.281 Y165.995 E.0067
G1 X181.657 Y166.02 E.03518
;WIDTH:0.745434
G1 X181.101 Y166.02 E.02922
;WIDTH:0.794608
G1 X180.476 Y165.995 E.03518
G1 X180.359 Y166.017 E.0067
;WIDTH:0.751687
G1 X180.242 Y166.038 E.00632
;WIDTH:0.708765
G1 X180.125 Y166.06 E.00593
;WIDTH:0.665843
G1 X180.007 Y166.081 E.00555
;WIDTH:0.622921
G1 X179.89 Y166.103 E.00517
;WIDTH:0.579999
G1 X174.353 Y166.103 E.22256
G1 X174.12 Y166.685 F24000
G1 F4800
G1 X173.806 Y166.79 E.01332
G1 X173.806 Y150.644 E.64896
G2 X177.048 Y150.63 I1.141 J-110.772 E.13032
;WIDTH:0.551888
G1 X177.985 Y150.605 E.03569
;WIDTH:0.536852
G1 X178.465 Y150.622 E.01776
;WIDTH:0.57099
G1 X178.945 Y150.639 E.01899
;WIDTH:0.579999
G2 X184.148 Y150.63 I1.912 J-375.541 E.20912
;WIDTH:0.551887
G1 X185.085 Y150.605 E.03569
;WIDTH:0.536852
G1 X185.565 Y150.622 E.01776
;WIDTH:0.57099
G1 X186.045 Y150.639 E.01899
;WIDTH:0.579999
G2 X188.952 Y150.644 I1.766 J-201.564 E.11683
G1 X188.952 Y151.611 E.03885
G1 X188.952 Y166.79 E.61011
G1 X188.5 Y166.64 E.01913
G1 X174.257 Y166.64 E.57246
M73 P5 R5
G1 X174.13 Y166.682 E.0054
G1 X174.257 Y167.177 F24000
;TYPE:Outer wall
G1 F4800
G1 X174.096 Y167.231 E.00683
;WIDTH:0.62573
G1 X174.02 Y167.338 E.00575
;WIDTH:0.67146
G1 X173.943 Y167.445 E.0062
G1 X173.943 Y172.36 E.23117
G1 X173.314 Y172.36 E.02956
G1 X173.314 Y167.445 E.23117
G1 X173.292 Y167.131 E.01482
;WIDTH:0.62573
G1 X173.269 Y166.817 E.01374
;WIDTH:0.579999
G1 X173.269 Y150.107 E.67162
G1 X189.489 Y150.107 E.65192
G1 X189.489 Y151.611 E.06044
G1 X189.489 Y166.817 E.61118
;WIDTH:0.62573
G1 X189.466 Y167.131 E.01374
;WIDTH:0.67146
G1 X189.443 Y167.445 E.01482
G1 X189.443 Y172.36 E.23117
G1 X188.814 Y172.36 E.02956
G1 X188.814 Y167.445 E.23117
G1 X188.738 Y167.338 E.0062
;WIDTH:0.62573
G1 X188.661 Y167.231 E.00575
;WIDTH:0.579999
G1 X188.5 Y167.177 E.00683
G1 X174.267 Y167.177 E.57206
G1 E-.4 F4200
G1 X182.55 Y155.268 F24000
G1 E.4 F4200
;TYPE:Inner wall
G1 F4800
G1 X182.312 Y154.8 E.0211
G1 X182.234 Y154.56 E.01013
G1 X182.136 Y153.943 E.02511
G1 X182.136 Y153.691 E.01013
G1 X182.234 Y153.074 E.02511
G1 X182.312 Y152.834 E.01013
G1 X182.595 Y152.277 E.02511
