; HEADER_BLOCK_START
; generated by OrcaSlicer 1.8.1 on 2024-01-24 at 12:42:43
; total layer number: 240
; HEADER_BLOCK_END

; THUMBNAIL_BLOCK_START

;
; THUMBNAIL_BLOCK_END

; external perimeters extrusion width = 0.52mm
; perimeters extrusion width = 0.52mm
; infill extrusion width = 0.55mm
; solid infill extrusion width = 0.55mm
; top infill extrusion width = 0.55mm
; first layer extrusion width = 0.58mm

; external perimeters extrusion width = 0.52mm
; perimeters extrusion width = 0.52mm
; infill extrusion width = 0.55mm
; solid infill extrusion width = 0.55mm
; top infill extrusion width = 0.55mm
; first layer extrusion width = 0.58mm

; external perimeters extrusion width = 0.52mm
; perimeters extrusion width = 0.52mm
; infill extrusion width = 0.55mm
; solid infill extrusion width = 0.55mm
; top infill extrusion width = 0.55mm
; first layer extrusion width = 0.58mm

; external perimeters extrusion width = 0.52mm
; perimeters extrusion width = 0.52mm
; infill extrusion width = 0.55mm
; solid infill extrusion width = 0.55mm
; top infill extrusion width = 0.55mm
; first layer extrusion width = 0.58mm

; EXECUTABLE_BLOCK_START
EXCLUDE_OBJECT_DEFINE NAME=3DBenchy.stl_id_0_copy_0 CENTER=165,165 POLYGON=[[135,155.816],[135.002,155.755],[135.007,155.699],[135.012,155.646],[135.014,155.63],[135.02,155.583],[135.028,155.525],[135.046,155.436],[135.058,155.379],[135.074,155.322],[135.081,155.296],[135.097,155.239],[135.126,155.155],[135.141,155.118],[135.162,155.064],[135.169,155.047],[135.186,155.01],[135.209,154.958],[135.231,154.916],[135.264,154.854],[135.278,154.827],[135.291,154.806],[135.34,154.727],[135.357,154.7],[135.371,154.679],[135.405,154.631],[135.44,154.584],[135.484,154.531],[135.508,154.501],[135.539,154.466],[135.578,154.423],[135.592,154.408],[135.6,154.4],[135.641,154.359],[135.661,154.34],[135.704,154.3],[135.737,154.271],[135.783,154.234],[135.793,154.225],[135.828,154.197],[135.887,154.154],[135.935,154.121],[135.979,154.092],[136.044,154.052],[136.071,154.036],[136.124,154.008],[136.148,153.995],[136.175,153.981],[136.197,153.97],[136.253,153.944],[136.312,153.919],[136.362,153.899],[136.417,153.879],[136.429,153.875],[136.472,153.861],[136.485,153.857],[136.541,153.84],[136.548,153.838],[136.584,153.828],[136.597,153.825],[136.625,153.818],[136.641,153.814],[136.71,153.799],[136.739,153.794],[136.769,153.789],[136.798,153.784],[164.812,149.886],[165.055,149.853],[165.299,149.821],[165.543,149.791],[165.882,149.752],[166.105,149.728],[166.35,149.702],[166.596,149.678],[166.842,149.656],[167.087,149.635],[167.253,149.622],[167.333,149.616],[167.523,149.602],[167.579,149.598],[167.826,149.581],[167.987,149.571],[168.071,149.566],[168.232,149.557],[168.489,149.544],[168.597,149.539],[168.619,149.538],[168.755,149.532],[168.906,149.526],[169.05,149.521],[169.167,149.517],[169.233,149.515],[169.342,149.512],[169.46,149.509],[169.548,149.507],[169.689,149.504],[169.881,149.501],[170.062,149.499],[170.18,149.498],[170.578,149.498],[170.934,149.5],[171.369,149.508],[171.45,149.51],[171.805,149.52],[171.912,149.524],[172.24,149.537],[172.677,149.558],[173.009,149.578],[173.092,149.583],[173.202,149.59],[173.375,149.602],[173.495,149.611],[173.641,149.622],[173.728,149.629],[173.909,149.644],[174.04,149.655],[174.832,149.78],[174.841,149.782],[175.269,149.888],[175.377,149.915],[175.595,149.97],[175.737,150.007],[175.813,150.027],[175.967,150.068],[176.248,150.145],[176.424,150.195],[176.68,150.27],[176.896,150.334],[177.111,150.4],[177.332,150.47],[177.558,150.543],[177.752,150.607],[178.008,150.694],[178.178,150.753],[178.232,150.772],[178.4,150.832],[178.601,150.905],[178.822,150.987],[179.033,151.067],[179.233,151.145],[179.344,151.188],[179.443,151.228],[179.453,151.232],[179.662,151.316],[179.871,151.402],[179.927,151.425],[180.134,151.513],[180.341,151.603],[180.547,151.693],[180.957,151.879],[181.16,151.974],[181.363,152.07],[181.565,152.168],[181.766,152.267],[181.967,152.367],[182.166,152.469],[182.366,152.572],[182.563,152.677],[182.762,152.783],[182.957,152.89],[183.153,152.999],[183.348,153.11],[183.543,153.221],[183.737,153.334],[183.93,153.449],[184.123,153.565],[184.314,153.683],[184.505,153.801],[184.696,153.922],[184.885,154.043],[185.075,154.167],[185.262,154.291],[185.451,154.417],[185.637,154.544],[185.824,154.673],[186.008,154.803],[186.193,154.934],[186.376,155.067],[186.56,155.201],[186.742,155.337],[186.923,155.474],[187.104,155.612],[187.284,155.752],[187.463,155.893],[187.642,156.036],[187.82,156.18],[187.998,156.325],[188.173,156.472],[188.523,156.77],[188.697,156.921],[188.87,157.074],[189.042,157.228],[189.214,157.384],[189.328,157.489],[189.498,157.645],[189.665,157.803],[189.832,157.962],[189.996,158.122],[190.161,158.283],[190.325,158.445],[190.486,158.609],[190.647,158.773],[190.807,158.939],[190.966,159.106],[191.124,159.274],[191.282,159.443],[191.438,159.614],[191.592,159.785],[191.745,159.958],[191.898,160.132],[192.05,160.306],[192.201,160.483],[192.349,160.66],[192.498,160.838],[192.645,161.017],[192.791,161.198],[192.936,161.38],[193.081,161.563],[193.223,161.747],[193.364,161.932],[193.505,162.118],[193.645,162.305],[193.784,162.493],[193.921,162.683],[194.056,162.874],[194.192,163.065],[194.326,163.258],[194.458,163.452],[194.589,163.647],[194.618,163.692],[194.651,163.745],[194.682,163.798],[194.713,163.852],[194.742,163.907],[194.769,163.962],[194.819,164.076],[194.834,164.117],[194.856,164.175],[194.876,164.233],[194.895,164.292],[194.912,164.351],[194.929,164.413],[194.943,164.47],[194.954,164.53],[194.966,164.593],[194.975,164.652],[194.984,164.713],[194.991,164.774],[194.995,164.836],[194.998,164.905],[195,164.966],[195,165.027],[194.999,165.088],[194.996,165.149],[194.992,165.209],[194.986,165.27],[194.977,165.331],[194.968,165.391],[194.958,165.449],[194.945,165.512],[194.932,165.569],[194.916,165.632],[194.901,165.686],[194.883,165.745],[194.863,165.803],[194.842,165.861],[194.82,165.918],[194.797,165.974],[194.771,166.03],[194.744,166.086],[194.716,166.14],[194.686,166.194],[194.655,166.248],[194.623,166.301],[194.589,166.353],[194.472,166.527],[194.339,166.721],[194.206,166.914],[194.071,167.106],[193.936,167.297],[193.797,167.487],[193.659,167.676],[193.52,167.864],[193.38,168.05],[193.237,168.236],[193.095,168.42],[192.951,168.604],[192.659,168.968],[192.51,169.148],[192.361,169.328],[192.21,169.506],[192.06,169.683],[191.907,169.86],[191.752,170.035],[191.597,170.209],[191.482,170.337],[191.326,170.509],[191.167,170.68],[191.008,170.85],[190.848,171.018],[190.688,171.186],[190.526,171.352],[190.2,171.68],[190.034,171.841],[189.869,172.002],[189.703,172.161],[189.535,172.319],[189.367,172.475],[189.199,172.63],[189.028,172.784],[188.857,172.937],[188.686,173.089],[188.512,173.239],[188.338,173.388],[188.164,173.536],[187.987,173.682],[187.811,173.827],[187.632,173.971],[187.454,174.114],[187.275,174.256],[187.093,174.396],[186.911,174.535],[186.728,174.673],[186.544,174.81],[186.359,174.945],[186.173,175.08],[185.799,175.344],[185.611,175.474],[185.421,175.603],[185.23,175.731],[185.039,175.857],[184.846,175.982],[184.653,176.106],[184.458,176.228],[184.263,176.349],[184.067,176.469],[183.869,176.587],[183.672,176.704],[183.472,176.819],[183.272,176.934],[183.072,177.046],[182.87,177.158],[182.595,177.307],[182.395,177.412],[182.196,177.516],[181.996,177.618],[181.796,177.719],[181.595,177.818],[181.392,177.916],[181.19,178.012],[180.987,178.107],[180.783,178.2],[180.579,178.292],[180.374,178.383],[180.169,178.472],[179.963,178.559],[179.756,178.645],[179.666,178.682],[179.549,178.73],[179.341,178.813],[179.122,178.898],[179.003,178.944],[178.704,179.057],[178.493,179.134],[178.293,179.206],[178.071,179.284],[177.884,179.348],[177.869,179.353],[177.656,179.424],[177.443,179.494],[177.207,179.57],[177.005,179.632],[176.979,179.64],[176.751,179.709],[176.523,179.776],[176.295,179.841],[176.142,179.884],[176.065,179.905],[175.924,179.943],[175.707,180.001],[175.606,180.027],[175.488,180.057],[175.269,180.112],[174.844,180.218],[174.316,180.319],[174.306,180.32],[174.05,180.344],[174.003,180.348],[173.81,180.364],[173.725,180.371],[173.561,180.384],[173.481,180.39],[173.134,180.414],[172.688,180.441],[172.649,180.443],[172.264,180.462],[172.126,180.468],[171.778,180.481],[171.564,180.487],[171.344,180.493],[170.907,180.5],[170.522,180.502],[170.177,180.502],[169.877,180.499],[169.821,180.498],[169.599,180.494],[169.457,180.491],[169.338,180.488],[169.166,180.483],[169.076,180.48],[168.93,180.475],[168.752,180.468],[168.728,180.467],[168.57,180.46],[168.463,180.455],[168.332,180.448],[168.133,180.437],[167.889,180.423],[167.644,180.407],[167.629,180.406],[167.342,180.385],[167.096,180.366],[166.849,180.345],[166.667,180.328],[166.603,180.322],[166.423,180.305],[166.179,180.28],[166.111,180.273],[165.935,180.254],[165.619,180.218],[165.373,180.188],[165.204,180.166],[164.882,180.124],[136.827,176.22],[136.792,176.215],[136.743,176.207],[136.686,176.196],[136.653,176.189],[136.597,176.175],[136.584,176.172],[136.548,176.162],[136.536,176.159],[136.481,176.142],[136.429,176.125],[136.417,176.121],[136.362,176.101],[136.312,176.081],[136.253,176.056],[136.197,176.03],[136.155,176.009],[136.105,175.982],[136.086,175.972],[136.044,175.948],[135.993,175.917],[135.979,175.908],[135.944,175.885],[135.935,175.879],[135.887,175.846],[135.847,175.817],[135.84,175.811],[135.793,175.775],[135.756,175.744],[135.749,175.738],[135.704,175.7],[135.661,175.66],[135.641,175.64],[135.592,175.592],[135.557,175.555],[135.539,175.534],[135.519,175.511],[135.481,175.466],[135.445,175.42],[135.431,175.402],[135.41,175.374],[135.407,175.37],[135.373,175.322],[135.357,175.3],[135.342,175.278],[135.308,175.224],[135.278,175.173],[135.25,175.122],[135.231,175.084],[135.218,175.06],[135.195,175.012],[135.169,174.954],[135.148,174.903],[135.127,174.849],[135.109,174.793],[135.107,174.79],[135.09,174.738],[135.075,174.682],[135.06,174.625],[135.046,174.564],[135.035,174.507],[135.026,174.454],[135.025,174.448],[135.016,174.396],[135.012,174.353],[135.008,174.325],[135.002,174.245],[135,174.208],[135,174.179],[135,155.816]]
M73 P0 R18
;TYPE:Custom
M104 S0
M140 S0
START_PRINT BED=75 HOTEND=220
G90
G21
M83 ; use relative distances for extrusion
T0
M104 S220 ; set nozzle temperature
; filament start gcode
SET_PRESSURE_ADVANCE ADVANCE=0.036; Override pressure advance value
M106 S0
;LAYER_CHANGE
;Z:0.2
;HEIGHT:0.2
;BEFORE_LAYER_CHANGE
;0.2
G92 E0

;DSLR_SNAPSHOT
TIMELAPSE_TAKE_FRAME
;_SET_FAN_SPEED_CHANGING_LAYER
SET_VELOCITY_LIMIT ACCEL=10000 ACCEL_TO_DECEL=5000
SET_VELOCITY_LIMIT SQUARE_CORNER_VELOCITY=10
G1 E-.4 F4200
G1 X137.38 Y155.332 F48000
G1 Z.2
G1 E.4 F4200
;TYPE:Skirt
;WIDTH:0.58
G1 F3000
G1 X138.053 Y154.908 E.03551
G1 X138.718 Y154.601 E.0327
G1 X139.5 Y154.359 E.03658
G1 X140.384 Y154.219 E.03997
G1 X165.311 Y152.754 E1.1151
G1 X167.567 Y152.919 E.10104
G1 X170.022 Y153.414 E.11184
G1 X172.402 Y154.228 E.11232
G1 X174.703 Y155.381 E.11496
G1 X176.787 Y156.799 E.11256
G1 X178.63 Y158.447 E.1104
G1 X180.281 Y160.369 E.11315
G1 X181.661 Y162.503 E.11349
G1 X182.138 Y163.834 E.06311
G1 X182.266 Y164.963 E.05076
G1 X182.108 Y166.298 E.06002
G1 X181.685 Y167.448 E.05472
G1 X180.612 Y169.177 E.09088
G1 X179.276 Y170.861 E.09601
G1 X177.776 Y172.37 E.09499
G1 X175.922 Y173.839 E.10564
G1 X174.717 Y174.611 E.06392
G1 X173.145 Y175.442 E.07942
G1 X171.883 Y175.98 E.06126
G1 X170.394 Y176.482 E.07018
G1 X169.032 Y176.826 E.06273
G1 X167.61 Y177.075 E.06448
G1 X166.071 Y177.22 E.06902
G1 X164.709 Y177.244 E.06085
G1 X140.031 Y175.741 E1.10414
G1 X138.777 Y175.421 E.05779
G1 X137.719 Y174.898 E.05269
G1 X136.737 Y174.121 E.05592
G1 X135.993 Y173.222 E.05213
G1 X135.326 Y171.894 E.06634
G1 X135.109 Y171.113 E.03619
G1 X135.001 Y170.362 E.0339
G1 X135.001 Y159.65 E.47835
G1 X135.245 Y158.354 E.0589
G1 X135.73 Y157.207 E.05564
G1 X136.421 Y156.217 E.05391
G1 X137.344 Y155.366 E.05604
G1 X137.698 Y155.793 F48000
G1 F3000
G1 X137.906 Y155.62 E.01207
G1 X139.134 Y155.023 E.06099
G1 X140.435 Y154.754 E.05932
G1 X165.308 Y153.292 E1.11272
G1 X167.489 Y153.451 E.09765
G1 X169.876 Y153.931 E.10872
G1 X172.191 Y154.722 E.10925
G1 X174.425 Y155.84 E.11158
G1 X176.453 Y157.22 E.10954
G1 X178.25 Y158.826 E.10762
G1 X179.848 Y160.687 E.10956
G1 X181.185 Y162.752 E.10984
G1 X181.612 Y163.942 E.05647
G1 X181.729 Y165.037 E.04918
G1 X181.588 Y166.163 E.05068
G1 X181.16 Y167.296 E.05408
G1 X179.962 Y169.16 E.09897
G1 X178.688 Y170.712 E.08967
G1 X177.133 Y172.221 E.09677
G1 X175.414 Y173.536 E.09666
G1 X174.102 Y174.345 E.06883
G1 X172.912 Y174.958 E.05976
G1 X171.697 Y175.476 E.05899
G1 X170.238 Y175.969 E.06877
G1 X168.914 Y176.302 E.06098
G1 X167.544 Y176.542 E.06212
G1 X166.036 Y176.684 E.06764
G1 X164.724 Y176.707 E.05859
G1 X140.111 Y175.21 E1.10121
G1 X138.971 Y174.92 E.0525
G1 X138.009 Y174.445 E.04794
G1 X137.117 Y173.741 E.05075
G1 X136.443 Y172.928 E.04717
G1 X135.831 Y171.711 E.06085
G1 X135.536 Y170.312 E.06383
G1 X135.535 Y159.7 E.47391
G1 X135.76 Y158.505 E.0543
G1 X136.203 Y157.461 E.05067
G1 X137.02 Y156.357 E.0613
G1 X137.66 Y155.825 E.03718
G1 X138.002 Y156.235 F48000
G1 F3000
G1 X138.198 Y156.072 E.0114
G1 X139.298 Y155.534 E.05468
G1 X140.486 Y155.288 E.05418
G1 X165.306 Y153.829 E1.11034
M73 P0 R17
G1 X167.411 Y153.982 E.09426
G1 X169.73 Y154.447 E.10561
G1 X171.98 Y155.216 E.10618
G1 X174.147 Y156.3 E.1082
G1 X176.119 Y157.641 E.10651
G1 X177.869 Y159.205 E.10484
G1 X179.415 Y161.005 E.10596
G1 X180.708 Y163 E.10619
G1 X181.086 Y164.05 E.04984
G1 X181.192 Y165.037 E.04431
G1 X181.034 Y166.159 E.0506
G1 X180.578 Y167.239 E.05237
G1 X179.485 Y168.902 E.08888
G1 X178.235 Y170.41 E.08748
G1 X176.725 Y171.863 E.09358
G1 X175.056 Y173.13 E.09357
G1 X173.834 Y173.879 E.06398
G1 X172.679 Y174.474 E.05802
G1 X171.511 Y174.972 E.05672
G1 X170.082 Y175.455 E.06736
G1 X167.477 Y176.009 E.11891
G1 X164.822 Y176.171 E.1188
G1 X140.191 Y174.679 E1.10202
G1 X139.166 Y174.42 E.0472
G1 X138.298 Y173.993 E.04319
G1 X137.496 Y173.362 E.04558
G1 X136.893 Y172.635 E.0422
G1 X136.336 Y171.527 E.05535
G1 X136.071 Y170.263 E.05771
G1 X136.07 Y159.75 E.46946
G1 X136.276 Y158.657 E.0497
G1 X136.676 Y157.715 E.04569
G1 X137.401 Y156.735 E.05445
G1 X137.963 Y156.267 E.03265
G1 X138.295 Y156.689 F48000
G1 F3000
G1 X138.582 Y156.463 E.01631
G1 X139.461 Y156.046 E.04344
G1 X140.537 Y155.823 E.04905
G1 X165.304 Y154.366 E1.10796
G1 X167.333 Y154.513 E.09087
G1 X169.583 Y154.964 E.1025
G1 X171.769 Y155.71 E.10311
G1 X173.868 Y156.759 E.10482
G1 X175.785 Y158.061 E.10349
G1 X177.489 Y159.584 E.10206
G1 X178.983 Y161.323 E.10236
G1 X180.232 Y163.249 E.10253
G1 X180.59 Y164.304 E.04975
G1 X180.643 Y165.306 E.0448
G1 X180.422 Y166.314 E.0461
G1 X179.852 Y167.405 E.05496
G1 X178.633 Y169.127 E.09423
G1 X177.441 Y170.464 E.08001
G1 X176.043 Y171.733 E.08429
G1 X174.448 Y172.886 E.08789
G1 X172.38 Y174.02 E.10534
G1 X171.325 Y174.469 E.05121
G1 X169.854 Y174.961 E.06928
G1 X167.411 Y175.476 E.11149
G1 X165.964 Y175.612 E.0649
G1 X164.753 Y175.633 E.05409
G1 X140.271 Y174.148 E1.09536
G1 X139.361 Y173.919 E.04191
G1 X138.502 Y173.486 E.04297
G1 X137.804 Y172.909 E.04044
G1 X137.25 Y172.199 E.0402
G1 X136.791 Y171.192 E.04942
G1 X136.596 Y170.066 E.05102
G1 X136.605 Y159.8 E.45846
G1 X136.791 Y158.808 E.0451
G1 X137.243 Y157.81 E.04891
G1 X137.875 Y157.02 E.04518
G1 X138.256 Y156.72 E.02167
; printing object 3DBenchy.stl id:0 copy 0
G1 E-.4 F4200
EXCLUDE_OBJECT_START NAME=3DBenchy.stl_id_0_copy_0
G1 X175.183 Y166.26 F48000
G1 E.4 F4200
;TYPE:Inner wall
;WIDTH:0.579999
G1 F7200
G1 X175.398 Y166.014 E.01461
G1 X175.976 Y165.199 E.04462
G2 X176.327 Y164.45 I-2.405 J-1.583 E.03705
G1 X176.374 Y163.862 E.02637
G1 X176.296 Y163.614 E.0116
;WIDTH:0.54717
G1 X176.219 Y163.366 E.01089
G1 X176.361 Y163.587 E.01104
;WIDTH:0.579999
G3 X177.157 Y164.87 I-16.59 J11.19 E.06742
G1 X177.171 Y165.051 E.00812
G1 X177.16 Y165.132 E.00365
G1 X176.891 Y165.607 E.02436
G1 X176.121 Y166.773 E.06243
G1 X175.774 Y166.457 E.02096
