; HEADER_BLOCK_START
; generated by OrcaSlicer 1.8.1 on 2024-01-31 at 17:38:36
; total layer number: 240
; HEADER_BLOCK_END

; THUMBNAIL_BLOCK_START

;
; THUMBNAIL_BLOCK_END

; external perimeters extrusion width = 0.52mm
; perimeters extrusion width = 0.52mm
; infill extrusion width = 0.55mm
; solid infill extrusion width = 0.55mm
; top infill extrusion width = 0.55mm
; first layer extrusion width = 0.58mm

; external perimeters extrusion width = 0.52mm
; perimeters extrusion width = 0.52mm
; infill extrusion width = 0.55mm
; solid infill extrusion width = 0.55mm
; top infill extrusion width = 0.55mm
; first layer extrusion width = 0.58mm

; external perimeters extrusion width = 0.52mm
; perimeters extrusion width = 0.52mm
; infill extrusion width = 0.55mm
; solid infill extrusion width = 0.55mm
; top infill extrusion width = 0.55mm
; first layer extrusion width = 0.58mm

; external perimeters extrusion width = 0.52mm
; perimeters extrusion width = 0.52mm
; infill extrusion width = 0.55mm
; solid infill extrusion width = 0.55mm
; top infill extrusion width = 0.55mm
; first layer extrusion width = 0.58mm

; EXECUTABLE_BLOCK_START
EXCLUDE_OBJECT_DEFINE NAME=3DBenchy.stl_id_0_copy_0 CENTER=165,165 POLYGON=[[135,155.816],[135.002,155.755],[135.007,155.699],[135.012,155.646],[135.014,155.63],[135.02,155.583],[135.028,155.525],[135.046,155.436],[135.058,155.379],[135.074,155.322],[135.081,155.296],[135.097,155.239],[135.126,155.155],[135.141,155.118],[135.162,155.064],[135.169,155.047],[135.186,155.01],[135.209,154.958],[135.231,154.916],[135.264,154.854],[135.278,154.827],[135.291,154.806],[135.34,154.727],[135.357,154.7],[135.371,154.679],[135.405,154.631],[135.44,154.584],[135.484,154.531],[135.508,154.501],[135.539,154.466],[135.578,154.423],[135.592,154.408],[135.6,154.4],[135.641,154.359],[135.661,154.34],[135.704,154.3],[135.737,154.271],[135.783,154.234],[135.793,154.225],[135.828,154.197],[135.887,154.154],[135.935,154.121],[135.979,154.092],[136.044,154.052],[136.071,154.036],[136.124,154.008],[136.148,153.995],[136.175,153.981],[136.197,153.97],[136.253,153.944],[136.312,153.919],[136.362,153.899],[136.417,153.879],[136.429,153.875],[136.472,153.861],[136.485,153.857],[136.541,153.84],[136.548,153.838],[136.584,153.828],[136.597,153.825],[136.625,153.818],[136.641,153.814],[136.71,153.799],[136.739,153.794],[136.769,153.789],[136.798,153.784],[164.812,149.886],[165.055,149.853],[165.299,149.821],[165.543,149.791],[165.882,149.752],[166.105,149.728],[166.35,149.702],[166.596,149.678],[166.842,149.656],[167.087,149.635],[167.253,149.622],[167.333,149.616],[167.523,149.602],[167.579,149.598],[167.826,149.581],[167.987,149.571],[168.071,149.566],[168.232,149.557],[168.489,149.544],[168.597,149.539],[168.619,149.538],[168.755,149.532],[168.906,149.526],[169.05,149.521],[169.167,149.517],[169.233,149.515],[169.342,149.512],[169.46,149.509],[169.548,149.507],[169.689,149.504],[169.881,149.501],[170.062,149.499],[170.18,149.498],[170.578,149.498],[170.934,149.5],[171.369,149.508],[171.45,149.51],[171.805,149.52],[171.912,149.524],[172.24,149.537],[172.677,149.558],[173.009,149.578],[173.092,149.583],[173.202,149.59],[173.375,149.602],[173.495,149.611],[173.641,149.622],[173.728,149.629],[173.909,149.644],[174.04,149.655],[174.832,149.78],[174.841,149.782],[175.269,149.888],[175.377,149.915],[175.595,149.97],[175.737,150.007],[175.813,150.027],[175.967,150.068],[176.248,150.145],[176.424,150.195],[176.68,150.27],[176.896,150.334],[177.111,150.4],[177.332,150.47],[177.558,150.543],[177.752,150.607],[178.008,150.694],[178.178,150.753],[178.232,150.772],[178.4,150.832],[178.601,150.905],[178.822,150.987],[179.033,151.067],[179.233,151.145],[179.344,151.188],[179.443,151.228],[179.453,151.232],[179.662,151.316],[179.871,151.402],[179.927,151.425],[180.134,151.513],[180.341,151.603],[180.547,151.693],[180.957,151.879],[181.16,151.974],[181.363,152.07],[181.565,152.168],[181.766,152.267],[181.967,152.367],[182.166,152.469],[182.366,152.572],[182.563,152.677],[182.762,152.783],[182.957,152.89],[183.153,152.999],[183.348,153.11],[183.543,153.221],[183.737,153.334],[183.93,153.449],[184.123,153.565],[184.314,153.683],[184.505,153.801],[184.696,153.922],[184.885,154.043],[185.075,154.167],[185.262,154.291],[185.451,154.417],[185.637,154.544],[185.824,154.673],[186.008,154.803],[186.193,154.934],[186.376,155.067],[186.56,155.201],[186.742,155.337],[186.923,155.474],[187.104,155.612],[187.284,155.752],[187.463,155.893],[187.642,156.036],[187.82,156.18],[187.998,156.325],[188.173,156.472],[188.523,156.77],[188.697,156.921],[188.87,157.074],[189.042,157.228],[189.214,157.384],[189.328,157.489],[189.498,157.645],[189.665,157.803],[189.832,157.962],[189.996,158.122],[190.161,158.283],[190.325,158.445],[190.486,158.609],[190.647,158.773],[190.807,158.939],[190.966,159.106],[191.124,159.274],[191.282,159.443],[191.438,159.614],[191.592,159.785],[191.745,159.958],[191.898,160.132],[192.05,160.306],[192.201,160.483],[192.349,160.66],[192.498,160.838],[192.645,161.017],[192.791,161.198],[192.936,161.38],[193.081,161.563],[193.223,161.747],[193.364,161.932],[193.505,162.118],[193.645,162.305],[193.784,162.493],[193.921,162.683],[194.056,162.874],[194.192,163.065],[194.326,163.258],[194.458,163.452],[194.589,163.647],[194.618,163.692],[194.651,163.745],[194.682,163.798],[194.713,163.852],[194.742,163.907],[194.769,163.962],[194.819,164.076],[194.834,164.117],[194.856,164.175],[194.876,164.233],[194.895,164.292],[194.912,164.351],[194.929,164.413],[194.943,164.47],[194.954,164.53],[194.966,164.593],[194.975,164.652],[194.984,164.713],[194.991,164.774],[194.995,164.836],[194.998,164.905],[195,164.966],[195,165.027],[194.999,165.088],[194.996,165.149],[194.992,165.209],[194.986,165.27],[194.977,165.331],[194.968,165.391],[194.958,165.449],[194.945,165.512],[194.932,165.569],[194.916,165.632],[194.901,165.686],[194.883,165.745],[194.863,165.803],[194.842,165.861],[194.82,165.918],[194.797,165.974],[194.771,166.03],[194.744,166.086],[194.716,166.14],[194.686,166.194],[194.655,166.248],[194.623,166.301],[194.589,166.353],[194.472,166.527],[194.339,166.721],[194.206,166.914],[194.071,167.106],[193.936,167.297],[193.797,167.487],[193.659,167.676],[193.52,167.864],[193.38,168.05],[193.237,168.236],[193.095,168.42],[192.951,168.604],[192.659,168.968],[192.51,169.148],[192.361,169.328],[192.21,169.506],[192.06,169.683],[191.907,169.86],[191.752,170.035],[191.597,170.209],[191.482,170.337],[191.326,170.509],[191.167,170.68],[191.008,170.85],[190.848,171.018],[190.688,171.186],[190.526,171.352],[190.2,171.68],[190.034,171.841],[189.869,172.002],[189.703,172.161],[189.535,172.319],[189.367,172.475],[189.199,172.63],[189.028,172.784],[188.857,172.937],[188.686,173.089],[188.512,173.239],[188.338,173.388],[188.164,173.536],[187.987,173.682],[187.811,173.827],[187.632,173.971],[187.454,174.114],[187.275,174.256],[187.093,174.396],[186.911,174.535],[186.728,174.673],[186.544,174.81],[186.359,174.945],[186.173,175.08],[185.799,175.344],[185.611,175.474],[185.421,175.603],[185.23,175.731],[185.039,175.857],[184.846,175.982],[184.653,176.106],[184.458,176.228],[184.263,176.349],[184.067,176.469],[183.869,176.587],[183.672,176.704],[183.472,176.819],[183.272,176.934],[183.072,177.046],[182.87,177.158],[182.595,177.307],[182.395,177.412],[182.196,177.516],[181.996,177.618],[181.796,177.719],[181.595,177.818],[181.392,177.916],[181.19,178.012],[180.987,178.107],[180.783,178.2],[180.579,178.292],[180.374,178.383],[180.169,178.472],[179.963,178.559],[179.756,178.645],[179.666,178.682],[179.549,178.73],[179.341,178.813],[179.122,178.898],[179.003,178.944],[178.704,179.057],[178.493,179.134],[178.293,179.206],[178.071,179.284],[177.884,179.348],[177.869,179.353],[177.656,179.424],[177.443,179.494],[177.207,179.57],[177.005,179.632],[176.979,179.64],[176.751,179.709],[176.523,179.776],[176.295,179.841],[176.142,179.884],[176.065,179.905],[175.924,179.943],[175.707,180.001],[175.606,180.027],[175.488,180.057],[175.269,180.112],[174.844,180.218],[174.316,180.319],[174.306,180.32],[174.05,180.344],[174.003,180.348],[173.81,180.364],[173.725,180.371],[173.561,180.384],[173.481,180.39],[173.134,180.414],[172.688,180.441],[172.649,180.443],[172.264,180.462],[172.126,180.468],[171.778,180.481],[171.564,180.487],[171.344,180.493],[170.907,180.5],[170.522,180.502],[170.177,180.502],[169.877,180.499],[169.821,180.498],[169.599,180.494],[169.457,180.491],[169.338,180.488],[169.166,180.483],[169.076,180.48],[168.93,180.475],[168.752,180.468],[168.728,180.467],[168.57,180.46],[168.463,180.455],[168.332,180.448],[168.133,180.437],[167.889,180.423],[167.644,180.407],[167.629,180.406],[167.342,180.385],[167.096,180.366],[166.849,180.345],[166.667,180.328],[166.603,180.322],[166.423,180.305],[166.179,180.28],[166.111,180.273],[165.935,180.254],[165.619,180.218],[165.373,180.188],[165.204,180.166],[164.882,180.124],[136.827,176.22],[136.792,176.215],[136.743,176.207],[136.686,176.196],[136.653,176.189],[136.597,176.175],[136.584,176.172],[136.548,176.162],[136.536,176.159],[136.481,176.142],[136.429,176.125],[136.417,176.121],[136.362,176.101],[136.312,176.081],[136.253,176.056],[136.197,176.03],[136.155,176.009],[136.105,175.982],[136.086,175.972],[136.044,175.948],[135.993,175.917],[135.979,175.908],[135.944,175.885],[135.935,175.879],[135.887,175.846],[135.847,175.817],[135.84,175.811],[135.793,175.775],[135.756,175.744],[135.749,175.738],[135.704,175.7],[135.661,175.66],[135.641,175.64],[135.592,175.592],[135.557,175.555],[135.539,175.534],[135.519,175.511],[135.481,175.466],[135.445,175.42],[135.431,175.402],[135.41,175.374],[135.407,175.37],[135.373,175.322],[135.357,175.3],[135.342,175.278],[135.308,175.224],[135.278,175.173],[135.25,175.122],[135.231,175.084],[135.218,175.06],[135.195,175.012],[135.169,174.954],[135.148,174.903],[135.127,174.849],[135.109,174.793],[135.107,174.79],[135.09,174.738],[135.075,174.682],[135.06,174.625],[135.046,174.564],[135.035,174.507],[135.026,174.454],[135.025,174.448],[135.016,174.396],[135.012,174.353],[135.008,174.325],[135.002,174.245],[135,174.208],[135,174.179],[135,155.816]]
M73 P0 R37
;TYPE:Custom
M104 S0
M140 S0
START_PRINT BED=75 HOTEND=210
G90
G21
M83 ; use relative distances for extrusion
T0
; filament start gcode
SET_PRESSURE_ADVANCE ADVANCE=0.036; Override pressure advance value
G1 Z.2 F48000
M106 S0
;LAYER_CHANGE
;Z:0.2
;HEIGHT:0.2
;BEFORE_LAYER_CHANGE
;0.2
G92 E0

;_SET_FAN_SPEED_CHANGING_LAYER
SET_VELOCITY_LIMIT ACCEL=10000 ACCEL_TO_DECEL=5000
SET_VELOCITY_LIMIT SQUARE_CORNER_VELOCITY=10
G1 E-.4 F4200
G1 X155.625 Y220.625 F48000
G1 E.4 F4200
;HEIGHT:0.2
;TYPE:Prime tower
;WIDTH:0.625
G1  X214.375 Y220.625  E2.8435 F7200
G1  Y244.500  E1.1556
G1  X155.625  E2.8435
G1  Y220.625  E1.1556
G1  X214.375 
G1  Y244.500 
G1  X213.125 
;--------------------
; CP EMPTY GRID START
; layer #1
G1  Y243.875  E0.0303
G1  X156.250  E2.7528
G1  Y243.247  E0.0304
G1  X213.750  E2.7830
G1  Y242.618  E0.0304
G1  X156.250  E2.7830
G1  Y241.990  E0.0304
G1  X213.750  E2.7830
G1  Y241.361  E0.0304
G1  X156.250  E2.7830
G1  Y240.733  E0.0304
G1  X213.750  E2.7830
G1  Y240.104  E0.0304
G1  X156.250  E2.7830
G1  Y239.476  E0.0304
G1  X213.750  E2.7830
M73 P0 R36
G1  Y238.847  E0.0304
G1  X156.250  E2.7830
G1  Y238.219  E0.0304
G1  X213.750  E2.7830
G1  Y237.590  E0.0304
G1  X156.250  E2.7830
G1  Y236.962  E0.0304
G1  X213.750  E2.7830
G1  Y236.333  E0.0304
G1  X156.250  E2.7830
G1  Y235.705  E0.0304
G1  X213.750  E2.7830
G1  Y235.076  E0.0304
G1  X156.250  E2.7830
G1  Y234.448  E0.0304
G1  X213.750  E2.7830
G1  Y233.819  E0.0304
G1  X156.250  E2.7830
G1  Y233.191  E0.0304
G1  X213.750  E2.7830
G1  Y232.563  E0.0304
G1  X156.250  E2.7830
G1  Y231.934  E0.0304
G1  X213.750  E2.7830
G1  Y231.306  E0.0304
G1  X156.250  E2.7830
G1  Y230.677  E0.0304
G1  X213.750  E2.7830
G1  Y230.049  E0.0304
G1  X156.250  E2.7830
G1  Y229.420  E0.0304
G1  X213.750  E2.7830
G1  Y228.792  E0.0304
G1  X156.250  E2.7830
G1  Y228.163  E0.0304
G1  X213.750  E2.7830
G1  Y227.535  E0.0304
G1  X156.250  E2.7830
G1  Y226.906  E0.0304
G1  X213.750  E2.7830
G1  Y226.278  E0.0304
G1  X156.250  E2.7830
G1  Y225.649  E0.0304
G1  X213.750  E2.7830
G1  Y225.021  E0.0304
G1  X156.250  E2.7830
G1  Y224.392  E0.0304
G1  X213.750  E2.7830
G1  Y223.764  E0.0304
G1  X156.250  E2.7830
G1  Y223.135  E0.0304
G1  X213.750  E2.7830
G1  Y222.507  E0.0304
G1  X156.250  E2.7830
G1  Y221.878  E0.0304
G1  X213.750  E2.7830
G1  Y221.250  E0.0304
G1  X156.250  E2.7830
G1  Y220.625  E0.0303
; CP EMPTY GRID END
;------------------






G1  X155.000 Y220.000  
G1  X215.000  E2.9040
G1  Y245.125  E1.2161
G1  X155.000  E2.9040
M73 P1 R36
G1  Y220.000  E1.2161
G1  X154.418 Y219.418  
G1  X215.582  E2.9604
G1  Y245.707  E1.2724
G1  X154.418  E2.9604
G1  Y219.418  E1.2724
G1  X153.836 Y218.836  
G1  X216.164  E3.0167
G1  Y246.289  E1.3287
G1  X153.836  E3.0167
G1  Y218.836  E1.3287
G1  X153.254 Y218.254  
G1  X216.746  E3.0730
G1  Y246.871  E1.3851
G1  X153.254  E3.0730
G1  Y218.254  E1.3851
G1  X152.672 Y217.672  
G1  X217.328  E3.1294
G1  Y247.453  E1.4414
G1  X152.672  E3.1294
G1  Y217.672  E1.4414
G1  X152.090 Y217.090  
G1  X217.910  E3.1857
G1  Y248.035  E1.4978
G1  X152.090  E3.1857
G1  Y217.090  E1.4978

SET_PRESSURE_ADVANCE ADVANCE=0.036; Override pressure advance value
G1 E-.4 F4200
G1 X142.994 Y218.601 F48000
G1 E.4 F4200
;TYPE:Skirt
;WIDTH:0.58
;HEIGHT:0.2
G1 F3000
G1 X135.048 Y170.77 E2.16533
G1 X134.98 Y169.879 E.03988
G1 X134.979 Y160.132 E.43529
G1 X135.069 Y159.103 E.04613
G1 X135.326 Y158.106 E.046
G1 X135.664 Y157.331 E.03776
G1 X136.098 Y156.625 E.03701
G1 X136.638 Y155.98 E.03756
G1 X137.271 Y155.414 E.03791
G1 X138.053 Y154.908 E.04159
G1 X138.718 Y154.601 E.0327
G1 X139.643 Y154.328 E.0431
G1 X140.525 Y154.208 E.03975
G1 X165.311 Y152.754 E1.10879
G1 X167.437 Y152.902 E.09516
G1 X169.281 Y153.229 E.08364
G1 X171.039 Y153.718 E.0815
G1 X172.997 Y154.489 E.09397
G1 X174.612 Y155.327 E.08126
G1 X176.27 Y156.41 E.08844
G1 X177.833 Y157.682 E.09
G1 X179.184 Y159.036 E.08542
G1 X180.248 Y160.325 E.07465
G1 X221.221 Y214.59 E3.03659
G1 X222.059 Y217.09 E.11773
G1 X222.059 Y248.035 E1.38199
G1 X221.664 Y249.802 E.08086
G1 X220.553 Y251.233 E.08086
G1 X218.94 Y252.054 E.08086
G1 X217.91 Y252.184 E.04632
G1 X152.09 Y252.184 E2.93945
G1 X150.323 Y251.789 E.08086
G1 X148.892 Y250.678 E.08086
G1 X147.997 Y248.715 E.09634
G1 X143.003 Y218.65 E1.36107
G1 X143.532 Y218.562 F48000
G1 F3000
G1 X135.578 Y170.685 E2.16743
G1 X135.517 Y169.879 E.03607
G1 X135.517 Y160.132 E.43529
G1 X135.599 Y159.189 E.04228
G1 X135.831 Y158.289 E.0415
G1 X136.137 Y157.585 E.0343
G1 X136.531 Y156.943 E.03362
G1 X137.02 Y156.357 E.03408
G1 X137.593 Y155.844 E.03435
G1 X138.312 Y155.378 E.03828
G1 X138.914 Y155.101 E.02959
G1 X139.76 Y154.852 E.0394
G1 X140.558 Y154.744 E.03595
G1 X165.308 Y153.292 E1.10722
G1 X167.375 Y153.436 E.09253
G1 X169.166 Y153.753 E.08122
G1 X170.866 Y154.227 E.0788
G1 X172.777 Y154.979 E.09172
G1 X174.345 Y155.793 E.07892
G1 X175.948 Y156.839 E.08546
G1 X177.468 Y158.076 E.08752
G1 X178.782 Y159.392 E.08305
G1 X179.82 Y160.648 E.07278
G1 X220.792 Y214.914 E3.03659
G1 X221.522 Y217.09 E.10249
G1 X221.522 Y248.035 E1.38199
G1 X221.127 Y249.677 E.07538
G1 X220.03 Y250.959 E.07538
G1 X217.91 Y251.647 E.09951
G1 X152.09 Y251.647 E2.93945
G1 X150.448 Y251.252 E.07538
G1 X149.166 Y250.155 E.07538
G1 X148.527 Y248.627 E.07395
G1 X143.541 Y218.611 E1.35884
G1 X144.07 Y218.523 F48000
G1 F3000
G1 X136.109 Y170.6 E2.16952
G1 X136.054 Y169.879 E.03227
M73 P2 R36
G1 X136.054 Y160.132 E.43529
G1 X136.129 Y159.275 E.03844
G1 X136.336 Y158.473 E.03699
G1 X136.61 Y157.839 E.03083
G1 X137.401 Y156.735 E.06066
G1 X137.915 Y156.274 E.0308
G1 X138.571 Y155.848 E.03496
G1 X139.877 Y155.376 E.06201
G1 X140.59 Y155.28 E.03214
G1 X165.306 Y153.829 E1.10566
G1 X167.314 Y153.969 E.0899
G1 X169.051 Y154.278 E.0788
G1 X170.693 Y154.735 E.07609
G1 X172.557 Y155.469 E.08947
G1 X174.079 Y156.26 E.07658
