; HEADER_BLOCK_START
; generated by OrcaSlicer 1.8.1 on 2024-02-13 at 16:06:16
; total layer number: 240
; HEADER_BLOCK_END

; THUMBNAIL_BLOCK_START

;
; THUMBNAIL_BLOCK_END

; external perimeters extrusion width = 0.52mm
; perimeters extrusion width = 0.52mm
; infill extrusion width = 0.55mm
; solid infill extrusion width = 0.55mm
; top infill extrusion width = 0.55mm
; first layer extrusion width = 0.58mm

; EXECUTABLE_BLOCK_START
EXCLUDE_OBJECT_DEFINE NAME=3DBenchy.stl_id_0_copy_0 CENTER=165,148.998 POLYGON=[[135,139.814],[135.002,139.753],[135.007,139.697],[135.012,139.644],[135.014,139.628],[135.02,139.581],[135.028,139.523],[135.046,139.434],[135.058,139.377],[135.074,139.32],[135.081,139.294],[135.097,139.237],[135.126,139.153],[135.141,139.116],[135.162,139.062],[135.169,139.045],[135.186,139.008],[135.209,138.956],[135.231,138.914],[135.264,138.852],[135.278,138.825],[135.291,138.804],[135.34,138.725],[135.357,138.698],[135.371,138.677],[135.405,138.629],[135.44,138.582],[135.484,138.529],[135.508,138.499],[135.539,138.464],[135.578,138.421],[135.592,138.406],[135.6,138.398],[135.641,138.357],[135.661,138.338],[135.704,138.298],[135.737,138.269],[135.783,138.232],[135.793,138.223],[135.828,138.195],[135.887,138.152],[135.935,138.119],[135.979,138.09],[136.044,138.05],[136.071,138.034],[136.124,138.006],[136.148,137.993],[136.175,137.979],[136.197,137.968],[136.253,137.942],[136.312,137.917],[136.362,137.897],[136.417,137.877],[136.429,137.873],[136.472,137.859],[136.485,137.855],[136.541,137.838],[136.548,137.836],[136.584,137.826],[136.597,137.823],[136.625,137.816],[136.641,137.812],[136.71,137.797],[136.739,137.792],[136.769,137.787],[136.798,137.782],[164.812,133.884],[165.055,133.851],[165.299,133.819],[165.543,133.789],[165.882,133.75],[166.105,133.726],[166.35,133.7],[166.596,133.676],[166.842,133.654],[167.087,133.633],[167.253,133.62],[167.333,133.614],[167.523,133.6],[167.579,133.596],[167.826,133.579],[167.987,133.569],[168.071,133.564],[168.232,133.555],[168.489,133.542],[168.597,133.537],[168.619,133.536],[168.755,133.53],[168.906,133.524],[169.05,133.519],[169.167,133.515],[169.233,133.513],[169.342,133.51],[169.46,133.507],[169.548,133.505],[169.689,133.502],[169.881,133.499],[170.062,133.497],[170.18,133.496],[170.578,133.496],[170.934,133.498],[171.369,133.506],[171.45,133.508],[171.805,133.518],[171.912,133.522],[172.24,133.535],[172.677,133.556],[173.009,133.576],[173.092,133.581],[173.202,133.588],[173.375,133.6],[173.495,133.609],[173.641,133.62],[173.728,133.627],[173.909,133.642],[174.04,133.653],[174.832,133.778],[174.841,133.78],[175.269,133.886],[175.377,133.913],[175.595,133.968],[175.737,134.005],[175.813,134.025],[175.967,134.066],[176.248,134.143],[176.424,134.193],[176.68,134.268],[176.896,134.332],[177.111,134.398],[177.332,134.468],[177.558,134.541],[177.752,134.605],[178.008,134.692],[178.178,134.751],[178.232,134.77],[178.4,134.83],[178.601,134.903],[178.822,134.985],[179.033,135.065],[179.233,135.143],[179.344,135.186],[179.443,135.226],[179.453,135.23],[179.662,135.314],[179.871,135.4],[179.927,135.423],[180.134,135.511],[180.341,135.601],[180.547,135.691],[180.957,135.877],[181.16,135.972],[181.363,136.068],[181.565,136.166],[181.766,136.265],[181.967,136.365],[182.166,136.467],[182.366,136.57],[182.563,136.675],[182.762,136.781],[182.957,136.888],[183.153,136.997],[183.348,137.108],[183.543,137.219],[183.737,137.332],[183.93,137.447],[184.123,137.563],[184.314,137.681],[184.505,137.799],[184.696,137.92],[184.885,138.041],[185.075,138.165],[185.262,138.289],[185.451,138.415],[185.637,138.542],[185.824,138.671],[186.008,138.801],[186.193,138.932],[186.376,139.065],[186.56,139.199],[186.742,139.335],[186.923,139.472],[187.104,139.61],[187.284,139.75],[187.463,139.891],[187.642,140.034],[187.82,140.178],[187.998,140.323],[188.173,140.47],[188.523,140.768],[188.697,140.919],[188.87,141.072],[189.042,141.226],[189.214,141.382],[189.328,141.487],[189.498,141.643],[189.665,141.801],[189.832,141.96],[189.996,142.12],[190.161,142.281],[190.325,142.443],[190.486,142.607],[190.647,142.771],[190.807,142.937],[190.966,143.104],[191.124,143.272],[191.282,143.441],[191.438,143.612],[191.592,143.783],[191.745,143.956],[191.898,144.13],[192.05,144.304],[192.201,144.481],[192.349,144.658],[192.498,144.836],[192.645,145.015],[192.791,145.196],[192.936,145.378],[193.081,145.561],[193.223,145.745],[193.364,145.93],[193.505,146.116],[193.645,146.303],[193.784,146.491],[193.921,146.681],[194.056,146.872],[194.192,147.063],[194.326,147.256],[194.458,147.45],[194.589,147.645],[194.618,147.69],[194.651,147.743],[194.682,147.796],[194.713,147.85],[194.742,147.905],[194.769,147.96],[194.819,148.074],[194.834,148.115],[194.856,148.173],[194.876,148.231],[194.895,148.29],[194.912,148.349],[194.929,148.411],[194.943,148.468],[194.954,148.528],[194.966,148.591],[194.975,148.65],[194.984,148.711],[194.991,148.772],[194.995,148.834],[194.998,148.903],[195,148.964],[195,149.025],[194.999,149.086],[194.996,149.147],[194.992,149.207],[194.986,149.268],[194.977,149.329],[194.968,149.389],[194.958,149.447],[194.945,149.51],[194.932,149.567],[194.916,149.63],[194.901,149.684],[194.883,149.743],[194.863,149.801],[194.842,149.859],[194.82,149.916],[194.797,149.972],[194.771,150.028],[194.744,150.084],[194.716,150.138],[194.686,150.192],[194.655,150.246],[194.623,150.299],[194.589,150.351],[194.472,150.525],[194.339,150.719],[194.206,150.912],[194.071,151.104],[193.936,151.295],[193.797,151.485],[193.659,151.674],[193.52,151.862],[193.38,152.048],[193.237,152.234],[193.095,152.418],[192.951,152.602],[192.659,152.966],[192.51,153.146],[192.361,153.326],[192.21,153.504],[192.06,153.681],[191.907,153.858],[191.752,154.033],[191.597,154.207],[191.482,154.335],[191.326,154.507],[191.167,154.678],[191.008,154.848],[190.848,155.016],[190.688,155.184],[190.526,155.35],[190.2,155.678],[190.034,155.839],[189.869,156],[189.703,156.159],[189.535,156.317],[189.367,156.473],[189.199,156.628],[189.028,156.782],[188.857,156.935],[188.686,157.087],[188.512,157.237],[188.338,157.386],[188.164,157.534],[187.987,157.68],[187.811,157.825],[187.632,157.969],[187.454,158.112],[187.275,158.254],[187.093,158.394],[186.911,158.533],[186.728,158.671],[186.544,158.808],[186.359,158.943],[186.173,159.078],[185.799,159.342],[185.611,159.472],[185.421,159.601],[185.23,159.729],[185.039,159.855],[184.846,159.98],[184.653,160.104],[184.458,160.226],[184.263,160.347],[184.067,160.467],[183.869,160.585],[183.672,160.702],[183.472,160.817],[183.272,160.932],[183.072,161.044],[182.87,161.156],[182.595,161.305],[182.395,161.41],[182.196,161.514],[181.996,161.616],[181.796,161.717],[181.595,161.816],[181.392,161.914],[181.19,162.01],[180.987,162.105],[180.783,162.198],[180.579,162.29],[180.374,162.381],[180.169,162.47],[179.963,162.557],[179.756,162.643],[179.666,162.68],[179.549,162.728],[179.341,162.811],[179.122,162.896],[179.003,162.942],[178.704,163.055],[178.493,163.132],[178.293,163.204],[178.071,163.282],[177.884,163.346],[177.869,163.351],[177.656,163.422],[177.443,163.492],[177.207,163.568],[177.005,163.63],[176.979,163.638],[176.751,163.707],[176.523,163.774],[176.295,163.839],[176.142,163.882],[176.065,163.903],[175.924,163.941],[175.707,163.999],[175.606,164.025],[175.488,164.055],[175.269,164.11],[174.844,164.216],[174.316,164.317],[174.306,164.318],[174.05,164.342],[174.003,164.346],[173.81,164.362],[173.725,164.369],[173.561,164.382],[173.481,164.388],[173.134,164.412],[172.688,164.439],[172.649,164.441],[172.264,164.46],[172.126,164.466],[171.778,164.479],[171.564,164.485],[171.344,164.491],[170.907,164.498],[170.522,164.5],[170.177,164.5],[169.877,164.497],[169.821,164.496],[169.599,164.492],[169.457,164.489],[169.338,164.486],[169.166,164.481],[169.076,164.478],[168.93,164.473],[168.752,164.466],[168.728,164.465],[168.57,164.458],[168.463,164.453],[168.332,164.446],[168.133,164.435],[167.889,164.421],[167.644,164.405],[167.629,164.404],[167.342,164.383],[167.096,164.364],[166.849,164.343],[166.667,164.326],[166.603,164.32],[166.423,164.303],[166.179,164.278],[166.111,164.271],[165.935,164.252],[165.619,164.216],[165.373,164.186],[165.204,164.164],[164.882,164.122],[136.827,160.218],[136.792,160.213],[136.743,160.205],[136.686,160.194],[136.653,160.187],[136.597,160.173],[136.584,160.17],[136.548,160.16],[136.536,160.157],[136.481,160.14],[136.429,160.123],[136.417,160.119],[136.362,160.099],[136.312,160.079],[136.253,160.054],[136.197,160.028],[136.155,160.007],[136.105,159.98],[136.086,159.97],[136.044,159.946],[135.993,159.915],[135.979,159.906],[135.944,159.883],[135.935,159.877],[135.887,159.844],[135.847,159.815],[135.84,159.809],[135.793,159.773],[135.756,159.742],[135.749,159.736],[135.704,159.698],[135.661,159.658],[135.641,159.638],[135.592,159.59],[135.557,159.553],[135.539,159.532],[135.519,159.509],[135.481,159.464],[135.445,159.418],[135.431,159.4],[135.41,159.372],[135.407,159.368],[135.373,159.32],[135.357,159.298],[135.342,159.276],[135.308,159.222],[135.278,159.171],[135.25,159.12],[135.231,159.082],[135.218,159.058],[135.195,159.01],[135.169,158.952],[135.148,158.901],[135.127,158.847],[135.109,158.791],[135.107,158.788],[135.09,158.736],[135.075,158.68],[135.06,158.623],[135.046,158.562],[135.035,158.505],[135.026,158.452],[135.025,158.446],[135.016,158.394],[135.012,158.351],[135.008,158.323],[135.002,158.243],[135,158.206],[135,158.177],[135,139.814]]
M73 P0 R16
;TYPE:Custom
M104 S0
M140 S0
START_PRINT BED=75 HOTEND=210
G90
G21
M83 ; use relative distances for extrusion
; filament start gcode
SET_PRESSURE_ADVANCE ADVANCE=0.036; Override pressure advance value
T0
M106 S0
;LAYER_CHANGE
;Z:0.2
;HEIGHT:0.2
;BEFORE_LAYER_CHANGE
;0.2
G92 E0

;_SET_FAN_SPEED_CHANGING_LAYER
SET_VELOCITY_LIMIT ACCEL=10000 ACCEL_TO_DECEL=5000
SET_VELOCITY_LIMIT SQUARE_CORNER_VELOCITY=10
G1 E-.4 F4200
G1 X136.421 Y140.215 F48000
G1 Z.2
G1 E.4 F4200
;TYPE:Skirt
;WIDTH:0.58
G1 F3000
G1 X137.38 Y139.33 E.06527
G1 X138.053 Y138.906 E.03977
G1 X138.718 Y138.599 E.03663
G1 X139.5 Y138.357 E.04097
G1 X140.384 Y138.217 E.04477
G1 X165.311 Y136.752 E1.24891
G1 X167.567 Y136.917 E.11317
G1 X170.022 Y137.412 E.12526
G1 X172.402 Y138.226 E.12579
G1 X174.703 Y139.379 E.12875
G1 X176.787 Y140.797 E.12607
G1 X178.63 Y142.445 E.12365
G1 X180.281 Y144.367 E.12673
G1 X181.661 Y146.501 E.12711
G1 X182.138 Y147.832 E.07069
G1 X182.266 Y148.961 E.05685
G1 X182.108 Y150.296 E.06723
G1 X181.685 Y151.446 E.06129
G1 X180.612 Y153.175 E.10179
G1 X179.276 Y154.859 E.10754
G1 X177.776 Y156.368 E.10639
G1 X175.922 Y157.837 E.11832
G1 X174.717 Y158.609 E.07158
G1 X173.145 Y159.44 E.08895
G1 X171.883 Y159.978 E.06861
G1 X170.394 Y160.48 E.07861
G1 X169.032 Y160.824 E.07025
G1 X167.61 Y161.073 E.07222
G1 X166.071 Y161.218 E.0773
G1 X164.709 Y161.242 E.06815
G1 X140.031 Y159.739 E1.23664
G1 X138.777 Y159.419 E.06473
G1 X137.719 Y158.896 E.05901
G1 X136.737 Y158.119 E.06263
G1 X135.993 Y157.22 E.05838
G1 X135.326 Y155.892 E.0743
G1 X135.109 Y155.111 E.04053
G1 X135.001 Y154.36 E.03797
G1 X135.001 Y143.648 E.53575
G1 X135.245 Y142.352 E.06597
G1 X135.73 Y141.205 E.06232
G1 X136.392 Y140.256 E.05788
G1 X136.845 Y140.591 F48000
G1 F3000
G1 X137.02 Y140.355 E.01466
G1 X137.906 Y139.618 E.05767
G1 X139.134 Y139.021 E.06831
G1 X140.435 Y138.752 E.06644
G1 X165.308 Y137.29 E1.24625
G1 X167.489 Y137.449 E.10937
G1 X169.876 Y137.929 E.12177
G1 X172.191 Y138.72 E.12236
G1 X174.425 Y139.838 E.12497
G1 X176.453 Y141.218 E.12268
G1 X178.25 Y142.824 E.12054
G1 X179.848 Y144.685 E.1227
G1 X181.185 Y146.75 E.12302
G1 X181.612 Y147.94 E.06325
G1 X181.729 Y149.035 E.05508
G1 X181.588 Y150.161 E.05676
G1 X181.16 Y151.294 E.06057
G1 X179.962 Y153.158 E.11084
G1 X178.688 Y154.71 E.10043
G1 X177.133 Y156.219 E.10838
G1 X175.414 Y157.534 E.10826
G1 X174.102 Y158.343 E.07709
G1 X172.912 Y158.956 E.06693
G1 X171.697 Y159.474 E.06607
G1 X170.238 Y159.967 E.07703
G1 X168.914 Y160.3 E.0683
G1 X167.544 Y160.54 E.06957
G1 X166.036 Y160.682 E.07576
G1 X164.724 Y160.705 E.06562
G1 X140.111 Y159.208 E1.23336
G1 X138.971 Y158.918 E.0588
G1 X138.009 Y158.443 E.05369
G1 X137.117 Y157.739 E.05684
G1 X136.443 Y156.926 E.05282
G1 X135.831 Y155.709 E.06815
G1 X135.536 Y154.31 E.07149
G1 X135.535 Y143.698 E.53077
G1 X135.76 Y142.503 E.06082
G1 X136.203 Y141.459 E.05675
G1 X136.816 Y140.631 E.0515
G1 X137.243 Y140.947 F48000
G1 F3000
G1 X137.401 Y140.733 E.01333
G1 X138.198 Y140.07 E.05184
G1 X139.298 Y139.532 E.06124
G1 X140.486 Y139.286 E.06069
G1 X165.306 Y137.827 E1.24358
G1 X167.411 Y137.98 E.10557
G1 X169.73 Y138.445 E.11829
G1 X171.98 Y139.214 E.11892
G1 X174.147 Y140.298 E.12118
G1 X176.119 Y141.639 E.11929
G1 X177.869 Y143.203 E.11742
G1 X179.415 Y145.003 E.11867
G1 X180.708 Y146.998 E.11893
G1 X181.086 Y148.048 E.05582
G1 X181.192 Y149.035 E.04963
G1 X181.034 Y150.157 E.05667
G1 X180.578 Y151.237 E.05865
G1 X179.485 Y152.9 E.09954
G1 X178.235 Y154.408 E.09798
G1 X176.725 Y155.861 E.10481
G1 X175.056 Y157.128 E.1048
G1 X173.834 Y157.877 E.07166
G1 X172.679 Y158.472 E.06498
G1 X171.511 Y158.97 E.06353
G1 X170.082 Y159.453 E.07545
G1 X167.477 Y160.007 E.13318
G1 X164.822 Y160.169 E.13305
G1 X140.191 Y158.677 E1.23426
G1 X139.166 Y158.418 E.05287
G1 X138.298 Y157.991 E.04837
G1 X137.496 Y157.36 E.05105
G1 X136.893 Y156.633 E.04726
G1 X136.336 Y155.525 E.06199
G1 X136.071 Y154.261 E.06464
G1 X136.07 Y143.748 E.52579
G1 X136.276 Y142.655 E.05566
G1 X136.676 Y141.713 E.05118
G1 X137.213 Y140.987 E.04515
G1 X137.632 Y141.322 F48000
G1 F3000
G1 X137.875 Y141.018 E.01948
G1 X138.582 Y140.461 E.04505
G1 X139.461 Y140.044 E.04866
G1 X140.537 Y139.821 E.05493
G1 X165.304 Y138.364 E1.24091
G1 X167.333 Y138.511 E.10177
G1 X169.583 Y138.962 E.1148
G1 X171.769 Y139.708 E.11548
G1 X173.868 Y140.757 E.1174
G1 X175.785 Y142.059 E.1159
G1 X177.489 Y143.582 E.11431
G1 X178.983 Y145.321 E.11464
G1 X180.232 Y147.247 E.11484
G1 X180.59 Y148.302 E.05572
G1 X180.643 Y149.304 E.05017
G1 X180.422 Y150.312 E.05164
G1 X179.852 Y151.403 E.06155
G1 X178.634 Y153.125 E.10553
G1 X177.441 Y154.462 E.08961
G1 X176.043 Y155.731 E.0944
G1 X174.448 Y156.884 E.09844
G1 X172.38 Y158.018 E.11798
G1 X171.325 Y158.467 E.05736
G1 X169.854 Y158.959 E.07759
G1 X167.411 Y159.474 E.12487
G1 X165.964 Y159.61 E.07269
G1 X164.753 Y159.631 E.06058
G1 X140.271 Y158.146 E1.2268
M73 P0 R15
G1 X139.361 Y157.917 E.04693
G1 X138.502 Y157.484 E.04813
G1 X137.803 Y156.907 E.0453
G1 X137.25 Y156.197 E.04503
G1 X136.791 Y155.19 E.05535
G1 X136.596 Y154.064 E.05714
G1 X136.605 Y143.798 E.51348
M73 P1 R15
G1 X136.791 Y142.806 E.05051
G1 X137.243 Y141.808 E.05478
G1 X137.6 Y141.361 E.02862
; printing object 3DBenchy.stl id:0 copy 0
G1 E-.4 F4200
EXCLUDE_OBJECT_START NAME=3DBenchy.stl_id_0_copy_0
G1 X160.509 Y150.917 F48000
G1 E.4 F4200
;TYPE:Outer wall
;WIDTH:0.547448
G1 F7200
G1 X160.578 Y150.751 E.00846
G1 E-.4 F4200
G1 X160.811 Y150.874 F48000
G1 X160.841 Y150.818
G1 X160.892 Y150.738
G1 X160.951 Y150.663
G1 X161.016 Y150.594
G1 X161.087 Y150.531
G1 X161.163 Y150.474
G1 X161.488 Y150.234
G1 X161.582 Y150.17
G1 X161.686 Y150.115
G1 X161.764 Y150.082
G1 X161.912 Y150.027
G1 X162.182 Y149.959
G1 X162.321 Y149.955
G1 X162.44 Y150.027
G1 X163.561 Y151.452
G1 X163.53 Y151.576
G1 X163.524 Y151.636
G1 X163.523 Y151.69
G1 X163.528 Y151.744
G1 X163.554 Y151.838
G1 X163.612 Y152.011
G1 X163.642 Y152.077
G1 X163.68 Y152.143
G1 X163.727 Y152.206
G1 X164.187 Y152.771
G1 X164.419 Y152.904
G1 X166.191 Y152.732
G1 X166.318 Y152.709
G1 X166.436 Y152.679
G1 X166.618 Y152.611
G1 X166.743 Y152.551
G1 X166.918 Y152.445
G1 X167.079 Y152.304
G1 X167.166 Y152.199
G1 X167.238 Y152.1
G1 X167.303 Y151.984
G1 X167.335 Y151.911
G1 X167.731 Y152.087
G1 E.4 F4200
;TYPE:Inner wall
;WIDTH:0.786674
G1 F7200
G1 X167.721 Y152.036 E.00363
;WIDTH:0.748486
G1 X167.711 Y151.985 E.00344
;WIDTH:0.710298
G1 X167.693 Y151.902 E.00526
;WIDTH:0.661657
G1 X167.675 Y151.819 E.00487
;WIDTH:0.613016
G1 X167.657 Y151.737 E.00449
;WIDTH:0.564375
G1 X167.639 Y151.654 E.00411
;WIDTH:0.515734
