; HEADER_BLOCK_START
; generated by OrcaSlicer 1.6.3 on 2023-11-06 at 09:23:02
; total layer number: 240
; HEADER_BLOCK_END

; THUMBNAIL_BLOCK_START
; THUMBNAIL_BLOCK_END

; external perimeters extrusion width = 0.62mm
; perimeters extrusion width = 0.62mm
; infill extrusion width = 0.65mm
; solid infill extrusion width = 0.65mm
; top infill extrusion width = 0.65mm
; first layer extrusion width = 0.68mm

; EXECUTABLE_BLOCK_START
EXCLUDE_OBJECT_DEFINE NAME=3DBenchy.stl_id_0_copy_0 CENTER=170,170 POLYGON=[[140,160.816],[140.002,160.755],[140.007,160.699],[140.012,160.646],[140.014,160.63],[140.02,160.583],[140.028,160.525],[140.046,160.436],[140.058,160.379],[140.074,160.322],[140.081,160.296],[140.097,160.239],[140.126,160.155],[140.141,160.118],[140.162,160.064],[140.169,160.047],[140.186,160.01],[140.209,159.958],[140.231,159.916],[140.264,159.854],[140.278,159.827],[140.291,159.806],[140.34,159.727],[140.357,159.7],[140.371,159.679],[140.405,159.631],[140.44,159.584],[140.484,159.531],[140.508,159.501],[140.539,159.466],[140.578,159.423],[140.592,159.408],[140.6,159.4],[140.641,159.359],[140.661,159.34],[140.704,159.3],[140.737,159.271],[140.783,159.234],[140.793,159.225],[140.828,159.197],[140.887,159.154],[140.935,159.121],[140.979,159.092],[141.044,159.052],[141.071,159.036],[141.124,159.008],[141.148,158.995],[141.175,158.981],[141.197,158.97],[141.253,158.944],[141.312,158.919],[141.362,158.899],[141.417,158.879],[141.429,158.875],[141.472,158.861],[141.485,158.857],[141.541,158.84],[141.548,158.838],[141.584,158.828],[141.597,158.825],[141.625,158.818],[141.641,158.814],[141.71,158.799],[141.739,158.794],[141.769,158.789],[141.798,158.784],[169.812,154.886],[170.055,154.853],[170.299,154.821],[170.543,154.791],[170.882,154.752],[171.105,154.728],[171.35,154.702],[171.596,154.678],[171.842,154.656],[172.087,154.635],[172.253,154.622],[172.333,154.616],[172.523,154.602],[172.579,154.598],[172.826,154.581],[172.987,154.571],[173.071,154.566],[173.232,154.557],[173.489,154.544],[173.597,154.539],[173.619,154.538],[173.755,154.532],[173.906,154.526],[174.05,154.521],[174.167,154.517],[174.233,154.515],[174.342,154.512],[174.46,154.509],[174.548,154.507],[174.689,154.504],[174.881,154.501],[175.062,154.499],[175.18,154.498],[175.578,154.498],[175.934,154.5],[176.369,154.508],[176.45,154.51],[176.805,154.52],[176.912,154.524],[177.24,154.537],[177.677,154.558],[178.009,154.578],[178.092,154.583],[178.202,154.59],[178.375,154.602],[178.495,154.611],[178.641,154.622],[178.728,154.629],[178.909,154.644],[179.04,154.655],[179.832,154.78],[179.841,154.782],[180.269,154.888],[180.377,154.915],[180.595,154.97],[180.737,155.007],[180.813,155.027],[180.967,155.068],[181.248,155.145],[181.424,155.195],[181.68,155.27],[181.896,155.334],[182.111,155.4],[182.332,155.47],[182.558,155.543],[182.752,155.607],[183.008,155.694],[183.178,155.753],[183.232,155.772],[183.4,155.832],[183.601,155.905],[183.822,155.987],[184.033,156.067],[184.233,156.145],[184.343,156.188],[184.443,156.228],[184.453,156.232],[184.662,156.316],[184.871,156.402],[184.927,156.425],[185.134,156.513],[185.341,156.603],[185.547,156.693],[185.957,156.879],[186.16,156.974],[186.363,157.07],[186.565,157.168],[186.766,157.267],[186.967,157.367],[187.166,157.469],[187.366,157.572],[187.563,157.677],[187.762,157.783],[187.957,157.89],[188.153,157.999],[188.348,158.11],[188.543,158.221],[188.737,158.334],[188.93,158.449],[189.123,158.565],[189.314,158.683],[189.505,158.801],[189.696,158.922],[189.885,159.043],[190.075,159.167],[190.262,159.291],[190.451,159.417],[190.637,159.544],[190.824,159.673],[191.008,159.803],[191.193,159.934],[191.376,160.067],[191.56,160.201],[191.742,160.337],[191.923,160.474],[192.104,160.612],[192.284,160.752],[192.463,160.893],[192.642,161.036],[192.82,161.18],[192.998,161.325],[193.173,161.472],[193.523,161.77],[193.697,161.921],[193.87,162.074],[194.042,162.228],[194.214,162.384],[194.328,162.489],[194.498,162.645],[194.665,162.803],[194.832,162.962],[194.996,163.122],[195.161,163.283],[195.325,163.445],[195.486,163.609],[195.647,163.773],[195.807,163.939],[195.966,164.106],[196.124,164.274],[196.282,164.443],[196.438,164.614],[196.592,164.785],[196.745,164.958],[196.898,165.132],[197.05,165.306],[197.201,165.483],[197.349,165.66],[197.498,165.838],[197.645,166.017],[197.791,166.198],[197.936,166.38],[198.081,166.563],[198.223,166.747],[198.364,166.932],[198.505,167.118],[198.645,167.305],[198.784,167.493],[198.921,167.683],[199.056,167.874],[199.192,168.065],[199.325,168.258],[199.458,168.452],[199.589,168.647],[199.618,168.692],[199.651,168.745],[199.682,168.798],[199.713,168.852],[199.742,168.907],[199.769,168.962],[199.819,169.076],[199.834,169.117],[199.856,169.175],[199.876,169.233],[199.895,169.292],[199.912,169.351],[199.929,169.413],[199.943,169.47],[199.954,169.53],[199.966,169.593],[199.975,169.652],[199.984,169.713],[199.991,169.774],[199.995,169.836],[199.998,169.905],[200,169.966],[200,170.027],[199.999,170.088],[199.996,170.149],[199.992,170.209],[199.986,170.27],[199.977,170.331],[199.968,170.391],[199.958,170.449],[199.945,170.512],[199.932,170.569],[199.916,170.632],[199.901,170.686],[199.883,170.745],[199.863,170.803],[199.842,170.861],[199.82,170.918],[199.797,170.974],[199.771,171.03],[199.744,171.086],[199.716,171.14],[199.686,171.194],[199.655,171.248],[199.623,171.301],[199.589,171.353],[199.472,171.527],[199.339,171.721],[199.206,171.914],[199.071,172.106],[198.936,172.297],[198.797,172.487],[198.659,172.676],[198.52,172.864],[198.38,173.05],[198.237,173.236],[198.095,173.42],[197.951,173.604],[197.659,173.968],[197.51,174.148],[197.361,174.328],[197.21,174.506],[197.06,174.683],[196.907,174.86],[196.752,175.035],[196.597,175.209],[196.482,175.337],[196.326,175.509],[196.167,175.68],[196.008,175.85],[195.848,176.018],[195.688,176.186],[195.526,176.352],[195.2,176.68],[195.034,176.841],[194.869,177.002],[194.703,177.161],[194.535,177.319],[194.367,177.475],[194.199,177.63],[194.028,177.784],[193.857,177.937],[193.686,178.089],[193.512,178.239],[193.338,178.388],[193.164,178.536],[192.987,178.682],[192.811,178.827],[192.632,178.971],[192.454,179.114],[192.275,179.256],[192.093,179.396],[191.911,179.535],[191.728,179.673],[191.544,179.81],[191.359,179.945],[191.173,180.08],[190.799,180.344],[190.611,180.474],[190.421,180.603],[190.23,180.731],[190.039,180.857],[189.846,180.982],[189.653,181.106],[189.458,181.228],[189.263,181.349],[189.067,181.469],[188.869,181.587],[188.672,181.704],[188.472,181.819],[188.272,181.934],[188.072,182.046],[187.87,182.158],[187.595,182.307],[187.395,182.412],[187.196,182.516],[186.996,182.618],[186.796,182.719],[186.595,182.818],[186.392,182.916],[186.19,183.012],[185.987,183.107],[185.783,183.2],[185.579,183.292],[185.374,183.383],[185.169,183.472],[184.963,183.559],[184.756,183.645],[184.666,183.682],[184.549,183.73],[184.341,183.813],[184.122,183.898],[184.003,183.944],[183.704,184.057],[183.493,184.134],[183.293,184.206],[183.071,184.284],[182.884,184.348],[182.869,184.353],[182.656,184.424],[182.443,184.494],[182.207,184.57],[182.005,184.632],[181.979,184.64],[181.751,184.709],[181.523,184.776],[181.295,184.841],[181.142,184.884],[181.065,184.905],[180.924,184.943],[180.707,185.001],[180.606,185.027],[180.488,185.057],[180.269,185.112],[179.844,185.218],[179.316,185.319],[179.306,185.32],[179.05,185.344],[179.003,185.348],[178.81,185.364],[178.725,185.371],[178.561,185.384],[178.481,185.39],[178.134,185.414],[177.688,185.441],[177.649,185.443],[177.264,185.462],[177.126,185.468],[176.778,185.481],[176.564,185.487],[176.344,185.493],[175.907,185.5],[175.522,185.502],[175.177,185.502],[174.877,185.499],[174.821,185.498],[174.599,185.494],[174.457,185.491],[174.338,185.488],[174.166,185.483],[174.076,185.48],[173.93,185.475],[173.752,185.468],[173.728,185.467],[173.57,185.46],[173.463,185.455],[173.332,185.448],[173.133,185.437],[172.889,185.423],[172.644,185.407],[172.629,185.406],[172.342,185.385],[172.096,185.366],[171.849,185.345],[171.667,185.328],[171.603,185.322],[171.423,185.305],[171.179,185.28],[171.111,185.273],[170.935,185.254],[170.619,185.218],[170.373,185.188],[170.204,185.166],[169.882,185.124],[141.827,181.22],[141.792,181.215],[141.743,181.207],[141.686,181.196],[141.653,181.189],[141.597,181.175],[141.584,181.172],[141.548,181.162],[141.536,181.159],[141.481,181.142],[141.429,181.125],[141.417,181.121],[141.362,181.101],[141.312,181.081],[141.253,181.056],[141.197,181.03],[141.155,181.009],[141.105,180.982],[141.086,180.972],[141.044,180.948],[140.993,180.917],[140.979,180.908],[140.944,180.885],[140.935,180.879],[140.887,180.846],[140.847,180.817],[140.84,180.811],[140.793,180.775],[140.756,180.744],[140.749,180.738],[140.704,180.7],[140.661,180.66],[140.641,180.64],[140.592,180.592],[140.557,180.555],[140.539,180.534],[140.519,180.511],[140.481,180.466],[140.445,180.42],[140.431,180.402],[140.41,180.374],[140.407,180.37],[140.373,180.322],[140.357,180.3],[140.342,180.278],[140.308,180.224],[140.278,180.173],[140.25,180.122],[140.231,180.084],[140.218,180.06],[140.195,180.012],[140.169,179.954],[140.148,179.903],[140.127,179.849],[140.109,179.793],[140.107,179.79],[140.09,179.738],[140.075,179.682],[140.06,179.625],[140.046,179.564],[140.035,179.507],[140.026,179.454],[140.025,179.448],[140.016,179.396],[140.012,179.353],[140.008,179.325],[140.002,179.245],[140,179.208],[140,179.179],[140,160.816]]
M73 P0 R32
;TYPE:Custom
M104 S0
M140 S0
START_PRINT BED=75 HOTEND=230
G90
G21
M83 ; use relative distances for extrusion
; filament start gcode
SET_PRESSURE_ADVANCE ADVANCE=0.04; Override pressure advance value
M106 S0
;LAYER_CHANGE
;Z:0.2
;HEIGHT:0.2
;BEFORE_LAYER_CHANGE
;0.2
G92 E0

;DSLR_SNAPSHOT
TIMELAPSE_TAKE_FRAME
M204 S5000
G1 E-.4 F4200
G1 X142.804 Y161.95 F48000
G1 Z.2
G1 E.4 F4200
;TYPE:Skirt
;WIDTH:0.68
G1 F7200
G1 X143.528 Y161.379 E.04788
G1 X144.431 Y160.951 E.05187
G1 X145.527 Y160.724 E.05813
G1 X170.304 Y159.266 E1.28848
G1 X172.347 Y159.414 E.10637
G1 X174.611 Y159.868 E.11983
G1 X176.808 Y160.618 E.12053
G1 X178.92 Y161.673 E.12258
G1 X180.847 Y162.983 E.12095
G1 X182.559 Y164.514 E.11924
G1 X184.063 Y166.264 E.11977
G1 X185.321 Y168.203 E.11998
G1 X185.658 Y169.139 E.05165
G1 X185.755 Y170.037 E.04691
G1 X185.611 Y171.049 E.05308
G1 X185.203 Y172.014 E.05439
G1 X183.934 Y173.906 E.11825
G1 X182.56 Y175.486 E.10869
G1 X181.106 Y176.811 E.10215
G1 X179.503 Y177.969 E.10265
G1 X177.421 Y179.112 E.12328
G1 X176.359 Y179.562 E.05988
G1 X174.88 Y180.058 E.08099
G1 X172.423 Y180.575 E.13034
G1 X170.971 Y180.712 E.07574
G1 X169.751 Y180.733 E.06336
G1 X145.256 Y179.247 E1.27395
G1 X144.324 Y179.013 E.04986
G1 X143.448 Y178.57 E.05098
G1 X142.733 Y177.98 E.04814
G1 X142.166 Y177.254 E.04781
G1 X141.695 Y176.22 E.05897
G1 X141.496 Y175.07 E.06061
G1 X141.505 Y164.791 E.53361
G1 X141.695 Y163.78 E.05342
G1 X142.158 Y162.756 E.05831
G1 X142.748 Y162.02 E.04896
; printing object 3DBenchy.stl id:0 copy 0
EXCLUDE_OBJECT_START NAME=3DBenchy.stl_id_0_copy_0
G1 E-.4 F4200
G1 X149.896 Y167.863 F48000
G1 E.4 F4200
;TYPE:Outer wall
;WIDTH:0.965352
G1 F7200
G1 X149.838 Y167.545 E.0243
G1 E-.4 F4200
G1 X149.655 Y169.952 F48000
G1 E.4 F4200
;TYPE:Inner wall
;WIDTH:0.602393
G1 F7200
G2 X150.192 Y169.618 I-.629 J-1.611 E.02902
G1 X150.541 Y169.725 E.01663
G1 X150.54 Y170.56 E.03807
G1 X150.112 Y170.181 E.02604
G1 X149.665 Y169.958 E.02278
G1 E-.4 F4200
G1 X150.656 Y173.394 F48000
G1 E.4 F4200
;WIDTH:0.679999
G1 F7200
G1 X150.749 Y173.601 E.01176
G1 X151.093 Y174.043 E.02909
;WIDTH:0.715421
G1 X151.634 Y174.45 E.03709
;WIDTH:0.749603
G2 X152.181 Y174.632 I.578 J-.827 E.03366
;WIDTH:0.720356
G1 X152.468 Y174.682 E.0161
;WIDTH:0.708273
G1 X153.032 Y174.696 E.03058
G1 X153.62 Y174.519 E.03326
;WIDTH:0.679999
G1 X154.226 Y174.141 E.0371
G1 X154.537 Y173.82 E.02322
G1 X154.77 Y173.433 E.02344
G1 X155.143 Y173.93 E.03225
G1 X155.678 Y174.334 E.03476
;WIDTH:0.699863
G1 X156.1 Y174.558 E.0256
;WIDTH:0.736149
G1 X156.253 Y174.628 E.00953
;WIDTH:0.772435
G1 X156.407 Y174.698 E.01003
;WIDTH:0.808721
G1 X156.561 Y174.768 E.01053
G1 X156.893 Y174.824 E.02105
;WIDTH:0.77643
G1 X157.639 Y174.886 E.04476
;WIDTH:0.792065
G1 X158.172 Y174.88 E.0325
G1 X158.502 Y174.812 E.02056
;WIDTH:0.748362
G1 X158.967 Y174.649 E.02833
;WIDTH:0.714181
G1 X159.432 Y174.486 E.02696
;WIDTH:0.679999
G1 X160.059 Y174.116 E.03777
G1 X160.437 Y174.399 E.02449
;WIDTH:0.727439
G1 X160.556 Y174.466 E.00764
;WIDTH:0.774879
G1 X160.675 Y174.533 E.00817
;WIDTH:0.822319
G1 X160.795 Y174.6 E.00869
;WIDTH:0.869759
G1 X160.914 Y174.667 E.00922
;WIDTH:0.917199
G1 X161.034 Y174.734 E.00975
;WIDTH:0.964639
G1 X161.153 Y174.801 E.01028
G1 X161.511 Y174.832 E.02697
;WIDTH:0.983764
G1 X162.059 Y174.831 E.04207
G1 X162.151 Y174.808 E.00727
;WIDTH:0.940369
G1 X162.243 Y174.785 E.00693
;WIDTH:0.896974
G1 X162.335 Y174.762 E.0066
;WIDTH:0.853579
G1 X162.427 Y174.739 E.00626
;WIDTH:0.810184
G1 X162.519 Y174.717 E.00593
;WIDTH:0.766789
G1 X162.611 Y174.694 E.00559
;WIDTH:0.723394
G1 X162.703 Y174.671 E.00526
;WIDTH:0.679999
G2 X164.191 Y174.52 I-.051 J-7.934 E.07774
G1 X164.831 Y174.288 E.03536
G1 X165.075 Y174.534 E.01794
G1 X165.521 Y174.825 E.02766
;WIDTH:0.728766
G1 X165.623 Y174.893 E.00688
;WIDTH:0.777533
G1 X165.726 Y174.96 E.00737
;WIDTH:0.8263
G1 X165.829 Y175.028 E.00786
;WIDTH:0.875067
G1 X165.932 Y175.096 E.00835
;WIDTH:0.923833
G1 X166.034 Y175.164 E.00884
G1 X166.345 Y175.216 E.02261
;WIDTH:0.906578
G1 X166.881 Y175.243 E.0378
G1 X166.978 Y175.207 E.00727
;WIDTH:0.866215
G1 X167.075 Y175.171 E.00693
;WIDTH:0.825852
G1 X167.171 Y175.135 E.00659
;WIDTH:0.785488
G1 X167.268 Y175.098 E.00625
;WIDTH:0.745125
G1 X167.365 Y175.062 E.00591
;WIDTH:0.704761
G1 X167.917 Y174.845 E.03198
;WIDTH:0.679999
G1 X168.26 Y174.627 E.02112
G2 X168.901 Y174.786 I1.331 J-3.987 E.03431
G1 X169.243 Y174.784 E.01778
G1 X169.723 Y174.691 E.02537
G1 X170.056 Y174.521 E.01941
G1 X170.135 Y174.573 E.00492
G1 X170.522 Y174.733 E.02171
G2 X170.533 Y175.439 I4.366 J.279 E.03666
G1 X170.677 Y175.914 E.0258
G1 X170.912 Y176.351 E.02576
G3 X168.272 Y176.3 I-.93 J-20.199 E.13717
;WIDTH:0.704761
G1 X167.427 Y176.236 E.0457
;WIDTH:0.744172
G1 X167.325 Y176.211 E.00603
;WIDTH:0.783582
G1 X167.223 Y176.185 E.00637
;WIDTH:0.822992
G1 X167.121 Y176.159 E.00671
;WIDTH:0.862402
G1 X167.018 Y176.133 E.00705
;WIDTH:0.890501
G1 X166.534 Y176.089 E.03356
;WIDTH:0.923833
G1 X165.918 Y176.035 E.04438
G1 X165.755 Y176.049 E.01177
;WIDTH:0.875067
G1 X165.592 Y176.064 E.01112
;WIDTH:0.8263
G1 X165.428 Y176.078 E.01047
;WIDTH:0.777533
G1 X165.265 Y176.093 E.00982
;WIDTH:0.728766
G1 X165.102 Y176.107 E.00917
;WIDTH:0.679999
G1 X162.652 Y175.958 E.12738
;WIDTH:0.723394
G1 X162.568 Y175.931 E.0049
;WIDTH:0.766789
G1 X162.484 Y175.904 E.00521
;WIDTH:0.810184
G1 X162.4 Y175.877 E.00552
;WIDTH:0.853579
G1 X162.316 Y175.85 E.00584
;WIDTH:0.896974
G1 X162.232 Y175.824 E.00615
;WIDTH:0.940369
G1 X162.148 Y175.797 E.00646
;WIDTH:0.983764
G1 X162.063 Y175.77 E.00677
G1 X161.803 Y175.763 E.01997
;WIDTH:0.966763
G1 X161.08 Y175.72 E.05451
;WIDTH:0.964639
G1 X160.895 Y175.732 E.01397
;WIDTH:0.917199
G1 X160.709 Y175.744 E.01325
;WIDTH:0.869759
G1 X160.524 Y175.757 E.01253
;WIDTH:0.822319
G1 X160.338 Y175.769 E.01181
;WIDTH:0.774879
G1 X160.152 Y175.782 E.01109
;WIDTH:0.727439
G1 X159.967 Y175.794 E.01037
;WIDTH:0.679999
G1 X159.126 Y175.743 E.04375
;WIDTH:0.717355
G1 X158.805 Y175.705 E.01777
;WIDTH:0.75471
G1 X158.484 Y175.667 E.01875
;WIDTH:0.792065
G2 X157.332 Y175.592 I-1.069 J7.599 E.07052
;WIDTH:0.808721
G1 X156.417 Y175.514 E.05728
G1 X156.249 Y175.521 E.01053
;WIDTH:0.772435
G1 X156.08 Y175.529 E.01003
;WIDTH:0.736149
G1 X155.912 Y175.537 E.00953
;WIDTH:0.699863
G1 X155.262 Y175.508 E.0348
;WIDTH:0.679999
G1 X153.742 Y175.415 E.0791
;WIDTH:0.708273
G2 X152.401 Y175.328 I-1.963 J19.836 E.07284
;WIDTH:0.715421
G2 X150.53 Y175.219 I-2.624 J29.063 E.10273
;WIDTH:0.679999
G1 X148.845 Y175.117 E.08763
;WIDTH:0.724808
G1 X148.74 Y175.088 E.00608
;WIDTH:0.769616
