; HEADER_BLOCK_START
; generated by OrcaSlicer 1.6.3 on 2023-11-16 at 22:02:10
; total layer number: 160
; HEADER_BLOCK_END

; THUMBNAIL_BLOCK_START
; THUMBNAIL_BLOCK_END

; external perimeters extrusion width = 0.62mm
; perimeters extrusion width = 0.62mm
; infill extrusion width = 0.65mm
; solid infill extrusion width = 0.65mm
; top infill extrusion width = 0.65mm
; first layer extrusion width = 0.68mm

; EXECUTABLE_BLOCK_START
EXCLUDE_OBJECT_DEFINE NAME=3DBenchy.stl_id_0_copy_0 CENTER=170,170 POLYGON=[[140,160.816],[140.002,160.755],[140.007,160.699],[140.012,160.646],[140.014,160.63],[140.02,160.583],[140.028,160.525],[140.046,160.436],[140.058,160.379],[140.074,160.322],[140.081,160.296],[140.097,160.239],[140.126,160.155],[140.141,160.118],[140.162,160.064],[140.169,160.047],[140.186,160.01],[140.209,159.958],[140.231,159.916],[140.264,159.854],[140.278,159.827],[140.291,159.806],[140.34,159.727],[140.357,159.7],[140.371,159.679],[140.405,159.631],[140.44,159.584],[140.484,159.531],[140.508,159.501],[140.539,159.466],[140.578,159.423],[140.592,159.408],[140.6,159.4],[140.641,159.359],[140.661,159.34],[140.704,159.3],[140.737,159.271],[140.783,159.234],[140.793,159.225],[140.828,159.197],[140.887,159.154],[140.935,159.121],[140.979,159.092],[141.044,159.052],[141.071,159.036],[141.124,159.008],[141.148,158.995],[141.175,158.981],[141.197,158.97],[141.253,158.944],[141.312,158.919],[141.362,158.899],[141.417,158.879],[141.429,158.875],[141.472,158.861],[141.485,158.857],[141.541,158.84],[141.548,158.838],[141.584,158.828],[141.597,158.825],[141.625,158.818],[141.641,158.814],[141.71,158.799],[141.739,158.794],[141.769,158.789],[141.798,158.784],[169.812,154.886],[170.055,154.853],[170.299,154.821],[170.543,154.791],[170.882,154.752],[171.105,154.728],[171.35,154.702],[171.596,154.678],[171.842,154.656],[172.087,154.635],[172.253,154.622],[172.333,154.616],[172.523,154.602],[172.579,154.598],[172.826,154.581],[172.987,154.571],[173.071,154.566],[173.232,154.557],[173.489,154.544],[173.597,154.539],[173.619,154.538],[173.755,154.532],[173.906,154.526],[174.05,154.521],[174.167,154.517],[174.233,154.515],[174.342,154.512],[174.46,154.509],[174.548,154.507],[174.689,154.504],[174.881,154.501],[175.062,154.499],[175.18,154.498],[175.578,154.498],[175.934,154.5],[176.369,154.508],[176.45,154.51],[176.805,154.52],[176.912,154.524],[177.24,154.537],[177.677,154.558],[178.009,154.578],[178.092,154.583],[178.202,154.59],[178.375,154.602],[178.495,154.611],[178.641,154.622],[178.728,154.629],[178.909,154.644],[179.04,154.655],[179.832,154.78],[179.841,154.782],[180.269,154.888],[180.377,154.915],[180.595,154.97],[180.737,155.007],[180.813,155.027],[180.967,155.068],[181.248,155.145],[181.424,155.195],[181.68,155.27],[181.896,155.334],[182.111,155.4],[182.332,155.47],[182.558,155.543],[182.752,155.607],[183.008,155.694],[183.178,155.753],[183.232,155.772],[183.4,155.832],[183.601,155.905],[183.822,155.987],[184.033,156.067],[184.233,156.145],[184.343,156.188],[184.443,156.228],[184.453,156.232],[184.662,156.316],[184.871,156.402],[184.927,156.425],[185.134,156.513],[185.341,156.603],[185.547,156.693],[185.957,156.879],[186.16,156.974],[186.363,157.07],[186.565,157.168],[186.766,157.267],[186.967,157.367],[187.166,157.469],[187.366,157.572],[187.563,157.677],[187.762,157.783],[187.957,157.89],[188.153,157.999],[188.348,158.11],[188.543,158.221],[188.737,158.334],[188.93,158.449],[189.123,158.565],[189.314,158.683],[189.505,158.801],[189.696,158.922],[189.885,159.043],[190.075,159.167],[190.262,159.291],[190.451,159.417],[190.637,159.544],[190.824,159.673],[191.008,159.803],[191.193,159.934],[191.376,160.067],[191.56,160.201],[191.742,160.337],[191.923,160.474],[192.104,160.612],[192.284,160.752],[192.463,160.893],[192.642,161.036],[192.82,161.18],[192.998,161.325],[193.173,161.472],[193.523,161.77],[193.697,161.921],[193.87,162.074],[194.042,162.228],[194.214,162.384],[194.328,162.489],[194.498,162.645],[194.665,162.803],[194.832,162.962],[194.996,163.122],[195.161,163.283],[195.325,163.445],[195.486,163.609],[195.647,163.773],[195.807,163.939],[195.966,164.106],[196.124,164.274],[196.282,164.443],[196.438,164.614],[196.592,164.785],[196.745,164.958],[196.898,165.132],[197.05,165.306],[197.201,165.483],[197.349,165.66],[197.498,165.838],[197.645,166.017],[197.791,166.198],[197.936,166.38],[198.081,166.563],[198.223,166.747],[198.364,166.932],[198.505,167.118],[198.645,167.305],[198.784,167.493],[198.921,167.683],[199.056,167.874],[199.192,168.065],[199.325,168.258],[199.458,168.452],[199.589,168.647],[199.618,168.692],[199.651,168.745],[199.682,168.798],[199.713,168.852],[199.742,168.907],[199.769,168.962],[199.819,169.076],[199.834,169.117],[199.856,169.175],[199.876,169.233],[199.895,169.292],[199.912,169.351],[199.929,169.413],[199.943,169.47],[199.954,169.53],[199.966,169.593],[199.975,169.652],[199.984,169.713],[199.991,169.774],[199.995,169.836],[199.998,169.905],[200,169.966],[200,170.027],[199.999,170.088],[199.996,170.149],[199.992,170.209],[199.986,170.27],[199.977,170.331],[199.968,170.391],[199.958,170.449],[199.945,170.512],[199.932,170.569],[199.916,170.632],[199.901,170.686],[199.883,170.745],[199.863,170.803],[199.842,170.861],[199.82,170.918],[199.797,170.974],[199.771,171.03],[199.744,171.086],[199.716,171.14],[199.686,171.194],[199.655,171.248],[199.623,171.301],[199.589,171.353],[199.472,171.527],[199.339,171.721],[199.206,171.914],[199.071,172.106],[198.936,172.297],[198.797,172.487],[198.659,172.676],[198.52,172.864],[198.38,173.05],[198.237,173.236],[198.095,173.42],[197.951,173.604],[197.659,173.968],[197.51,174.148],[197.361,174.328],[197.21,174.506],[197.06,174.683],[196.907,174.86],[196.752,175.035],[196.597,175.209],[196.482,175.337],[196.326,175.509],[196.167,175.68],[196.008,175.85],[195.848,176.018],[195.688,176.186],[195.526,176.352],[195.2,176.68],[195.034,176.841],[194.869,177.002],[194.703,177.161],[194.535,177.319],[194.367,177.475],[194.199,177.63],[194.028,177.784],[193.857,177.937],[193.686,178.089],[193.512,178.239],[193.338,178.388],[193.164,178.536],[192.987,178.682],[192.811,178.827],[192.632,178.971],[192.454,179.114],[192.275,179.256],[192.093,179.396],[191.911,179.535],[191.728,179.673],[191.544,179.81],[191.359,179.945],[191.173,180.08],[190.799,180.344],[190.611,180.474],[190.421,180.603],[190.23,180.731],[190.039,180.857],[189.846,180.982],[189.653,181.106],[189.458,181.228],[189.263,181.349],[189.067,181.469],[188.869,181.587],[188.672,181.704],[188.472,181.819],[188.272,181.934],[188.072,182.046],[187.87,182.158],[187.595,182.307],[187.395,182.412],[187.196,182.516],[186.996,182.618],[186.796,182.719],[186.595,182.818],[186.392,182.916],[186.19,183.012],[185.987,183.107],[185.783,183.2],[185.579,183.292],[185.374,183.383],[185.169,183.472],[184.963,183.559],[184.756,183.645],[184.666,183.682],[184.549,183.73],[184.341,183.813],[184.122,183.898],[184.003,183.944],[183.704,184.057],[183.493,184.134],[183.293,184.206],[183.071,184.284],[182.884,184.348],[182.869,184.353],[182.656,184.424],[182.443,184.494],[182.207,184.57],[182.005,184.632],[181.979,184.64],[181.751,184.709],[181.523,184.776],[181.295,184.841],[181.142,184.884],[181.065,184.905],[180.924,184.943],[180.707,185.001],[180.606,185.027],[180.488,185.057],[180.269,185.112],[179.844,185.218],[179.316,185.319],[179.306,185.32],[179.05,185.344],[179.003,185.348],[178.81,185.364],[178.725,185.371],[178.561,185.384],[178.481,185.39],[178.134,185.414],[177.688,185.441],[177.649,185.443],[177.264,185.462],[177.126,185.468],[176.778,185.481],[176.564,185.487],[176.344,185.493],[175.907,185.5],[175.522,185.502],[175.177,185.502],[174.877,185.499],[174.821,185.498],[174.599,185.494],[174.457,185.491],[174.338,185.488],[174.166,185.483],[174.076,185.48],[173.93,185.475],[173.752,185.468],[173.728,185.467],[173.57,185.46],[173.463,185.455],[173.332,185.448],[173.133,185.437],[172.889,185.423],[172.644,185.407],[172.629,185.406],[172.342,185.385],[172.096,185.366],[171.849,185.345],[171.667,185.328],[171.603,185.322],[171.423,185.305],[171.179,185.28],[171.111,185.273],[170.935,185.254],[170.619,185.218],[170.373,185.188],[170.204,185.166],[169.882,185.124],[141.827,181.22],[141.792,181.215],[141.743,181.207],[141.686,181.196],[141.653,181.189],[141.597,181.175],[141.584,181.172],[141.548,181.162],[141.536,181.159],[141.481,181.142],[141.429,181.125],[141.417,181.121],[141.362,181.101],[141.312,181.081],[141.253,181.056],[141.197,181.03],[141.155,181.009],[141.105,180.982],[141.086,180.972],[141.044,180.948],[140.993,180.917],[140.979,180.908],[140.944,180.885],[140.935,180.879],[140.887,180.846],[140.847,180.817],[140.84,180.811],[140.793,180.775],[140.756,180.744],[140.749,180.738],[140.704,180.7],[140.661,180.66],[140.641,180.64],[140.592,180.592],[140.557,180.555],[140.539,180.534],[140.519,180.511],[140.481,180.466],[140.445,180.42],[140.431,180.402],[140.41,180.374],[140.407,180.37],[140.373,180.322],[140.357,180.3],[140.342,180.278],[140.308,180.224],[140.278,180.173],[140.25,180.122],[140.231,180.084],[140.218,180.06],[140.195,180.012],[140.169,179.954],[140.148,179.903],[140.127,179.849],[140.109,179.793],[140.107,179.79],[140.09,179.738],[140.075,179.682],[140.06,179.625],[140.046,179.564],[140.035,179.507],[140.026,179.454],[140.025,179.448],[140.016,179.396],[140.012,179.353],[140.008,179.325],[140.002,179.245],[140,179.208],[140,179.179],[140,160.816]]
M73 P0 R22
;TYPE:Custom
M104 S0
M140 S0
START_PRINT BED=75 HOTEND=225
G90
G21
M83 ; use relative distances for extrusion
; filament start gcode
SET_PRESSURE_ADVANCE ADVANCE=0.04; Override pressure advance value
M106 S0
;LAYER_CHANGE
;Z:0.3
;HEIGHT:0.3
;BEFORE_LAYER_CHANGE
;0.3
G92 E0

;DSLR_SNAPSHOT
TIMELAPSE_TAKE_FRAME
M204 S5000
G1 E-.4 F4200
G1 X142.783 Y161.951 F36000
G1 Z.3
G1 E.4 F4200
;TYPE:Skirt
;WIDTH:0.68
G1 F7200
G1 X143.506 Y161.377 E.06378
G1 X144.482 Y160.921 E.07446
G1 X145.506 Y160.719 E.0721
G1 X170.299 Y159.251 E1.71633
G1 X172.339 Y159.399 E.14137
G1 X174.607 Y159.851 E.15981
G1 X176.812 Y160.601 E.16095
G1 X178.936 Y161.661 E.16406
G1 X180.872 Y162.975 E.16168
G1 X182.592 Y164.511 E.15932
G1 X184.099 Y166.264 E.15976
G1 X185.36 Y168.205 E.15999
G1 X185.699 Y169.144 E.06896
G1 X185.79 Y170.192 E.0727
G1 X185.588 Y171.255 E.07476
G1 X185.195 Y172.091 E.06383
G1 X183.966 Y173.911 E.15174
G1 X182.693 Y175.384 E.13454
G1 X181.182 Y176.777 E.14206
G1 X179.517 Y177.984 E.1421
G1 X177.431 Y179.126 E.16434
G1 X176.361 Y179.579 E.08028
G1 X174.877 Y180.075 E.10818
G1 X172.418 Y180.591 E.17362
G1 X170.962 Y180.727 E.10106
G1 X169.746 Y180.748 E.08401
G1 X145.378 Y179.269 E1.68702
G1 X144.487 Y179.081 E.06293
G1 X143.512 Y178.627 E.07433
G1 X142.791 Y178.057 E.06354
G1 X142.211 Y177.349 E.06324
G1 X141.692 Y176.24 E.08462
G1 X141.494 Y175.09 E.08064
G1 X141.503 Y164.755 E.71424
G1 X141.692 Y163.76 E.06998
G1 X142.145 Y162.754 E.07627
G1 X142.727 Y162.021 E.06463
; printing object 3DBenchy.stl id:0 copy 0
EXCLUDE_OBJECT_START NAME=3DBenchy.stl_id_0_copy_0
G1 E-.4 F4200
G1 X145.746 Y165.587 F36000
G1 E.4 F4200
;TYPE:Inner wall
;WIDTH:0.584662
G1 F7200
G1 X145.73 Y165.198 E.02274
G1 X145.767 Y164.987 E.01254
G1 X145.98 Y164.939 E.01275
;WIDTH:0.630942
G1 X146.064 Y164.957 E.00544
;WIDTH:0.677223
G1 X146.148 Y164.975 E.00589
;WIDTH:0.723504
G1 X146.231 Y164.993 E.00633
;WIDTH:0.769785
G1 X146.315 Y165.012 E.00677
;WIDTH:0.816066
G1 X146.399 Y165.03 E.00722
;WIDTH:0.862347
G1 X146.482 Y165.048 E.00766
;WIDTH:0.908628
G1 X146.566 Y165.066 E.00811
;WIDTH:0.954909
G1 X146.649 Y165.084 E.00855
G1 X146.609 Y165.109 E.00477
;WIDTH:0.926362
G1 X146.569 Y165.135 E.00461
;WIDTH:0.897815
G1 X146.498 Y165.179 E.00786
;WIDTH:0.853078
G1 X146.427 Y165.224 E.00744
;WIDTH:0.808342
G1 X146.355 Y165.269 E.00702
;WIDTH:0.763606
G1 X146.284 Y165.313 E.00659
;WIDTH:0.71887
G1 X146.213 Y165.358 E.00617
;WIDTH:0.674134
G1 X146.142 Y165.402 E.00575
;WIDTH:0.629398
G1 X146.07 Y165.447 E.00533
;WIDTH:0.584662
G1 X145.757 Y165.583 E.01995
G1 E-.4 F4200
G1 X147.609 Y165.967 F36000
G1 X149.096 Y167.308
G1 X149.166 Y167.374
G1 X149.221 Y167.435
G1 X149.269 Y167.492
G1 X149.311 Y167.552
G1 X149.37 Y167.662
G1 X149.391 Y167.718
G1 X149.407 Y167.778
G1 X149.801 Y169.873
G1 E.4 F4200
;WIDTH:0.654518
G1 F7200
G1 X149.907 Y169.819 E.0079
G2 X150.182 Y169.6 I-.893 J-1.406 E.02338
G1 X150.558 Y169.715 E.02603
G1 X150.556 Y170.602 E.05875
G1 X150.087 Y170.185 E.0416
G1 X149.624 Y169.963 E.03401
G1 X149.79 Y169.879 E.01232
G1 E-.4 F4200
G1 X149.407 Y167.778 F36000
G1 X149.391 Y167.718
G1 X149.37 Y167.662
G1 X149.311 Y167.552
G1 X149.269 Y167.492
G1 X149.221 Y167.435
G1 X149.166 Y167.374
G1 X149.096 Y167.308
G1 X147.609 Y165.967
G1 X147.444 Y166.04
G1 X147.29 Y166.112
G1 X147.141 Y166.189
G1 X146.962 Y166.297
G1 X146.764 Y166.434
G1 X146.643 Y166.529
G1 X146.536 Y166.623
G1 X146.429 Y166.723
G1 X146.25 Y166.923
G1 X145.643 Y167.68
G1 X145.571 Y167.772
G1 X145.502 Y167.87
G1 X145.38 Y168.076
G1 X145.324 Y168.186
G1 X145.272 Y168.301
G1 X145.224 Y168.423
G1 X145.14 Y168.683
G1 X144.572 Y170.719
G1 E.4 F4200
;TYPE:Outer wall
;WIDTH:0.936103
G1 F7200
G1 X144.559 Y170.27 E.04396
;WIDTH:0.910401
G1 X144.546 Y169.821 E.04266
;WIDTH:0.928178
G1 X144.568 Y169.373 E.04347
;WIDTH:0.971657
G1 X144.59 Y168.925 E.04566
G1 E-.4 F4200
G1 X146.25 Y166.923 F36000
G1 X146.429 Y166.723
G1 X146.536 Y166.623
G1 X146.643 Y166.529
G1 X146.764 Y166.434
G1 X146.962 Y166.297
G1 X147.141 Y166.189
G1 X147.29 Y166.112
G1 X147.444 Y166.04
G1 X147.609 Y165.967
G1 X151.621 Y169.143
G1 X151.512 Y169.701
G1 X151.51 Y170.163
G1 X151.72 Y172.723
G1 X151.746 Y172.9
G1 X151.792 Y173.029
G1 X151.857 Y173.158
G1 X151.991 Y173.348
G1 X152.521 Y173.834
G1 X152.663 Y173.909
G1 X152.808 Y173.909
G1 X153.372 Y173.478
G1 X153.482 Y173.367
G1 X153.573 Y173.252
G1 X156.858 Y168.757
G1 E.4 F4200
;WIDTH:0.964159
G1 F7200
G1 X157.141 Y168.634 E.0312
G1 E-.4 F4200
G1 X156.488 Y168.249 F36000
G1 X156.417 Y168.204
G1 X156.368 Y168.165
G1 X156.324 Y168.12
G1 X156.279 Y168.069
G1 X156.205 Y167.955
G1 X156.153 Y167.833
G1 X156.137 Y167.769
G1 X155.808 Y165.472
G1 E.4 F4200
;TYPE:Inner wall
;WIDTH:0.957716
G1 F7200
G2 X155.451 Y165.349 I-.361 J.465 E.03854
;WIDTH:0.920808
G1 X155.273 Y165.32 E.01736
;WIDTH:0.8839
G1 X155.095 Y165.291 E.01661
;WIDTH:0.846993
G1 X154.734 Y165.273 E.03176
;WIDTH:0.818722
G1 X154.373 Y165.254 E.03062
;WIDTH:0.790451
G1 X153.796 Y165.257 E.04699
;WIDTH:0.768393
G1 X152.232 Y165.279 E.1236
;WIDTH:0.719375
G1 X152.203 Y165.28 E.00214
;WIDTH:0.718433
G1 X151.073 Y165.288 E.08299
;WIDTH:0.692573
G1 X150.405 Y165.35 E.04731
;WIDTH:0.728302
G1 X150.208 Y165.403 E.01518
;WIDTH:0.764032
G1 X150.011 Y165.455 E.01599
;WIDTH:0.799762
G2 X149.649 Y165.623 I.048 J.577 E.03362
G1 X149.414 Y165.519 E.02125
;WIDTH:0.758792
G1 X149.178 Y165.415 E.02006
;WIDTH:0.717822
G1 X148.985 Y165.376 E.01444
;WIDTH:0.676885
G1 X148.793 Y165.337 E.01354
;WIDTH:0.635948
G1 X148.6 Y165.298 E.01263
;WIDTH:0.595011
G1 X148.407 Y165.259 E.01173
;WIDTH:0.603374
G1 X148.338 Y165.227 E.00455
;WIDTH:0.652674
G1 X148.27 Y165.196 E.00497
;WIDTH:0.701974
G1 X148.202 Y165.164 E.00538
;WIDTH:0.751274
G1 X148.134 Y165.133 E.0058
;WIDTH:0.800574
G1 X148.065 Y165.101 E.00622
;WIDTH:0.849874
G1 X147.997 Y165.069 E.00663
;WIDTH:0.899174
G1 X147.929 Y165.038 E.00705
;WIDTH:0.948475
G1 X147.86 Y165.006 E.00747
G1 X147.933 Y164.977 E.0078
;WIDTH:0.899174
G1 X148.007 Y164.949 E.00736
;WIDTH:0.849874
G1 X148.08 Y164.92 E.00693
;WIDTH:0.800574
G1 X148.153 Y164.891 E.00649
;WIDTH:0.751274
G1 X148.226 Y164.862 E.00606
;WIDTH:0.701974
G1 X148.299 Y164.833 E.00562
;WIDTH:0.652674
G1 X148.372 Y164.804 E.00519
;WIDTH:0.603374
G1 X148.445 Y164.775 E.00475
;WIDTH:0.585211
G1 X148.646 Y164.777 E.01177
;WIDTH:0.616348
G1 X148.848 Y164.779 E.01247
;WIDTH:0.662201
G1 X149.036 Y164.791 E.01269
;WIDTH:0.708055
G1 X149.225 Y164.802 E.01366
;WIDTH:0.753908
G1 X149.414 Y164.814 E.01464
;WIDTH:0.799762
G2 X149.848 Y164.792 I.162 J-1.117 E.0361
;WIDTH:0.764032
