; HEADER_BLOCK_START
; generated by OrcaSlicer 1.8.1 on 2024-02-07 at 19:43:40
; total layer number: 192
; HEADER_BLOCK_END

; THUMBNAIL_BLOCK_START

;
; THUMBNAIL_BLOCK_END

; external perimeters extrusion width = 0.52mm
; perimeters extrusion width = 0.52mm
; infill extrusion width = 0.55mm
; solid infill extrusion width = 0.55mm
; top infill extrusion width = 0.55mm
; first layer extrusion width = 0.58mm

; EXECUTABLE_BLOCK_START
EXCLUDE_OBJECT_DEFINE NAME=3DBenchy.stl_id_0_copy_0 CENTER=165,148.998 POLYGON=[[135,139.814],[135.002,139.753],[135.007,139.697],[135.012,139.644],[135.014,139.628],[135.02,139.581],[135.028,139.523],[135.046,139.434],[135.058,139.377],[135.074,139.32],[135.081,139.294],[135.097,139.237],[135.126,139.153],[135.141,139.116],[135.162,139.062],[135.169,139.045],[135.186,139.008],[135.209,138.956],[135.231,138.914],[135.264,138.852],[135.278,138.825],[135.291,138.804],[135.34,138.725],[135.357,138.698],[135.371,138.677],[135.405,138.629],[135.44,138.582],[135.484,138.529],[135.508,138.499],[135.539,138.464],[135.578,138.421],[135.592,138.406],[135.6,138.398],[135.641,138.357],[135.661,138.338],[135.704,138.298],[135.737,138.269],[135.783,138.232],[135.793,138.223],[135.828,138.195],[135.887,138.152],[135.935,138.119],[135.979,138.09],[136.044,138.05],[136.071,138.034],[136.124,138.006],[136.148,137.993],[136.175,137.979],[136.197,137.968],[136.253,137.942],[136.312,137.917],[136.362,137.897],[136.417,137.877],[136.429,137.873],[136.472,137.859],[136.485,137.855],[136.541,137.838],[136.548,137.836],[136.584,137.826],[136.597,137.823],[136.625,137.816],[136.641,137.812],[136.71,137.797],[136.739,137.792],[136.769,137.787],[136.798,137.782],[164.812,133.884],[165.055,133.851],[165.299,133.819],[165.543,133.789],[165.882,133.75],[166.105,133.726],[166.35,133.7],[166.596,133.676],[166.842,133.654],[167.087,133.633],[167.253,133.62],[167.333,133.614],[167.523,133.6],[167.579,133.596],[167.826,133.579],[167.987,133.569],[168.071,133.564],[168.232,133.555],[168.489,133.542],[168.597,133.537],[168.619,133.536],[168.755,133.53],[168.906,133.524],[169.05,133.519],[169.167,133.515],[169.233,133.513],[169.342,133.51],[169.46,133.507],[169.548,133.505],[169.689,133.502],[169.881,133.499],[170.062,133.497],[170.18,133.496],[170.578,133.496],[170.934,133.498],[171.369,133.506],[171.45,133.508],[171.805,133.518],[171.912,133.522],[172.24,133.535],[172.677,133.556],[173.009,133.576],[173.092,133.581],[173.202,133.588],[173.375,133.6],[173.495,133.609],[173.641,133.62],[173.728,133.627],[173.909,133.642],[174.04,133.653],[174.832,133.778],[174.841,133.78],[175.269,133.886],[175.377,133.913],[175.595,133.968],[175.737,134.005],[175.813,134.025],[175.967,134.066],[176.248,134.143],[176.424,134.193],[176.68,134.268],[176.896,134.332],[177.111,134.398],[177.332,134.468],[177.558,134.541],[177.752,134.605],[178.008,134.692],[178.178,134.751],[178.232,134.77],[178.4,134.83],[178.601,134.903],[178.822,134.985],[179.033,135.065],[179.233,135.143],[179.344,135.186],[179.443,135.226],[179.453,135.23],[179.662,135.314],[179.871,135.4],[179.927,135.423],[180.134,135.511],[180.341,135.601],[180.547,135.691],[180.957,135.877],[181.16,135.972],[181.363,136.068],[181.565,136.166],[181.766,136.265],[181.967,136.365],[182.166,136.467],[182.366,136.57],[182.563,136.675],[182.762,136.781],[182.957,136.888],[183.153,136.997],[183.348,137.108],[183.543,137.219],[183.737,137.332],[183.93,137.447],[184.123,137.563],[184.314,137.681],[184.505,137.799],[184.696,137.92],[184.885,138.041],[185.075,138.165],[185.262,138.289],[185.451,138.415],[185.637,138.542],[185.824,138.671],[186.008,138.801],[186.193,138.932],[186.376,139.065],[186.56,139.199],[186.742,139.335],[186.923,139.472],[187.104,139.61],[187.284,139.75],[187.463,139.891],[187.642,140.034],[187.82,140.178],[187.998,140.323],[188.173,140.47],[188.523,140.768],[188.697,140.919],[188.87,141.072],[189.042,141.226],[189.214,141.382],[189.328,141.487],[189.498,141.643],[189.665,141.801],[189.832,141.96],[189.996,142.12],[190.161,142.281],[190.325,142.443],[190.486,142.607],[190.647,142.771],[190.807,142.937],[190.966,143.104],[191.124,143.272],[191.282,143.441],[191.438,143.612],[191.592,143.783],[191.745,143.956],[191.898,144.13],[192.05,144.304],[192.201,144.481],[192.349,144.658],[192.498,144.836],[192.645,145.015],[192.791,145.196],[192.936,145.378],[193.081,145.561],[193.223,145.745],[193.364,145.93],[193.505,146.116],[193.645,146.303],[193.784,146.491],[193.921,146.681],[194.056,146.872],[194.192,147.063],[194.326,147.256],[194.458,147.45],[194.589,147.645],[194.618,147.69],[194.651,147.743],[194.682,147.796],[194.713,147.85],[194.742,147.905],[194.769,147.96],[194.819,148.074],[194.834,148.115],[194.856,148.173],[194.876,148.231],[194.895,148.29],[194.912,148.349],[194.929,148.411],[194.943,148.468],[194.954,148.528],[194.966,148.591],[194.975,148.65],[194.984,148.711],[194.991,148.772],[194.995,148.834],[194.998,148.903],[195,148.964],[195,149.025],[194.999,149.086],[194.996,149.147],[194.992,149.207],[194.986,149.268],[194.977,149.329],[194.968,149.389],[194.958,149.447],[194.945,149.51],[194.932,149.567],[194.916,149.63],[194.901,149.684],[194.883,149.743],[194.863,149.801],[194.842,149.859],[194.82,149.916],[194.797,149.972],[194.771,150.028],[194.744,150.084],[194.716,150.138],[194.686,150.192],[194.655,150.246],[194.623,150.299],[194.589,150.351],[194.472,150.525],[194.339,150.719],[194.206,150.912],[194.071,151.104],[193.936,151.295],[193.797,151.485],[193.659,151.674],[193.52,151.862],[193.38,152.048],[193.237,152.234],[193.095,152.418],[192.951,152.602],[192.659,152.966],[192.51,153.146],[192.361,153.326],[192.21,153.504],[192.06,153.681],[191.907,153.858],[191.752,154.033],[191.597,154.207],[191.482,154.335],[191.326,154.507],[191.167,154.678],[191.008,154.848],[190.848,155.016],[190.688,155.184],[190.526,155.35],[190.2,155.678],[190.034,155.839],[189.869,156],[189.703,156.159],[189.535,156.317],[189.367,156.473],[189.199,156.628],[189.028,156.782],[188.857,156.935],[188.686,157.087],[188.512,157.237],[188.338,157.386],[188.164,157.534],[187.987,157.68],[187.811,157.825],[187.632,157.969],[187.454,158.112],[187.275,158.254],[187.093,158.394],[186.911,158.533],[186.728,158.671],[186.544,158.808],[186.359,158.943],[186.173,159.078],[185.799,159.342],[185.611,159.472],[185.421,159.601],[185.23,159.729],[185.039,159.855],[184.846,159.98],[184.653,160.104],[184.458,160.226],[184.263,160.347],[184.067,160.467],[183.869,160.585],[183.672,160.702],[183.472,160.817],[183.272,160.932],[183.072,161.044],[182.87,161.156],[182.595,161.305],[182.395,161.41],[182.196,161.514],[181.996,161.616],[181.796,161.717],[181.595,161.816],[181.392,161.914],[181.19,162.01],[180.987,162.105],[180.783,162.198],[180.579,162.29],[180.374,162.381],[180.169,162.47],[179.963,162.557],[179.756,162.643],[179.666,162.68],[179.549,162.728],[179.341,162.811],[179.122,162.896],[179.003,162.942],[178.704,163.055],[178.493,163.132],[178.293,163.204],[178.071,163.282],[177.884,163.346],[177.869,163.351],[177.656,163.422],[177.443,163.492],[177.207,163.568],[177.005,163.63],[176.979,163.638],[176.751,163.707],[176.523,163.774],[176.295,163.839],[176.142,163.882],[176.065,163.903],[175.924,163.941],[175.707,163.999],[175.606,164.025],[175.488,164.055],[175.269,164.11],[174.844,164.216],[174.316,164.317],[174.306,164.318],[174.05,164.342],[174.003,164.346],[173.81,164.362],[173.725,164.369],[173.561,164.382],[173.481,164.388],[173.134,164.412],[172.688,164.439],[172.649,164.441],[172.264,164.46],[172.126,164.466],[171.778,164.479],[171.564,164.485],[171.344,164.491],[170.907,164.498],[170.522,164.5],[170.177,164.5],[169.877,164.497],[169.821,164.496],[169.599,164.492],[169.457,164.489],[169.338,164.486],[169.166,164.481],[169.076,164.478],[168.93,164.473],[168.752,164.466],[168.728,164.465],[168.57,164.458],[168.463,164.453],[168.332,164.446],[168.133,164.435],[167.889,164.421],[167.644,164.405],[167.629,164.404],[167.342,164.383],[167.096,164.364],[166.849,164.343],[166.667,164.326],[166.603,164.32],[166.423,164.303],[166.179,164.278],[166.111,164.271],[165.935,164.252],[165.619,164.216],[165.373,164.186],[165.204,164.164],[164.882,164.122],[136.827,160.218],[136.792,160.213],[136.743,160.205],[136.686,160.194],[136.653,160.187],[136.597,160.173],[136.584,160.17],[136.548,160.16],[136.536,160.157],[136.481,160.14],[136.429,160.123],[136.417,160.119],[136.362,160.099],[136.312,160.079],[136.253,160.054],[136.197,160.028],[136.155,160.007],[136.105,159.98],[136.086,159.97],[136.044,159.946],[135.993,159.915],[135.979,159.906],[135.944,159.883],[135.935,159.877],[135.887,159.844],[135.847,159.815],[135.84,159.809],[135.793,159.773],[135.756,159.742],[135.749,159.736],[135.704,159.698],[135.661,159.658],[135.641,159.638],[135.592,159.59],[135.557,159.553],[135.539,159.532],[135.519,159.509],[135.481,159.464],[135.445,159.418],[135.431,159.4],[135.41,159.372],[135.407,159.368],[135.373,159.32],[135.357,159.298],[135.342,159.276],[135.308,159.222],[135.278,159.171],[135.25,159.12],[135.231,159.082],[135.218,159.058],[135.195,159.01],[135.169,158.952],[135.148,158.901],[135.127,158.847],[135.109,158.791],[135.107,158.788],[135.09,158.736],[135.075,158.68],[135.06,158.623],[135.046,158.562],[135.035,158.505],[135.026,158.452],[135.025,158.446],[135.016,158.394],[135.012,158.351],[135.008,158.323],[135.002,158.243],[135,158.206],[135,158.177],[135,139.814]]
M73 P0 R13
;TYPE:Custom
M104 S0
M140 S0
START_PRINT BED=75 HOTEND=210
G90
G21
M83 ; use relative distances for extrusion
; filament start gcode
SET_PRESSURE_ADVANCE ADVANCE=0.036; Override pressure advance value
T0
M106 S0
;LAYER_CHANGE
;Z:0.25
;HEIGHT:0.25
;BEFORE_LAYER_CHANGE
;0.25
G92 E0

;_SET_FAN_SPEED_CHANGING_LAYER
SET_VELOCITY_LIMIT ACCEL=10000 ACCEL_TO_DECEL=5000
SET_VELOCITY_LIMIT SQUARE_CORNER_VELOCITY=10
G1 E-.4 F4200
G1 X136.437 Y140.235 F48000
G1 Z.25
G1 E.4 F4200
;TYPE:Skirt
;WIDTH:0.58
G1 F3000
G1 X137.376 Y139.365 E.0784
G1 X138.061 Y138.931 E.0497
G1 X138.739 Y138.619 E.04571
G1 X139.514 Y138.383 E.04967
G1 X140.378 Y138.247 E.05359
G1 X165.308 Y136.777 E1.53018
G1 X167.558 Y136.941 E.13823
G1 X170.011 Y137.434 E.15332
G1 X172.391 Y138.247 E.15407
G1 X174.695 Y139.4 E.15785
G1 X176.779 Y140.819 E.1545
G1 X178.623 Y142.466 E.15151
G1 X180.273 Y144.386 E.15509
G1 X181.651 Y146.517 E.15549
G1 X182.127 Y147.841 E.08622
G1 X182.252 Y149.092 E.077
G1 X182.097 Y150.286 E.07381
G1 X181.672 Y151.438 E.07524
G1 X180.604 Y153.155 E.12387
G1 X179.266 Y154.842 E.13194
G1 X177.767 Y156.349 E.13023
G1 X175.987 Y157.765 E.13934
G1 X174.96 Y158.437 E.0752
G1 X173.584 Y159.2 E.09642
G1 X172.001 Y159.906 E.10622
G1 X170.704 Y160.361 E.08424
G1 X169.021 Y160.801 E.10658
G1 X167.73 Y161.031 E.08031
G1 X166.064 Y161.193 E.10258
G1 X164.82 Y161.219 E.07627
G1 X140.021 Y159.709 E1.52227
G1 X139.057 Y159.488 E.06063
G1 X137.945 Y159.001 E.07441
G1 X136.932 Y158.269 E.07655
G1 X136.145 Y157.395 E.07205
G1 X135.734 Y156.744 E.04718
G1 X135.397 Y156.006 E.04968
G1 X135.167 Y155.242 E.0489
G1 X135.032 Y154.368 E.05419
G1 X135.031 Y143.643 E.65719
G1 X135.274 Y142.351 E.08052
G1 X135.751 Y141.22 E.07521
G1 X136.409 Y140.276 E.07053
G1 X136.854 Y140.604 F48000
G1 F3000
G1 X137.03 Y140.366 E.01817
G1 X137.89 Y139.647 E.06869
G1 X139.145 Y139.034 E.08558
G1 X140.428 Y138.771 E.08021
G1 X165.306 Y137.304 E1.52699
G1 X167.482 Y137.462 E.13368
G1 X169.868 Y137.941 E.14914
G1 X172.184 Y138.731 E.14995
G1 X174.422 Y139.85 E.1533
G1 X176.452 Y141.231 E.15043
G1 X178.25 Y142.838 E.14777
G1 X179.849 Y144.698 E.15026
G1 X181.185 Y146.761 E.1506
G1 X181.611 Y147.947 E.07726
G1 X181.726 Y149.075 E.06945
G1 X181.587 Y150.154 E.06666
G1 X181.156 Y151.291 E.07454
G1 X179.962 Y153.146 E.13512
G1 X178.686 Y154.699 E.12318
G1 X177.13 Y156.208 E.13282
G1 X175.409 Y157.524 E.13274
G1 X174.295 Y158.219 E.08049
G1 X172.925 Y158.935 E.0947
G1 X171.69 Y159.463 E.08226
G1 X170.224 Y159.957 E.09483
G1 X168.905 Y160.288 E.0833
G1 X167.538 Y160.526 E.08505
G1 X166.029 Y160.668 E.09283
G1 X164.722 Y160.691 E.08011
G1 X140.1 Y159.189 E1.51144
G1 X138.975 Y158.903 E.07113
G1 X138.008 Y158.425 E.06612
G1 X137.123 Y157.725 E.06911
G1 X136.414 Y156.857 E.06872
G1 X135.85 Y155.711 E.07826
G1 X135.556 Y154.32 E.08711
G1 X135.555 Y143.691 E.65128
G1 X135.779 Y142.5 E.07426
G1 X136.215 Y141.469 E.06857
G1 X136.824 Y140.644 E.0628
G1 X137.243 Y140.954 F48000
G1 F3000
G1 X137.404 Y140.736 E.01661
G1 X138.177 Y140.088 E.0618
G1 X139.305 Y139.535 E.07692
G1 X140.477 Y139.295 E.07334
G1 X165.303 Y137.83 E1.52381
G1 X167.405 Y137.983 E.12913
G1 X169.725 Y138.447 E.14495
G1 X171.977 Y139.216 E.14582
G1 X174.149 Y140.301 E.14876
G1 X176.125 Y141.643 E.14636
G1 X177.877 Y143.209 E.14403
G1 X179.425 Y145.009 E.14542
G1 X180.718 Y147.004 E.14571
G1 X181.096 Y148.053 E.06831
G1 X181.2 Y149.058 E.06189
G1 X181.044 Y150.153 E.06778
G1 X180.588 Y151.231 E.07169
G1 X179.494 Y152.894 E.12199
G1 X178.247 Y154.398 E.11968
G1 X176.729 Y155.858 E.12906
G1 X175.057 Y157.126 E.12857
G1 X172.694 Y158.462 E.16634
G1 X171.508 Y158.969 E.07903
G1 X170.072 Y159.453 E.09288
G1 X167.473 Y160.004 E.16277
G1 X165.994 Y160.143 E.09099
G1 X164.737 Y160.165 E.07709
G1 X140.179 Y158.668 E1.50748
G1 X139.165 Y158.412 E.06407
G1 X138.292 Y157.983 E.05963
G1 X137.496 Y157.354 E.06217
G1 X136.858 Y156.575 E.06169
G1 X136.284 Y155.348 E.08297
G1 X136.069 Y154.092 E.07809
G1 X136.079 Y143.739 E.6344
G1 X136.284 Y142.648 E.06801
G1 X136.679 Y141.717 E.06193
G1 X137.213 Y140.994 E.05509
G1 X137.624 Y141.321 F48000
G1 F3000
G1 X137.868 Y141.015 E.02401
G1 X138.567 Y140.462 E.05462
G1 X139.464 Y140.037 E.06081
G1 X140.527 Y139.819 E.06647
G1 X165.301 Y138.356 E1.52063
G1 X167.329 Y138.504 E.12458
G1 X169.582 Y138.954 E.14077
G1 X171.771 Y139.7 E.1417
G1 X173.876 Y140.751 E.14421
M73 P1 R13
G1 X175.798 Y142.055 E.14228
G1 X177.505 Y143.581 E.14029
G1 X179 Y145.321 E.14059
G1 X180.252 Y147.248 E.14081
G1 X180.61 Y148.305 E.06834
G1 X180.644 Y149.471 E.0715
G1 X180.379 Y150.471 E.06337
G1 X179.871 Y151.402 E.06498
G1 X178.839 Y152.887 E.11085
G1 X177.57 Y154.347 E.11855
G1 X176.107 Y155.693 E.12178
G1 X174.455 Y156.891 E.12502
G1 X172.385 Y158.026 E.14463
G1 X171.326 Y158.475 E.07052
G1 X169.852 Y158.968 E.09521
G1 X167.408 Y159.482 E.15302
G1 X165.96 Y159.618 E.08915
G1 X164.751 Y159.639 E.07406
G1 X140.399 Y158.165 E1.49484
G1 X139.523 Y157.98 E.05487
G1 X138.577 Y157.54 E.06393
G1 X137.869 Y156.982 E.05523
G1 X137.303 Y156.293 E.05465
G1 X136.79 Y155.2 E.07397
G1 X136.595 Y154.075 E.06999
G1 X136.603 Y143.786 E.63038
G1 X136.79 Y142.796 E.06175
G1 X137.236 Y141.807 E.06651
G1 X137.592 Y141.36 E.03498
; printing object 3DBenchy.stl id:0 copy 0
G1 E-.4 F4200
EXCLUDE_OBJECT_START NAME=3DBenchy.stl_id_0_copy_0
G1 X175.279 Y150.218 F48000
G1 E.4 F4200
;TYPE:Inner wall
;WIDTH:0.579999
G1 F7200
G2 X176.275 Y148.779 I-5.272 J-4.715 E.10751
G1 X176.388 Y148.47 E.02014
G1 X176.438 Y147.861 E.03744
G1 X176.354 Y147.606 E.0165
;WIDTH:0.534437
G1 X176.269 Y147.35 E.01507
G1 X176.411 Y147.582 E.01524
;WIDTH:0.579999
G3 X177.198 Y148.863 I-23.06 J15.056 E.09213
G1 X177.213 Y149.049 E.01141
G1 X177.201 Y149.133 E.00518
G1 X176.928 Y149.615 E.03396
G1 X176.168 Y150.778 E.08509
G1 X176.067 Y150.637 E.01062
G1 X175.755 Y150.379 E.0248
G1 X175.288 Y150.221 E.03022
G1 E-.4 F4200
G1 X176.714 Y149.009 F48000
G1 E.4 F4200
;WIDTH:0.518636
G1 F7200
G1 X176.449 Y149.469 E.02876
;WIDTH:0.511138
G1 X176.089 Y150 E.03416
G1 E-.4 F4200
G1 X175.613 Y149.529 F48000
G1 X175.837 Y151.211
G1 X175.842 Y151.365
G1 X175.835 Y151.456
G1 X175.821 Y151.543
G1 X175.799 Y151.63
G1 X175.758 Y151.743
G1 X175.724 Y151.82
G1 X175.687 Y151.889
G1 X175.645 Y151.955
G1 X175.624 Y151.981
G1 X175.778 Y152.103
G1 E.4 F4200
;TYPE:Outer wall
;WIDTH:0.63279
G1 F7200
G1 X175.598 Y152.295 E.01774
G1 E-.4 F4200
G1 X175.476 Y152.138 F48000
G1 X175.42 Y152.179
G1 X175.359 Y152.219
G1 X175.232 Y152.286
G1 X175.077 Y152.352
G1 X174.962 Y152.394
G1 X174.803 Y152.45
G1 X174.405 Y152.587
