; HEADER_BLOCK_START
; generated by OrcaSlicer 1.6.3 on 2024-01-08 at 17:35:43
; total layer number: 240
; HEADER_BLOCK_END

; THUMBNAIL_BLOCK_START
; THUMBNAIL_BLOCK_END

; external perimeters extrusion width = 0.52mm
; perimeters extrusion width = 0.52mm
; infill extrusion width = 0.55mm
; solid infill extrusion width = 0.55mm
; top infill extrusion width = 0.55mm
; first layer extrusion width = 0.58mm

; EXECUTABLE_BLOCK_START
EXCLUDE_OBJECT_DEFINE NAME=3DBenchy.stl_id_0_copy_0 CENTER=171.367,162.059 POLYGON=[[141.366,152.875],[141.369,152.814],[141.373,152.758],[141.378,152.705],[141.38,152.689],[141.386,152.642],[141.395,152.584],[141.412,152.495],[141.425,152.438],[141.44,152.381],[141.447,152.355],[141.464,152.298],[141.493,152.214],[141.507,152.177],[141.529,152.123],[141.536,152.106],[141.552,152.069],[141.576,152.017],[141.597,151.975],[141.63,151.913],[141.645,151.886],[141.657,151.865],[141.706,151.786],[141.724,151.759],[141.738,151.738],[141.772,151.69],[141.807,151.643],[141.85,151.59],[141.875,151.56],[141.905,151.525],[141.945,151.482],[141.959,151.467],[141.967,151.459],[142.008,151.418],[142.028,151.399],[142.071,151.359],[142.104,151.33],[142.149,151.293],[142.16,151.284],[142.195,151.256],[142.253,151.213],[142.301,151.18],[142.345,151.151],[142.411,151.111],[142.438,151.095],[142.49,151.067],[142.515,151.054],[142.542,151.04],[142.564,151.029],[142.62,151.003],[142.678,150.978],[142.728,150.958],[142.783,150.938],[142.795,150.934],[142.838,150.92],[142.851,150.916],[142.907,150.899],[142.914,150.897],[142.951,150.887],[142.963,150.884],[142.991,150.877],[143.007,150.873],[143.077,150.858],[143.106,150.853],[143.135,150.848],[143.164,150.843],[171.179,146.945],[171.422,146.912],[171.666,146.88],[171.91,146.85],[172.249,146.811],[172.472,146.787],[172.717,146.761],[172.963,146.737],[173.209,146.715],[173.454,146.694],[173.62,146.681],[173.7,146.675],[173.89,146.661],[173.946,146.657],[174.193,146.64],[174.354,146.63],[174.438,146.625],[174.599,146.616],[174.856,146.603],[174.964,146.598],[174.986,146.597],[175.122,146.591],[175.273,146.585],[175.417,146.58],[175.534,146.576],[175.6,146.574],[175.709,146.571],[175.827,146.568],[175.915,146.566],[176.056,146.563],[176.248,146.56],[176.429,146.558],[176.547,146.557],[176.945,146.557],[177.301,146.559],[177.736,146.567],[177.816,146.569],[178.172,146.579],[178.279,146.583],[178.607,146.596],[179.043,146.617],[179.376,146.637],[179.459,146.642],[179.569,146.649],[179.742,146.661],[179.862,146.67],[180.008,146.681],[180.095,146.688],[180.276,146.703],[180.406,146.714],[181.199,146.839],[181.208,146.841],[181.636,146.947],[181.744,146.974],[181.962,147.029],[182.104,147.066],[182.18,147.086],[182.334,147.127],[182.615,147.204],[182.791,147.254],[183.047,147.329],[183.263,147.393],[183.477,147.459],[183.699,147.529],[183.925,147.602],[184.119,147.666],[184.375,147.753],[184.545,147.812],[184.599,147.831],[184.767,147.891],[184.968,147.964],[185.189,148.046],[185.4,148.126],[185.6,148.204],[185.71,148.247],[185.81,148.287],[185.82,148.291],[186.029,148.375],[186.238,148.461],[186.293,148.484],[186.501,148.572],[186.708,148.662],[186.914,148.752],[187.324,148.938],[187.527,149.033],[187.73,149.129],[187.932,149.227],[188.133,149.326],[188.334,149.426],[188.533,149.528],[188.732,149.631],[188.93,149.736],[189.128,149.842],[189.324,149.949],[189.52,150.058],[189.715,150.169],[189.91,150.28],[190.104,150.393],[190.297,150.508],[190.489,150.624],[190.681,150.742],[190.872,150.86],[191.063,150.981],[191.252,151.102],[191.441,151.226],[191.629,151.35],[191.817,151.476],[192.004,151.603],[192.19,151.732],[192.375,151.862],[192.559,151.993],[192.743,152.126],[192.926,152.26],[193.109,152.396],[193.29,152.533],[193.471,152.671],[193.651,152.811],[193.83,152.952],[194.009,153.095],[194.187,153.239],[194.364,153.384],[194.54,153.531],[194.89,153.829],[195.064,153.98],[195.237,154.133],[195.409,154.287],[195.581,154.443],[195.695,154.548],[195.864,154.704],[196.032,154.862],[196.198,155.021],[196.363,155.181],[196.528,155.342],[196.691,155.504],[196.853,155.668],[197.014,155.832],[197.174,155.998],[197.333,156.165],[197.491,156.333],[197.648,156.502],[197.804,156.673],[197.959,156.844],[198.112,157.017],[198.265,157.191],[198.417,157.365],[198.567,157.542],[198.716,157.719],[198.865,157.897],[199.012,158.076],[199.158,158.257],[199.303,158.439],[199.447,158.622],[199.59,158.806],[199.731,158.991],[199.872,159.177],[200.012,159.364],[200.15,159.552],[200.287,159.742],[200.423,159.933],[200.558,160.124],[200.692,160.317],[200.825,160.511],[200.956,160.706],[200.985,160.751],[201.018,160.804],[201.049,160.857],[201.079,160.911],[201.108,160.966],[201.135,161.021],[201.185,161.135],[201.201,161.176],[201.223,161.234],[201.243,161.292],[201.262,161.351],[201.279,161.41],[201.295,161.472],[201.309,161.529],[201.321,161.589],[201.333,161.652],[201.342,161.711],[201.35,161.772],[201.357,161.833],[201.362,161.895],[201.365,161.964],[201.367,162.025],[201.367,162.086],[201.366,162.147],[201.363,162.208],[201.358,162.268],[201.352,162.329],[201.344,162.39],[201.335,162.45],[201.325,162.508],[201.312,162.571],[201.299,162.628],[201.283,162.691],[201.268,162.745],[201.25,162.804],[201.23,162.862],[201.209,162.92],[201.187,162.977],[201.163,163.033],[201.138,163.089],[201.111,163.145],[201.083,163.199],[201.053,163.253],[201.022,163.307],[200.99,163.36],[200.956,163.412],[200.839,163.586],[200.706,163.78],[200.572,163.973],[200.438,164.165],[200.302,164.356],[200.164,164.546],[200.026,164.735],[199.887,164.923],[199.746,165.109],[199.604,165.295],[199.461,165.479],[199.317,165.663],[199.025,166.027],[198.877,166.207],[198.728,166.387],[198.577,166.565],[198.426,166.742],[198.273,166.919],[198.119,167.094],[197.964,167.268],[197.849,167.396],[197.692,167.568],[197.534,167.739],[197.375,167.909],[197.215,168.077],[197.054,168.245],[196.892,168.411],[196.566,168.739],[196.401,168.9],[196.236,169.061],[196.07,169.22],[195.902,169.378],[195.734,169.534],[195.565,169.689],[195.395,169.843],[195.224,169.996],[195.052,170.148],[194.879,170.298],[194.705,170.447],[194.53,170.595],[194.354,170.741],[194.177,170.886],[193.999,171.03],[193.821,171.173],[193.641,171.315],[193.46,171.455],[193.278,171.594],[193.095,171.732],[192.911,171.869],[192.726,172.004],[192.54,172.139],[192.166,172.403],[191.977,172.533],[191.787,172.662],[191.597,172.79],[191.405,172.916],[191.213,173.041],[191.019,173.165],[190.825,173.287],[190.63,173.408],[190.433,173.528],[190.236,173.646],[190.038,173.763],[189.839,173.878],[189.639,173.993],[189.439,174.105],[189.237,174.217],[188.961,174.366],[188.762,174.471],[188.563,174.575],[188.363,174.677],[188.162,174.778],[187.961,174.877],[187.759,174.975],[187.557,175.071],[187.354,175.166],[187.15,175.259],[186.946,175.351],[186.741,175.442],[186.536,175.531],[186.33,175.618],[186.123,175.704],[186.033,175.741],[185.916,175.789],[185.708,175.872],[185.489,175.957],[185.37,176.003],[185.071,176.116],[184.86,176.193],[184.66,176.265],[184.438,176.343],[184.251,176.407],[184.236,176.412],[184.023,176.483],[183.81,176.553],[183.573,176.629],[183.372,176.691],[183.346,176.699],[183.118,176.768],[182.89,176.835],[182.662,176.9],[182.509,176.943],[182.432,176.964],[182.291,177.002],[182.073,177.06],[181.973,177.086],[181.855,177.116],[181.636,177.171],[181.21,177.277],[180.683,177.378],[180.673,177.379],[180.417,177.403],[180.37,177.407],[180.177,177.423],[180.092,177.43],[179.928,177.443],[179.848,177.449],[179.501,177.473],[179.055,177.5],[179.016,177.502],[178.631,177.521],[178.493,177.527],[178.145,177.54],[177.931,177.546],[177.71,177.552],[177.274,177.559],[176.888,177.561],[176.544,177.561],[176.244,177.558],[176.188,177.557],[175.966,177.553],[175.823,177.55],[175.705,177.547],[175.533,177.542],[175.443,177.539],[175.297,177.534],[175.119,177.527],[175.095,177.526],[174.937,177.519],[174.829,177.514],[174.699,177.507],[174.5,177.496],[174.256,177.482],[174.011,177.466],[173.996,177.465],[173.709,177.444],[173.463,177.425],[173.216,177.404],[173.034,177.387],[172.97,177.381],[172.79,177.364],[172.546,177.339],[172.478,177.332],[172.302,177.313],[171.986,177.277],[171.74,177.247],[171.571,177.225],[171.249,177.183],[143.194,173.279],[143.159,173.274],[143.109,173.266],[143.052,173.255],[143.02,173.248],[142.963,173.234],[142.951,173.231],[142.914,173.221],[142.903,173.218],[142.847,173.201],[142.795,173.184],[142.783,173.18],[142.728,173.16],[142.678,173.14],[142.62,173.115],[142.564,173.089],[142.522,173.068],[142.471,173.041],[142.453,173.031],[142.411,173.007],[142.359,172.976],[142.345,172.967],[142.31,172.944],[142.301,172.938],[142.253,172.905],[142.214,172.876],[142.206,172.87],[142.16,172.834],[142.122,172.803],[142.115,172.797],[142.071,172.759],[142.028,172.719],[142.007,172.699],[141.959,172.651],[141.924,172.614],[141.905,172.593],[141.885,172.57],[141.847,172.525],[141.811,172.479],[141.797,172.461],[141.776,172.433],[141.773,172.429],[141.739,172.381],[141.724,172.359],[141.709,172.337],[141.675,172.283],[141.645,172.232],[141.617,172.181],[141.597,172.143],[141.585,172.119],[141.562,172.071],[141.536,172.013],[141.515,171.962],[141.494,171.908],[141.475,171.852],[141.474,171.849],[141.457,171.797],[141.441,171.741],[141.426,171.684],[141.412,171.623],[141.401,171.566],[141.392,171.513],[141.391,171.507],[141.383,171.455],[141.378,171.412],[141.375,171.384],[141.369,171.304],[141.367,171.267],[141.366,171.238],[141.366,152.875]]
M73 P0 R27
;TYPE:Custom
BED_MESH_PROFILE LOAD=default 
M190 S75 ;set bed temp 
G28; 
G1 X2 Y2 Z0 F9000  ; move to corner 
M109 S215 ; set nozzle temp 
G1 Z0.2 F300 ; raise nozzle to 0.2
G92 E0.0 ; reset extruder distance position
G1 X60.0 E9.0 F1000.0 ; intro line
G1 X100.0 E21.5 F1000.0 ; intro line
G0 Z2

G92 E0.0 ; reset extruder distance position
G90
G21
M83 ; use relative distances for extrusion
; filament start gcode
SET_PRESSURE_ADVANCE ADVANCE=0.032; Override pressure advance value
M106 S0
;LAYER_CHANGE
;Z:0.2
;HEIGHT:0.2
;BEFORE_LAYER_CHANGE
;0.2
G92 E0

G1 E-.5 F1800
;DSLR_SNAPSHOT
TIMELAPSE_TAKE_FRAME
M204 S10000
SET_VELOCITY_LIMIT SQUARE_CORNER_VELOCITY=10
G1 X142.788 Y153.276 F48000
G1 Z.2
G1 E.5 F4800
;TYPE:Skirt
;WIDTH:0.58
G1 F7200
G1 X143.747 Y152.392 E.05245
G1 X144.419 Y151.967 E.03196
G1 X145.084 Y151.66 E.02943
G1 X145.867 Y151.419 E.03292
G1 X146.751 Y151.279 E.03598
G1 X171.678 Y149.814 E1.00359
G1 X173.934 Y149.979 E.09094
G1 X176.389 Y150.473 E.10065
G1 X178.769 Y151.288 E.10108
G1 X181.07 Y152.441 E.10346
G1 X183.154 Y153.859 E.10131
G1 X184.997 Y155.507 E.09936
G1 X186.648 Y157.428 E.10184
G1 X188.028 Y159.563 E.10215
G1 X188.505 Y160.893 E.0568
G1 X188.633 Y162.022 E.04568
G1 X188.475 Y163.357 E.05402
G1 X188.052 Y164.507 E.04925
G1 X186.979 Y166.236 E.08179
G1 X185.643 Y167.921 E.08641
G1 X184.143 Y169.429 E.08549
G1 X182.289 Y170.898 E.09507
G1 X181.084 Y171.67 E.05752
G1 X179.512 Y172.501 E.07148
G1 X178.25 Y173.039 E.05513
G1 X176.761 Y173.542 E.06316
G1 X175.399 Y173.885 E.05645
G1 X173.977 Y174.134 E.05803
G1 X172.438 Y174.279 E.06212
G1 X171.076 Y174.303 E.05476
G1 X146.397 Y172.8 E.99373
G1 X145.143 Y172.48 E.05201
G1 X144.086 Y171.957 E.04742
G1 X143.104 Y171.18 E.05033
G1 X142.36 Y170.281 E.04692
G1 X141.693 Y168.953 E.05971
G1 X141.476 Y168.173 E.03257
G1 X141.368 Y167.421 E.03051
G1 X141.367 Y156.71 E.43052
G1 X141.612 Y155.414 E.05301
G1 X142.097 Y154.266 E.05007
G1 X142.736 Y153.35 E.0449
G1 X143.188 Y153.684 F48000
G1 F7200
G1 X143.386 Y153.417 E.01338
G1 X144.273 Y152.68 E.04634
G1 X145.501 Y152.082 E.05489
G1 X146.802 Y151.813 E.05339
G1 X171.675 Y150.351 E1.00145
G1 X173.856 Y150.51 E.08789
G1 X176.243 Y150.99 E.09785
G1 X178.558 Y151.781 E.09832
G1 X180.792 Y152.9 E.10042
G1 X182.82 Y154.279 E.09858
G1 X184.616 Y155.886 E.09686
G1 X186.215 Y157.746 E.0986
G1 X187.551 Y159.811 E.09886
G1 X187.979 Y161.001 E.05083
G1 X188.096 Y162.096 E.04426
G1 X187.955 Y163.222 E.04561
G1 X187.527 Y164.355 E.04867
G1 X186.329 Y166.219 E.08907
G1 X185.054 Y167.771 E.0807
G1 X183.499 Y169.28 E.08709
G1 X181.781 Y170.596 E.08699
G1 X180.468 Y171.404 E.06195
G1 X179.279 Y172.017 E.05379
G1 X178.064 Y172.535 E.05309
G1 X176.605 Y173.028 E.0619
G1 X175.281 Y173.361 E.05488
G1 X173.911 Y173.601 E.05591
G1 X172.402 Y173.743 E.06088
G1 X171.091 Y173.766 E.05273
G1 X146.477 Y172.269 E.99109
G1 X145.338 Y171.98 E.04725
G1 X144.375 Y171.505 E.04315
M73 P0 R26
G1 X143.484 Y170.801 E.04568
G1 X142.81 Y169.988 E.04245
G1 X142.198 Y168.77 E.05476
G1 X141.903 Y167.372 E.05745
G1 X141.902 Y156.76 E.42651
G1 X142.127 Y155.565 E.04887
G1 X142.57 Y154.52 E.0456
G1 X143.135 Y153.757 E.03817
G1 X143.562 Y154.073 F48000
G1 F7200
G1 X143.768 Y153.794 E.01393
G1 X144.565 Y153.131 E.04166
G1 X145.665 Y152.594 E.04921
G1 X146.853 Y152.348 E.04876
G1 X171.673 Y150.888 E.99931
G1 X173.778 Y151.041 E.08483
G1 X176.097 Y151.507 E.09505
G1 X178.346 Y152.275 E.09556
G1 X180.513 Y153.359 E.09738
G1 X182.486 Y154.7 E.09586
G1 X184.236 Y156.265 E.09436
G1 X185.782 Y158.064 E.09536
G1 X187.075 Y160.06 E.09557
G1 X187.453 Y161.11 E.04485
G1 X187.559 Y162.096 E.03988
G1 X187.401 Y163.218 E.04554
G1 X186.945 Y164.299 E.04713
G1 X185.852 Y165.962 E.07999
G1 X184.601 Y167.47 E.07873
G1 X183.091 Y168.923 E.08422
G1 X181.422 Y170.189 E.08422
G1 X180.201 Y170.938 E.05758
G1 X179.046 Y171.533 E.05222
G1 X177.878 Y172.032 E.05105
G1 X176.449 Y172.514 E.06063
G1 X173.844 Y173.068 E.10702
G1 X171.189 Y173.231 E.10692
G1 X146.558 Y171.738 E.99182
G1 X145.533 Y171.479 E.04248
G1 X144.665 Y171.052 E.03887
G1 X143.863 Y170.421 E.04102
G1 X143.259 Y169.694 E.03798
G1 X142.703 Y168.587 E.04982
G1 X142.438 Y167.322 E.05194
G1 X142.437 Y156.81 E.42251
G1 X142.643 Y155.716 E.04473
G1 X143.043 Y154.775 E.04113
G1 X143.509 Y154.145 E.03146
G1 X143.923 Y154.477 F48000
G1 F7200
G1 X144.242 Y154.08 E.02048
G1 X144.949 Y153.522 E.0362
G1 X145.828 Y153.105 E.0391
G1 X146.904 Y152.883 E.04414
G1 X171.67 Y151.425 E.99716
G1 X173.7 Y151.573 E.08178
G1 X175.95 Y152.023 E.09225
G1 X178.135 Y152.769 E.0928
G1 X180.235 Y153.818 E.09434
G1 X182.152 Y155.121 E.09314
G1 X183.855 Y156.644 E.09185
G1 X185.349 Y158.382 E.09212
G1 X186.599 Y160.308 E.09228
G1 X186.957 Y161.363 E.04478
G1 X187.009 Y162.365 E.04032
G1 X186.789 Y163.373 E.04149
G1 X186.219 Y164.464 E.04946
G1 X185 Y166.187 E.0848
G1 X183.808 Y167.524 E.07201
G1 X182.41 Y168.792 E.07586
G1 X180.815 Y169.945 E.0791
G1 X178.747 Y171.08 E.09481
G1 X177.692 Y171.528 E.04609
G1 X176.221 Y172.021 E.06235
G1 X173.778 Y172.535 E.10034
G1 X172.331 Y172.672 E.05841
G1 X171.12 Y172.693 E.04868
G1 X146.638 Y171.207 E.98582
G1 X145.728 Y170.979 E.03771
G1 X144.869 Y170.545 E.03867
G1 X144.17 Y169.968 E.0364
G1 X143.617 Y169.259 E.03618
G1 X143.158 Y168.251 E.04448
G1 X142.963 Y167.126 E.04592
G1 X142.972 Y156.86 E.41262
G1 X143.158 Y155.867 E.04059
G1 X143.61 Y154.869 E.04402
G1 X143.867 Y154.548 E.01657
; printing object 3DBenchy.stl id:0 copy 0
EXCLUDE_OBJECT_START NAME=3DBenchy.stl_id_0_copy_0
G1 E-.35 F1800
;WIPE_START
G1 F7200
G1 X144.242 Y154.08 E-.04271
G1 X144.949 Y153.522 E-.06417
G1 X145.401 Y153.308 E-.03562
;WIPE_END
G1 E-.0075 F1800
G1 X166.945 Y163.812 F48000
G1 E.5 F4800
;TYPE:Outer wall
;WIDTH:0.55292
G1 F7200
G1 X166.876 Y163.979 E.00687
G1 E-.35 F1800
;WIPE_START
G1 F7200
G1 X166.945 Y163.812 E-.1425
;WIPE_END
G1 E-.0075 F1800
G1 X173.54 Y161.12 F48000
G1 E.5 F4800
;WIDTH:0.975454
G1 F7200
G1 X173.537 Y160.782 E.02354
G1 E-.35 F1800
;WIPE_START
G1 F7200
G1 X173.54 Y161.12 E-.1425
;WIPE_END
G1 E-.0075 F1800
G1 X178.152 Y161.254 F48000
G1 E.5 F4800
;WIDTH:0.797392
G1 F7200
G1 X178.147 Y160.948 E.01729
G1 E-.35 F1800
;WIPE_START
G1 F7200
G1 X178.152 Y161.254 E-.1425
;WIPE_END
G1 E-.0075 F1800
G1 X151.026 Y157.988 F48000
G1 E.5 F4800
;TYPE:Inner wall
;WIDTH:0.579999
G1 F7200
G1 X150.75 Y157.815 E.01312
G1 X150.043 Y157.532 E.0306
;WIDTH:0.619148
G1 X149.741 Y157.457 E.01343
;WIDTH:0.658297
G2 X149.116 Y157.375 I-.499 J1.372 E.02927
;WIDTH:0.654549
G1 X147.997 Y157.465 E.05135
;WIDTH:0.686313
