; HEADER_BLOCK_START
; generated by OrcaSlicer 1.6.3 on 2023-12-07 at 23:42:07
; total layer number: 17
; HEADER_BLOCK_END

; THUMBNAIL_BLOCK_START
; THUMBNAIL_BLOCK_END

; external perimeters extrusion width = 0.62mm
; perimeters extrusion width = 0.62mm
; infill extrusion width = 0.65mm
; solid infill extrusion width = 0.65mm
; top infill extrusion width = 0.65mm
; first layer extrusion width = 0.68mm

; external perimeters extrusion width = 0.62mm
; perimeters extrusion width = 0.62mm
; infill extrusion width = 0.65mm
; solid infill extrusion width = 0.65mm
; top infill extrusion width = 0.65mm
; first layer extrusion width = 0.68mm

; external perimeters extrusion width = 0.62mm
; perimeters extrusion width = 0.62mm
; infill extrusion width = 0.65mm
; solid infill extrusion width = 0.65mm
; top infill extrusion width = 0.65mm
; first layer extrusion width = 0.68mm

; external perimeters extrusion width = 0.62mm
; perimeters extrusion width = 0.62mm
; infill extrusion width = 0.65mm
; solid infill extrusion width = 0.65mm
; top infill extrusion width = 0.65mm
; first layer extrusion width = 0.68mm

; EXECUTABLE_BLOCK_START
EXCLUDE_OBJECT_DEFINE NAME=[a]_buffer-top-ecas+magnet_xN.stl_id_0_copy_0 CENTER=165,196.5 POLYGON=[[63,191.9],[65,186.9],[65.4,186.5],[74.8181,186.5],[255.182,186.5],[264.6,186.5],[265,186.9],[267,191.9],[267,201.1],[265,206.1],[264.6,206.5],[263.247,206.5],[242.92,206.5],[236.734,206.5],[93.2663,206.5],[87.0796,206.5],[66.7533,206.5],[65.4,206.5],[65,206.1],[63,201.1],[63,191.9]]
EXCLUDE_OBJECT_DEFINE NAME=[a]_buffer-top-ecas+magnet_xN.stl_id_1_copy_0 CENTER=165,175.5 POLYGON=[[63,170.9],[65,165.9],[65.4,165.5],[74.8181,165.5],[255.182,165.5],[264.6,165.5],[265,165.9],[267,170.9],[267,180.1],[265,185.1],[264.6,185.5],[263.247,185.5],[242.92,185.5],[236.734,185.5],[93.2663,185.5],[87.0796,185.5],[66.7533,185.5],[65.4,185.5],[65,185.1],[63,180.1],[63,170.9]]
EXCLUDE_OBJECT_DEFINE NAME=[a]_buffer-top-ecas+magnet_xN.stl_id_2_copy_0 CENTER=165,154.5 POLYGON=[[63,149.9],[65,144.9],[65.4,144.5],[74.8181,144.5],[255.182,144.5],[264.6,144.5],[265,144.9],[267,149.9],[267,159.1],[265,164.1],[264.6,164.5],[263.247,164.5],[242.92,164.5],[236.734,164.5],[93.2663,164.5],[87.0796,164.5],[66.7533,164.5],[65.4,164.5],[65,164.1],[63,159.1],[63,149.9]]
EXCLUDE_OBJECT_DEFINE NAME=[a]_buffer-top-ecas+magnet_xN.stl_id_3_copy_0 CENTER=165,133.5 POLYGON=[[63,128.9],[65,123.9],[65.4,123.5],[74.8181,123.5],[255.182,123.5],[264.6,123.5],[265,123.9],[267,128.9],[267,138.1],[265,143.1],[264.6,143.5],[263.247,143.5],[242.92,143.5],[236.734,143.5],[93.2663,143.5],[87.0796,143.5],[66.7533,143.5],[65.4,143.5],[65,143.1],[63,138.1],[63,128.9]]
M73 P0 R3
;TYPE:Custom
M104 S0
M140 S0
START_PRINT BED=75 HOTEND=215
G90
G21
M83 ; use relative distances for extrusion
; filament start gcode
SET_PRESSURE_ADVANCE ADVANCE=0.032; Override pressure advance value
M106 S0
;LAYER_CHANGE
;Z:0.2
;HEIGHT:0.2
;BEFORE_LAYER_CHANGE
;0.2
G92 E0

;DSLR_SNAPSHOT
TIMELAPSE_TAKE_FRAME
M204 S5000
G1 E-.4 F4200
G1 X71.53 Y121.527 F48000
G1 Z.2
G1 E.4 F4200
;TYPE:Skirt
;WIDTH:0.68
G1 F7200
G1 X73.28 Y120.863 E.08924
G1 X256.72 Y120.863 E8.74574
G1 X258.47 Y121.527 E.08924
M73 P1 R3
G1 X258.921 Y121.927 E.02874
G1 X259.708 Y123.179 E.07051
G1 X260.333 Y125.379 E.10904
G1 X260.434 Y126.1 E.03469
G1 X260.419 Y197.908 E3.42354
G1 X260.323 Y198.605 E.03354
G1 X259.712 Y200.805 E.10885
G1 X258.921 Y202.073 E.07124
G1 X258.47 Y202.473 E.02874
G1 X256.72 Y203.137 E.08924
G1 X73.28 Y203.137 E8.74574
M73 P2 R3
G1 X71.53 Y202.473 E.08924
G1 X71.079 Y202.073 E.02874
G1 X70.288 Y200.805 E.07124
G1 X69.677 Y198.605 E.10885
G1 X69.581 Y197.908 E.03354
G1 X69.566 Y126.1 E3.42354
G1 X69.667 Y125.379 E.03469
G1 X70.292 Y123.179 E.10904
G1 X71.079 Y121.927 E.07051
G1 X71.462 Y121.587 E.02445
; printing object [a]_buffer-top-ecas+magnet_xN.stl id:0 copy 0
EXCLUDE_OBJECT_START NAME=[a]_buffer-top-ecas+magnet_xN.stl_id_0_copy_0
G1 E-.4 F4200
G1 X74.492 Y197.329 F48000
G1 E.4 F4200
;TYPE:Inner wall
;WIDTH:0.766569
G1 F7200
G1 X74.473 Y197.287 E.00245
;WIDTH:0.723284
G1 X74.436 Y197.206 E.00457
;WIDTH:0.679999
G1 X74.155 Y196.737 E.02604
G1 X73.93 Y196.634 E.0118
G1 X73.92 Y190.373 E.29849
G1 X74.15 Y190.268 E.01208
;WIDTH:0.720858
G1 X74.263 Y190.079 E.01117
;WIDTH:0.761716
G1 X74.375 Y189.89 E.01184
;WIDTH:0.802574
G1 X74.487 Y189.7 E.01252
;WIDTH:0.843432
G1 X74.599 Y189.511 E.01319
;WIDTH:0.889953
G1 X74.631 Y189.414 E.00643
;WIDTH:0.936474
G1 X74.663 Y189.318 E.00679
;WIDTH:0.982995
G1 X74.694 Y189.222 E.00714
G1 X74.694 Y188.366 E.06021
G1 X75.634 Y188.366 E.06613
;WIDTH:0.987016
G1 X75.632 Y189.314 E.06699
G1 X75.654 Y189.399 E.00622
;WIDTH:0.943157
G1 X75.676 Y189.484 E.00593
;WIDTH:0.899297
G1 X75.698 Y189.57 E.00564
;WIDTH:0.855438
G1 X75.72 Y189.655 E.00535
;WIDTH:0.811578
G1 X75.742 Y189.74 E.00506
;WIDTH:0.767718
G1 X75.764 Y189.826 E.00478
;WIDTH:0.723859
G1 X75.786 Y189.911 E.00449
;WIDTH:0.679999
G1 X75.786 Y196.954 E.33581
;WIDTH:0.723284
M73 P3 R3
G1 X75.764 Y197.072 E.0061
;WIDTH:0.766569
G1 X75.743 Y197.19 E.00648
;WIDTH:0.809854
G1 X75.721 Y197.308 E.00687
;WIDTH:0.853139
G1 X75.699 Y197.425 E.00726
;WIDTH:0.896424
G1 X75.678 Y197.543 E.00765
;WIDTH:0.939708
G1 X75.656 Y197.661 E.00803
;WIDTH:0.982993
G1 X75.634 Y197.779 E.00842
G1 X75.634 Y198.632 E.06006
G1 X74.694 Y198.633 E.06613
G1 X74.694 Y197.779 E.06012
G1 X74.657 Y197.697 E.00632
;WIDTH:0.939708
G1 X74.62 Y197.615 E.00603
;WIDTH:0.896424
G1 X74.584 Y197.533 E.00573
;WIDTH:0.853139
G1 X74.547 Y197.451 E.00544
;WIDTH:0.809854
G1 X74.51 Y197.369 E.00515
;WIDTH:0.766569
G1 X74.497 Y197.34 E.00176
G1 X73.885 Y197.665 F48000
;WIDTH:0.679999
G1 F7200
G1 X73.842 Y197.435 E.01117
G1 X73.673 Y197.154 E.01563
G1 X73.293 Y196.98 E.01991
G1 X73.282 Y190.026 E.33153
G1 X73.67 Y189.85 E.02033
G1 X73.841 Y189.568 E.01572
G1 X73.906 Y189.222 E.01679
G1 X73.906 Y187.577 E.0784
G1 X76.423 Y187.577 E.12001
G1 X76.423 Y199.42 E.56463
G1 X73.906 Y199.422 E.12001
G1 X73.906 Y197.779 E.07837
G1 X73.887 Y197.677 E.00493
G1 X73.269 Y197.779 F48000
;TYPE:Outer wall
G1 F7200
G1 X73.191 Y197.57 E.0106
G1 X72.95 Y197.46 E.01264
G1 X72.657 Y197.46 E.01397
G1 X72.644 Y189.54 E.37759
G1 X72.95 Y189.54 E.01459
G1 X73.19 Y189.431 E.01257
G1 X73.269 Y189.222 E.01066
G1 X73.269 Y187.098 E.10124
G1 X73.447 Y186.94 E.01134
G1 X76.918 Y186.94 E.16549
G1 X77.06 Y187.082 E.00959
G1 X77.06 Y187.183 E.00479
G1 X77.06 Y199.917 E.6071
G1 X76.919 Y200.057 E.00949
G1 X73.446 Y200.06 E.16555
G1 X73.269 Y199.902 E.01133
G1 X73.269 Y197.791 E.10067
G1 X73.3 Y197.747
G1 E-.4 F4200
G1 X75.595 Y190.854 F48000
G1 E.4 F4200
;TYPE:Bottom surface
;WIDTH:0.682006
G1 F7200
G1 X74.819 Y190.077 E.0525
G1 X74.501 Y190.602 E.02934
G1 X74.459 Y190.622 E.00222
G1 X75.308 Y191.471 E.05743
G1 X75.308 Y192.375 E.04323
G1 X74.399 Y191.466 E.06147
G1 X74.401 Y192.371 E.0433
G1 X75.308 Y193.278 E.06137
G1 X75.308 Y194.182 E.04323
G1 X74.402 Y193.276 E.06127
G1 X74.404 Y194.182 E.0433
G1 X75.308 Y195.086 E.06117
G1 X75.308 Y195.99 E.04323
G1 X74.405 Y195.087 E.06107
G1 X74.407 Y195.992 E.0433
G1 X75.54 Y197.126 E.07666
G1 E-.4 F4200
G1 X255.508 Y197.329 F48000
M73 P4 R3
G1 E.4 F4200
;TYPE:Inner wall
;WIDTH:0.766569
G1 F7200
G1 X255.49 Y197.369 E.00241
;WIDTH:0.809854
G1 X255.453 Y197.451 E.00515
;WIDTH:0.853139
G1 X255.416 Y197.533 E.00544
;WIDTH:0.896424
G1 X255.38 Y197.615 E.00573
;WIDTH:0.939708
G1 X255.343 Y197.697 E.00603
;WIDTH:0.982993
G1 X255.306 Y197.779 E.00632
G1 X255.306 Y198.633 E.06012
G1 X254.366 Y198.632 E.06613
G1 X254.366 Y197.779 E.06006
G1 X254.344 Y197.661 E.00842
;WIDTH:0.939708
G1 X254.322 Y197.543 E.00803
;WIDTH:0.896424
G1 X254.301 Y197.425 E.00765
;WIDTH:0.853139
G1 X254.279 Y197.308 E.00726
;WIDTH:0.809854
G1 X254.257 Y197.19 E.00687
;WIDTH:0.766569
G1 X254.236 Y197.072 E.00648
;WIDTH:0.723284
G1 X254.214 Y196.954 E.0061
;WIDTH:0.679999
G3 X254.221 Y189.911 I515.669 J-3.036 E.33581
;WIDTH:0.723284
G1 X254.242 Y189.812 E.00512
;WIDTH:0.766569
G1 X254.262 Y189.714 E.00545
;WIDTH:0.809854
G1 X254.283 Y189.615 E.00577
;WIDTH:0.853139
G1 X254.304 Y189.517 E.0061
;WIDTH:0.896424
G1 X254.324 Y189.418 E.00643
;WIDTH:0.939709
G1 X254.345 Y189.32 E.00675
;WIDTH:0.982993
G1 X254.366 Y189.222 E.00708
G1 X254.366 Y188.366 E.06021
G1 X255.306 Y188.366 E.06613
G1 X255.308 Y189.294 E.06533
;WIDTH:0.980904
G1 X255.345 Y189.366 E.00567
;WIDTH:0.937918
G1 X255.382 Y189.438 E.00541
;WIDTH:0.894931
G1 X255.418 Y189.51 E.00515
;WIDTH:0.851945
G1 X255.455 Y189.582 E.00489
;WIDTH:0.808959
G1 X255.492 Y189.654 E.00463
;WIDTH:0.765972
G1 X255.529 Y189.726 E.00437
;WIDTH:0.722986
G1 X255.565 Y189.798 E.00411
;WIDTH:0.679999
G1 X255.85 Y190.268 E.0262
G1 X256.08 Y190.373 E.01208
G1 X256.07 Y196.634 E.29849
G1 X255.845 Y196.737 E.0118
G1 X255.564 Y197.206 E.02604
;WIDTH:0.723284
G1 X255.527 Y197.287 E.00457
;WIDTH:0.766569
G1 X255.513 Y197.318 E.00181
G1 X256.115 Y197.665 F48000
;WIDTH:0.679999
G1 F7200
G1 X256.094 Y197.779 E.00551
G1 X256.094 Y199.422 E.07837
G1 X253.577 Y199.42 E.12001
G3 X253.581 Y189.911 I1159.903 J-4.27 E.45337
G3 X253.577 Y187.577 I202.071 J-1.511 E.11126
G1 X256.094 Y187.577 E.12001
G1 X256.094 Y189.222 E.0784
G1 X256.14 Y189.513 E.01404
G1 X256.33 Y189.85 E.01845
G1 X256.718 Y190.026 E.02033
G1 X256.707 Y196.98 E.33153
G1 X256.327 Y197.154 E.01991
G1 X256.158 Y197.435 E.01563
G1 X256.118 Y197.653 E.01059
G1 X256.731 Y197.779 F48000
;TYPE:Outer wall
G1 F7200
G1 X256.731 Y199.902 E.10124
G1 X256.554 Y200.06 E.01133
G1 X253.081 Y200.057 E.16555
G1 X252.94 Y199.917 E.00949
G1 X252.94 Y190.882 E.43076
G2 X252.94 Y187.082 I-1034.986 J-1.899 E.18113
G1 X253.082 Y186.94 E.00959
G1 X256.553 Y186.94 E.16549
G1 X256.731 Y187.098 E.01134
G1 X256.731 Y189.222 E.10124
G1 X256.81 Y189.431 E.01066
G1 X257.05 Y189.54 E.01257
G1 X257.356 Y189.54 E.01459
G1 X257.355 Y189.846 E.01459
G1 X257.343 Y197.46 E.36301
M73 P5 R3
G1 X257.05 Y197.46 E.01397
G1 X256.809 Y197.57 E.01264
G1 X256.736 Y197.767 E.01002
G1 X256.616 Y197.81
G1 E-.4 F4200
G1 X255.889 Y190.736 F48000
G1 E.4 F4200
;TYPE:Bottom surface
;WIDTH:0.749629
G1 F7200
G1 X254.834 Y189.681 E.07889
G1 X254.698 Y189.953 E.01607
G2 X254.692 Y190.538 I5.176 J.345 E.031
G1 X255.601 Y191.447 E.06798
G1 X255.599 Y192.445 E.05277
G1 X254.692 Y191.538 E.06785
G1 X254.692 Y192.537 E.05286
G1 X255.598 Y193.443 E.06773
G1 X255.596 Y194.441 E.05277
G1 X254.692 Y193.537 E.06761
G1 X254.692 Y194.536 E.05286
G1 X255.594 Y195.439 E.06749
G1 X255.593 Y196.359 E.04867
G1 X255.54 Y196.383 E.0031
G1 X254.692 Y195.536 E.06339
G1 X254.692 Y196.535 E.05286
G1 X255.347 Y197.19 E.04899
; stop printing object [a]_buffer-top-ecas+magnet_xN.stl id:0 copy 0
EXCLUDE_OBJECT_END NAME=[a]_buffer-top-ecas+magnet_xN.stl_id_0_copy_0
; printing object [a]_buffer-top-ecas+magnet_xN.stl id:1 copy 0
EXCLUDE_OBJECT_START NAME=[a]_buffer-top-ecas+magnet_xN.stl_id_1_copy_0
G1 E-.4 F4200
G1 X74.492 Y176.329 F48000
G1 E.4 F4200
;TYPE:Inner wall
;WIDTH:0.766569
G1 F7200
G1 X74.473 Y176.287 E.00245
;WIDTH:0.723284
G1 X74.436 Y176.206 E.00457
;WIDTH:0.679999
G1 X74.155 Y175.737 E.02604
G1 X73.93 Y175.634 E.0118
G1 X73.92 Y169.373 E.29849
G1 X74.15 Y169.268 E.01208
;WIDTH:0.720858
G1 X74.263 Y169.079 E.01117
;WIDTH:0.761716
G1 X74.375 Y168.89 E.01184
;WIDTH:0.802574
G1 X74.487 Y168.7 E.01252
;WIDTH:0.843432
G1 X74.599 Y168.511 E.01319
;WIDTH:0.889953
G1 X74.631 Y168.414 E.00643
;WIDTH:0.936474
G1 X74.663 Y168.318 E.00679
;WIDTH:0.982995
G1 X74.694 Y168.221 E.00714
G1 X74.694 Y167.366 E.06021
G1 X75.634 Y167.366 E.06613
;WIDTH:0.987016
G1 X75.632 Y168.314 E.06699
G1 X75.654 Y168.399 E.00622
;WIDTH:0.943157
G1 X75.676 Y168.484 E.00593
;WIDTH:0.899297
G1 X75.698 Y168.57 E.00564
;WIDTH:0.855438
G1 X75.72 Y168.655 E.00535
;WIDTH:0.811578
G1 X75.742 Y168.74 E.00506
;WIDTH:0.767718
G1 X75.764 Y168.825 E.00478
;WIDTH:0.723859
G1 X75.786 Y168.911 E.00449
;WIDTH:0.679999
G1 X75.786 Y175.954 E.33581
;WIDTH:0.723284
G1 X75.764 Y176.072 E.0061
;WIDTH:0.766569
G1 X75.743 Y176.19 E.00648
;WIDTH:0.809854
G1 X75.721 Y176.308 E.00687
;WIDTH:0.853139
G1 X75.699 Y176.425 E.00726
;WIDTH:0.896424
G1 X75.678 Y176.543 E.00765
;WIDTH:0.939708
G1 X75.656 Y176.661 E.00803
;WIDTH:0.982993
G1 X75.634 Y176.779 E.00842
G1 X75.634 Y177.632 E.06006
G1 X74.694 Y177.633 E.06613
G1 X74.694 Y176.779 E.06012
G1 X74.657 Y176.697 E.00632
;WIDTH:0.939708
G1 X74.62 Y176.615 E.00603
;WIDTH:0.896424
G1 X74.584 Y176.533 E.00573
;WIDTH:0.853139
G1 X74.547 Y176.451 E.00544
;WIDTH:0.809854
G1 X74.51 Y176.369 E.00515
;WIDTH:0.766569
G1 X74.497 Y176.34 E.00176
G1 X73.885 Y176.665 F48000
;WIDTH:0.679999
G1 F7200
G1 X73.842 Y176.435 E.01117
G1 X73.673 Y176.154 E.01563
G1 X73.293 Y175.98 E.01991
G1 X73.282 Y169.026 E.33153
G1 X73.67 Y168.85 E.02033
G1 X73.841 Y168.568 E.01572
G1 X73.906 Y168.221 E.01679
G1 X73.906 Y166.577 E.0784
G1 X76.423 Y166.577 E.12001
G1 X76.423 Y178.42 E.56463
M73 P6 R3
G1 X73.906 Y178.422 E.12001
G1 X73.906 Y176.779 E.07837
G1 X73.887 Y176.677 E.00493
G1 X73.269 Y176.779 F48000
;TYPE:Outer wall
G1 F7200
G1 X73.191 Y176.57 E.0106
G1 X72.95 Y176.46 E.01264
G1 X72.657 Y176.46 E.01397
G1 X72.644 Y168.54 E.37759
G1 X72.95 Y168.54 E.01459
G1 X73.19 Y168.431 E.01257
G1 X73.269 Y168.221 E.01066
G1 X73.269 Y166.098 E.10124
G1 X73.447 Y165.94 E.01134
G1 X76.918 Y165.94 E.16549
G1 X77.06 Y166.082 E.00959
G1 X77.06 Y166.183 E.00479
G1 X77.06 Y178.917 E.6071
G1 X76.919 Y179.057 E.00949
G1 X73.446 Y179.06 E.16555
G1 X73.269 Y178.902 E.01133
G1 X73.269 Y176.791 E.10067
G1 X73.3 Y176.747
G1 E-.4 F4200
G1 X75.595 Y169.854 F48000
G1 E.4 F4200
;TYPE:Bottom surface
;WIDTH:0.682006
G1 F7200
G1 X74.819 Y169.077 E.0525
G1 X74.501 Y169.602 E.02934
G1 X74.459 Y169.622 E.00222
G1 X75.308 Y170.471 E.05743
G1 X75.308 Y171.375 E.04323
G1 X74.399 Y170.466 E.06147
G1 X74.401 Y171.371 E.0433
G1 X75.308 Y172.278 E.06137
G1 X75.308 Y173.182 E.04323
G1 X74.402 Y172.276 E.06127
G1 X74.404 Y173.182 E.0433
G1 X75.308 Y174.086 E.06117
G1 X75.308 Y174.99 E.04323
G1 X74.405 Y174.087 E.06107
G1 X74.407 Y174.992 E.0433
G1 X75.54 Y176.126 E.07666
G1 E-.4 F4200
G1 X255.508 Y176.329 F48000
G1 E.4 F4200
;TYPE:Inner wall
;WIDTH:0.766569
G1 F7200
G1 X255.49 Y176.369 E.00241
;WIDTH:0.809854
G1 X255.453 Y176.451 E.00515
;WIDTH:0.853139
G1 X255.416 Y176.533 E.00544
;WIDTH:0.896424
G1 X255.38 Y176.615 E.00573
;WIDTH:0.939708
G1 X255.343 Y176.697 E.00603
;WIDTH:0.982993
G1 X255.306 Y176.779 E.00632
G1 X255.306 Y177.633 E.06012
G1 X254.366 Y177.632 E.06613
G1 X254.366 Y176.779 E.06006
G1 X254.344 Y176.661 E.00842
;WIDTH:0.939708
G1 X254.322 Y176.543 E.00803
;WIDTH:0.896424
G1 X254.301 Y176.425 E.00765
;WIDTH:0.853139
G1 X254.279 Y176.308 E.00726
;WIDTH:0.809854
G1 X254.257 Y176.19 E.00687
;WIDTH:0.766569
G1 X254.236 Y176.072 E.00648
;WIDTH:0.723284
G1 X254.214 Y175.954 E.0061
;WIDTH:0.679999
G3 X254.221 Y168.911 I515.669 J-3.036 E.33581
;WIDTH:0.723284
G1 X254.242 Y168.812 E.00512
;WIDTH:0.766569
G1 X254.262 Y168.714 E.00545
;WIDTH:0.809854
M73 P7 R3
G1 X254.283 Y168.615 E.00577
;WIDTH:0.853139
G1 X254.304 Y168.517 E.0061
;WIDTH:0.896424
G1 X254.324 Y168.418 E.00643
;WIDTH:0.939709
G1 X254.345 Y168.32 E.00675
;WIDTH:0.982993
G1 X254.366 Y168.221 E.00708
G1 X254.366 Y167.366 E.06021
G1 X255.306 Y167.366 E.06613
G1 X255.308 Y168.294 E.06533
;WIDTH:0.980904
G1 X255.345 Y168.366 E.00567
;WIDTH:0.937918
G1 X255.382 Y168.438 E.00541
;WIDTH:0.894931
G1 X255.418 Y168.51 E.00515
;WIDTH:0.851945
G1 X255.455 Y168.582 E.00489
;WIDTH:0.808959
G1 X255.492 Y168.654 E.00463
;WIDTH:0.765972
G1 X255.529 Y168.726 E.00437
;WIDTH:0.722986
G1 X255.565 Y168.798 E.00411
;WIDTH:0.679999
G1 X255.85 Y169.268 E.0262
G1 X256.08 Y169.373 E.01208
G1 X256.07 Y175.634 E.29849
G1 X255.845 Y175.737 E.0118
G1 X255.564 Y176.206 E.02604
;WIDTH:0.723284
G1 X255.527 Y176.287 E.00457
;WIDTH:0.766569
G1 X255.513 Y176.318 E.00181
G1 X256.115 Y176.665 F48000
;WIDTH:0.679999
G1 F7200
G1 X256.094 Y176.779 E.00551
G1 X256.094 Y178.422 E.07837
G1 X253.577 Y178.42 E.12001
G3 X253.581 Y168.911 I1159.903 J-4.27 E.45337
G3 X253.577 Y166.577 I202.071 J-1.511 E.11126
