; HEADER_BLOCK_START
; generated by OrcaSlicer 1.8.1 on 2023-12-14 at 15:44:20
; total layer number: 65
; HEADER_BLOCK_END

; THUMBNAIL_BLOCK_START

;
; THUMBNAIL_BLOCK_END

; external perimeters extrusion width = 0.52mm
; perimeters extrusion width = 0.52mm
; infill extrusion width = 0.55mm
; solid infill extrusion width = 0.55mm
; top infill extrusion width = 0.55mm
; first layer extrusion width = 0.58mm

; external perimeters extrusion width = 0.52mm
; perimeters extrusion width = 0.52mm
; infill extrusion width = 0.55mm
; solid infill extrusion width = 0.55mm
; top infill extrusion width = 0.55mm
; first layer extrusion width = 0.58mm

; external perimeters extrusion width = 0.52mm
; perimeters extrusion width = 0.52mm
; infill extrusion width = 0.55mm
; solid infill extrusion width = 0.55mm
; top infill extrusion width = 0.55mm
; first layer extrusion width = 0.58mm

; external perimeters extrusion width = 0.52mm
; perimeters extrusion width = 0.52mm
; infill extrusion width = 0.55mm
; solid infill extrusion width = 0.55mm
; top infill extrusion width = 0.55mm
; first layer extrusion width = 0.58mm

; EXECUTABLE_BLOCK_START
EXCLUDE_OBJECT_DEFINE NAME=a__buffer-top-ecas_magnet_xN.stl_id_0_copy_0 CENTER=165,195.75 POLYGON=[[63,191.15],[65,186.15],[65.4,185.75],[74.8181,185.75],[255.182,185.75],[264.6,185.75],[265,186.15],[267,191.15],[267,200.35],[265,205.35],[264.6,205.75],[263.247,205.75],[242.92,205.75],[236.734,205.75],[93.2663,205.75],[87.0796,205.75],[66.7533,205.75],[65.4,205.75],[65,205.35],[63,200.35],[63,191.15]]
EXCLUDE_OBJECT_DEFINE NAME=a__buffer-top-ecas_magnet_xN.stl_id_1_copy_0 CENTER=165,175.25 POLYGON=[[63,170.65],[65,165.65],[65.4,165.25],[74.8181,165.25],[255.182,165.25],[264.6,165.25],[265,165.65],[267,170.65],[267,179.85],[265,184.85],[264.6,185.25],[263.247,185.25],[242.92,185.25],[236.734,185.25],[93.2663,185.25],[87.0796,185.25],[66.7533,185.25],[65.4,185.25],[65,184.85],[63,179.85],[63,170.65]]
EXCLUDE_OBJECT_DEFINE NAME=a__buffer-top-ecas_magnet_xN.stl_id_2_copy_0 CENTER=165,154.75 POLYGON=[[63,150.15],[65,145.15],[65.4,144.75],[74.8181,144.75],[255.182,144.75],[264.6,144.75],[265,145.15],[267,150.15],[267,159.35],[265,164.35],[264.6,164.75],[263.247,164.75],[242.92,164.75],[236.734,164.75],[93.2663,164.75],[87.0796,164.75],[66.7533,164.75],[65.4,164.75],[65,164.35],[63,159.35],[63,150.15]]
EXCLUDE_OBJECT_DEFINE NAME=a__buffer-top-ecas_magnet_xN.stl_id_3_copy_0 CENTER=165,134.25 POLYGON=[[63,129.65],[65,124.65],[65.4,124.25],[74.8181,124.25],[255.182,124.25],[264.6,124.25],[265,124.65],[267,129.65],[267,138.85],[265,143.85],[264.6,144.25],[263.247,144.25],[242.92,144.25],[236.734,144.25],[93.2663,144.25],[87.0796,144.25],[66.7533,144.25],[65.4,144.25],[65,143.85],[63,138.85],[63,129.65]]
M73 P0 R15
;TYPE:Custom
M104 S0
M140 S0
START_PRINT BED=75 HOTEND=210
G90
G21
M83 ; use relative distances for extrusion
; filament start gcode
SET_PRESSURE_ADVANCE ADVANCE=0.032; Override pressure advance value
M106 S0
;LAYER_CHANGE
;Z:0.2
;HEIGHT:0.2
;BEFORE_LAYER_CHANGE
;0.2
G92 E0

;DSLR_SNAPSHOT
TIMELAPSE_TAKE_FRAME
;_SET_FAN_SPEED_CHANGING_LAYER
SET_VELOCITY_LIMIT ACCEL=10000 ACCEL_TO_DECEL=5000
SET_VELOCITY_LIMIT SQUARE_CORNER_VELOCITY=10
G1 E-.4 F4200
G1 X65.929 Y124.599 F24000
G1 Z.2
G1 E.4 F4200
;TYPE:Skirt
;WIDTH:0.58
G1 F3000
G1 X70.929 Y121.999 E.22651
G1 X72.1 Y121.713 E.04843
G1 X257.9 Y121.713 E7.46777
G1 X259.071 Y121.999 E.04843
G1 X264.071 Y124.599 E.22651
G1 X265.092 Y125.572 E.05669
G1 X265.437 Y126.85 E.05321
G1 X265.437 Y197.15 E2.82554
M73 P0 R14
G1 X265.045 Y198.505 E.05669
G1 X264.071 Y199.401 E.05321
G1 X259.071 Y202.001 E.22651
G1 X257.9 Y202.287 E.04843
G1 X72.1 Y202.287 E7.46777
M73 P1 R14
G1 X70.929 Y202.001 E.04843
G1 X65.929 Y199.401 E.22651
G1 X64.908 Y198.428 E.05669
G1 X64.563 Y197.15 E.05321
G1 X64.563 Y126.85 E2.82554
G1 X64.955 Y125.495 E.05669
G1 X65.893 Y124.633 E.0512
; printing object [a]_buffer-top-ecas+magnet_xN.stl id:0 copy 0
G1 E-.4 F4200
EXCLUDE_OBJECT_START NAME=a__buffer-top-ecas_magnet_xN.stl_id_0_copy_0
G1 X257.137 Y196.19 F24000
G1 E.4 F4200
;TYPE:Inner wall
;WIDTH:0.579999
G1 F7200
G1 X257.105 Y196.239 E.00233
G2 X256.921 Y196.557 I1.201 J.906 E.01483
G1 X256.836 Y197.029 E.01925
G1 X256.836 Y198.282 E.0504
G1 X253.964 Y198.274 E.11542
G1 X253.964 Y188.429 E.39569
G1 X253.86 Y187.912 E.02117
G1 X253.427 Y187.354 E.0284
G1 X253.158 Y187.286 E.01113
;WIDTH:0.537232
G1 X252.889 Y187.218 E.01025
;WIDTH:0.494465
G1 X252.621 Y187.15 E.00936
G1 X252.905 Y187.171 E.00963
;WIDTH:0.537232
G1 X253.189 Y187.193 E.01054
;WIDTH:0.579999
G1 X253.473 Y187.214 E.01145
G1 X256.836 Y187.214 E.13515
G1 X256.836 Y188.472 E.05053
G1 X256.92 Y188.94 E.01914
G1 X257.096 Y189.266 E.01488
G2 X258.179 Y189.814 I1.082 J-.794 E.0506
G1 X261.436 Y189.814 E.13092
G1 X261.436 Y192.75 E.118
G1 X261.436 Y195.686 E.118
G2 X258.062 Y195.691 I-1.468 J144.806 E.13563
G1 X257.586 Y195.824 E.01983
G2 X257.337 Y195.994 I.72 J1.321 E.01215
G1 X257.145 Y196.183 E.01085
G1 X257.57 Y196.517 F24000
G1 F7200
G1 X257.53 Y196.551 E.00213
G1 X257.424 Y196.746 E.00891
G1 X257.373 Y197.029 E.01155
G1 X257.373 Y198.821 E.07205
G1 X253.427 Y198.809 E.1586
G1 X253.427 Y188.429 E.41721
G1 X253.365 Y188.119 E.0127
G1 X253.104 Y187.784 E.01704
G1 X252.621 Y187.623 E.02048
G1 X251.927 Y187.623 E.02789
G1 X251.927 Y186.677 E.03802
G1 X257.373 Y186.677 E.21888
G1 X257.385 Y188.611 E.07772
G1 X257.529 Y188.948 E.01475
G1 X257.823 Y189.194 E.01541
G1 X258.179 Y189.277 E.01468
G1 X261.973 Y189.277 E.15251
G1 X261.973 Y192.75 E.13959
G1 X261.973 Y196.223 E.13959
G1 X258.179 Y196.223 E.15251
G1 X257.823 Y196.306 E.01466
G1 X257.578 Y196.511 E.01284
G1 X257.962 Y196.869 F24000
;TYPE:Outer wall
G1 F7200
G1 X257.91 Y197.029 E.00674
G1 X257.91 Y199.189 E.08681
G1 X257.739 Y199.359 E.00971
G1 X253.056 Y199.345 E.18824
G1 X252.89 Y199.185 E.00925
G1 X252.889 Y188.956 E.41116
G1 X252.869 Y188.325 E.02534
G1 X252.782 Y188.214 E.00568
G1 X252.621 Y188.16 E.00683
G1 X251.562 Y188.16 E.04258
G1 X251.39 Y187.989 E.00975
G1 X251.39 Y186.312 E.0674
G1 X251.562 Y186.14 E.00975
G1 X257.739 Y186.14 E.24827
G1 X257.91 Y186.312 E.00975
G1 X257.91 Y188.472 E.08681
G1 X257.914 Y188.518 E.00187
G1 X258.009 Y188.68 E.00754
G1 X258.179 Y188.74 E.00724
G1 X262.51 Y188.74 E.17409
G1 X262.51 Y192.75 E.16117
G1 X262.51 Y196.76 E.16117
G1 X258.11 Y196.769 E.17685
G1 X257.971 Y196.864 E.00677
G1 E-.4 F4200
G1 X252.4 Y187.15 F24000
G1 E.4 F4200
;TYPE:Inner wall
;WIDTH:0.451698
G1 F7200
G1 X252.621 Y187.15 E.00676
G1 E-.4 F4200
G1 X261.275 Y191.076 F24000
G1 E.4 F4200
;TYPE:Bottom surface
;WIDTH:0.587196
G1 F7200
G1 X260.416 Y190.217 E.0495
G1 X259.646 Y190.217 E.03135
G1 X261.033 Y191.604 E.07991
G1 X261.033 Y192.374 E.03135
G1 X258.634 Y189.975 E.13817
G1 E-.4 F4200
G1 X256.675 Y188.016 F24000
G1 E.4 F4200
G1 F7200
G1 X256.276 Y187.617 E.02297
G1 X255.506 Y187.617 E.03135
G1 X256.439 Y188.55 E.05375
G2 X256.543 Y189.084 I1.533 J-.021 E.02227
G1 X256.77 Y189.504 E.01946
G1 X257.074 Y189.825 E.018
G2 X258.102 Y190.212 I1.089 J-1.331 E.04551
G1 X261.033 Y193.144 E.16886
G1 X261.033 Y193.913 E.03135
G1 X254.737 Y187.617 E.36269
G1 X254.129 Y187.617 E.02475
G3 X254.267 Y187.917 I-.231 J.288 E.01393
G1 X261.033 Y194.683 E.38976
G1 X261.033 Y195.283 E.02443
G1 X260.863 Y195.283 E.00692
G1 X254.366 Y188.786 E.37423
G1 X254.366 Y189.556 E.03135
G1 X260.094 Y195.283 E.32989
G1 X259.324 Y195.283 E.03135
G1 X254.367 Y190.326 E.28555
G1 X254.367 Y191.096 E.03135
G1 X258.554 Y195.283 E.24121
G2 X257.824 Y195.323 I-.2 J3.056 E.02985
G1 X254.367 Y191.865 E.19915
G1 X254.367 Y192.635 E.03135
G1 X257.277 Y195.545 E.16764
G2 X256.861 Y195.899 I.517 J1.028 E.02245
G1 X254.367 Y193.405 E.14369
G1 X254.367 Y194.175 E.03135
G1 X256.566 Y196.374 E.12666
G1 X256.543 Y196.416 E.00196
G1 X256.437 Y196.904 E.02035
G1 X256.437 Y197.014 E.00448
G1 X254.367 Y194.944 E.11922
G1 X254.367 Y195.714 E.03135
G1 X256.434 Y197.781 E.11907
G1 X256.434 Y197.878 E.00396
G1 X255.759 Y197.876 E.02747
G1 X254.367 Y196.484 E.08021
G1 X254.367 Y197.254 E.03135
G1 X255.23 Y198.116 E.04969
G1 E-.4 F4200
G1 X72.606 Y195.947 F24000
G1 E.4 F4200
;TYPE:Inner wall
;WIDTH:0.579999
G1 F7200
G1 X72.414 Y195.824 E.00916
G2 X71.821 Y195.686 I-.592 J1.205 E.02466
G1 X68.564 Y195.686 E.13092
G1 X68.564 Y189.814 E.236
G1 X71.997 Y189.803 E.138
G1 X72.414 Y189.676 E.0175
G2 X73.08 Y188.94 I-.721 J-1.32 E.04065
G1 X73.164 Y188.472 E.01914
G1 X73.164 Y187.214 E.05053
G1 X76.527 Y187.214 E.13515
G1 X76.737 Y187.196 E.00847
;WIDTH:0.543691
G1 X76.947 Y187.178 E.0079
;WIDTH:0.507383
G1 X77.156 Y187.16 E.00732
G1 X76.962 Y187.225 E.00712
;WIDTH:0.543691
G1 X76.768 Y187.29 E.00768
;WIDTH:0.579999
G1 X76.573 Y187.354 E.00823
G1 X76.14 Y187.912 E.0284
G1 X76.036 Y188.429 E.02117
G1 X76.036 Y198.274 E.39569
G1 X73.164 Y198.282 E.11542
G1 X73.164 Y197.029 E.0504
G1 X73.079 Y196.557 E.01925
G1 X72.903 Y196.232 E.01485
G2 X72.669 Y195.987 I-1.081 J.796 E.01366
G1 X72.614 Y195.952 E.00261
G1 X72.309 Y196.416 F24000
G1 F7200
G1 X72.177 Y196.306 E.00691
G1 X71.821 Y196.223 E.01466
G1 X68.027 Y196.223 E.15251
G1 X68.027 Y189.277 E.27917
G1 X71.821 Y189.277 E.15251
G1 X72.177 Y189.194 E.01468
G1 X72.471 Y188.948 E.01541
G1 X72.576 Y188.753 E.00893
G1 X72.627 Y188.472 E.01148
G1 X72.627 Y186.677 E.07212
G1 X78.073 Y186.677 E.21888
G1 X78.073 Y187.623 E.03802
G1 X77.24 Y187.635 E.03348
G1 X76.896 Y187.784 E.01507
G1 X76.635 Y188.119 E.01704
G1 X76.573 Y188.429 E.0127
G1 X76.573 Y198.809 E.41721
G1 X72.627 Y198.821 E.1586
G1 X72.627 Y197.029 E.07205
G1 X72.576 Y196.746 E.01155
G1 X72.47 Y196.551 E.00891
G1 X72.316 Y196.422 E.00805
G1 X71.985 Y196.828 F24000
;TYPE:Outer wall
G1 F7200
G2 X71.821 Y196.76 I-.19 J.227 E.00721
G1 X67.49 Y196.76 E.17409
G1 X67.49 Y188.74 E.32234
G1 X71.89 Y188.731 E.17685
G1 X72.038 Y188.63 E.00719
G1 X72.09 Y188.472 E.00672
G1 X72.09 Y186.312 E.08681
G1 X72.261 Y186.14 E.00975
G1 X78.438 Y186.14 E.24827
G1 X78.61 Y186.312 E.00975
G1 X78.61 Y186.433 E.00488
G1 X78.61 Y187.989 E.06252
G1 X78.438 Y188.16 E.00975
G1 X77.379 Y188.16 E.04258
G1 X77.218 Y188.214 E.00683
G2 X77.111 Y188.429 I.161 J.215 E.01001
G1 X77.11 Y199.185 E.43234
G1 X76.944 Y199.345 E.00925
G1 X72.261 Y199.359 E.18824
G1 X72.09 Y199.189 E.00971
G1 X72.09 Y197.029 E.08681
G2 X71.992 Y196.834 I-.295 J.026 E.00896
G1 E-.4 F4200
G1 X77.156 Y187.16 F24000
G1 E.4 F4200
;TYPE:Inner wall
;WIDTH:0.471074
G1 F7200
G1 X77.6 Y187.15 E.01421
G1 E-.4 F4200
G1 X75.252 Y187.375 F24000
G1 E.4 F4200
;TYPE:Bottom surface
;WIDTH:0.605946
G1 F7200
G1 X75.743 Y187.866 E.02925
G1 X75.634 Y188.415 E.02359
G1 X75.634 Y188.553 E.00579
G1 X74.698 Y187.617 E.05575
G1 X73.902 Y187.617 E.03355
G1 X75.634 Y189.349 E.1032
G1 X75.633 Y190.145 E.03355
G1 X73.565 Y188.077 E.12325
G3 X73.541 Y188.776 I-3.002 J.245 E.02954
G1 X73.525 Y188.833 E.0025
G1 X75.633 Y190.941 E.12563
G1 X75.633 Y191.737 E.03355
G1 X73.29 Y189.394 E.13965
G1 X73.23 Y189.504 E.00529
G1 X72.925 Y189.825 E.01866
G1 X75.633 Y192.534 E.16139
G1 X75.633 Y193.33 E.03355
G1 X72.41 Y190.107 E.19207
G3 X71.724 Y190.217 I-.635 J-1.757 E.02944
G1 X75.633 Y194.126 E.23293
G1 X75.633 Y194.922 E.03355
G1 X70.928 Y190.217 E.28037
G1 X70.132 Y190.217 E.03355
G1 X75.633 Y195.718 E.32781
G1 X75.633 Y196.515 E.03355
G1 X69.335 Y190.217 E.37526
G1 X68.967 Y190.217 E.01553
G1 X68.967 Y190.645 E.01802
G1 X75.633 Y197.311 E.39722
G1 X75.633 Y197.872 E.02364
G1 X75.399 Y197.873 E.00987
G1 X68.967 Y191.441 E.38325
G1 X68.967 Y192.237 E.03355
G1 X72.026 Y195.296 E.18228
G3 X73.228 Y195.994 I-.26 J1.834 E.06003
M73 P2 R14
G1 X73.457 Y196.416 E.02024
G1 X73.544 Y196.814 E.01716
G1 X74.605 Y197.875 E.06325
G1 X73.811 Y197.878 E.03345
G1 X73.323 Y197.39 E.02908
G1 E-.4 F4200
G1 X71.458 Y195.525 F24000
G1 E.4 F4200
G1 F7200
G1 X68.967 Y193.033 E.14845
G1 X68.967 Y193.83 E.03355
G1 X70.42 Y195.283 E.08661
G1 X69.624 Y195.283 E.03355
G1 X68.725 Y194.384 E.05356
; stop printing object [a]_buffer-top-ecas+magnet_xN.stl id:0 copy 0
; printing object [a]_buffer-top-ecas+magnet_xN.stl id:1 copy 0
G1 E-.4 F4200
EXCLUDE_OBJECT_END NAME=a__buffer-top-ecas_magnet_xN.stl_id_0_copy_0
EXCLUDE_OBJECT_START NAME=a__buffer-top-ecas_magnet_xN.stl_id_1_copy_0
G1 X257.137 Y175.69 F24000
G1 E.4 F4200
;TYPE:Inner wall
;WIDTH:0.579999
G1 F7200
G1 X257.105 Y175.738 E.00233
G2 X256.921 Y176.057 I1.201 J.906 E.01483
G1 X256.836 Y176.529 E.01925
G1 X256.836 Y177.782 E.0504
G1 X253.964 Y177.774 E.11542
G1 X253.964 Y167.929 E.39569
G1 X253.86 Y167.412 E.02117
G1 X253.427 Y166.854 E.0284
G1 X253.158 Y166.786 E.01113
;WIDTH:0.537232
G1 X252.889 Y166.718 E.01025
;WIDTH:0.494465
G1 X252.621 Y166.65 E.00936
G1 X252.905 Y166.671 E.00963
;WIDTH:0.537232
G1 X253.189 Y166.693 E.01054
;WIDTH:0.579999
G1 X253.473 Y166.714 E.01145
G1 X256.836 Y166.714 E.13515
G1 X256.836 Y167.971 E.05053
G1 X256.92 Y168.44 E.01914
G1 X257.096 Y168.766 E.01488
G2 X258.179 Y169.314 I1.082 J-.794 E.0506
G1 X261.436 Y169.314 E.13092
G1 X261.436 Y172.25 E.118
G1 X261.436 Y175.186 E.118
G2 X258.062 Y175.191 I-1.468 J144.806 E.13563
G1 X257.586 Y175.324 E.01983
G2 X257.337 Y175.494 I.72 J1.321 E.01215
G1 X257.145 Y175.683 E.01085
G1 X257.57 Y176.017 F24000
G1 F7200
G1 X257.53 Y176.051 E.00213
G1 X257.424 Y176.246 E.00891
G1 X257.373 Y176.529 E.01155
G1 X257.373 Y178.321 E.07205
G1 X253.427 Y178.309 E.1586
G1 X253.427 Y167.929 E.41721
G1 X253.365 Y167.619 E.0127
G1 X253.104 Y167.284 E.01704
G1 X252.621 Y167.123 E.02048
G1 X251.927 Y167.123 E.02789
G1 X251.927 Y166.177 E.03802
G1 X257.373 Y166.177 E.21888
G1 X257.385 Y168.111 E.07772
G1 X257.529 Y168.448 E.01475
G1 X257.823 Y168.694 E.01541
G1 X258.179 Y168.777 E.01468
G1 X261.973 Y168.777 E.15251
G1 X261.973 Y172.25 E.13959
G1 X261.973 Y175.723 E.13959
G1 X258.179 Y175.723 E.15251
G1 X257.823 Y175.806 E.01466
G1 X257.578 Y176.011 E.01284
G1 X257.962 Y176.369 F24000
;TYPE:Outer wall
G1 F7200
G1 X257.91 Y176.529 E.00674
G1 X257.91 Y178.688 E.08681
G1 X257.739 Y178.859 E.00971
G1 X253.056 Y178.845 E.18824
G1 X252.89 Y178.685 E.00925
G1 X252.889 Y168.456 E.41116
G1 X252.869 Y167.825 E.02534
G1 X252.782 Y167.714 E.00568
G1 X252.621 Y167.66 E.00683
G1 X251.562 Y167.66 E.04258
G1 X251.39 Y167.488 E.00975
G1 X251.39 Y165.812 E.0674
G1 X251.562 Y165.64 E.00975
G1 X257.739 Y165.64 E.24827
G1 X257.91 Y165.812 E.00975
G1 X257.91 Y167.971 E.08681
G1 X257.914 Y168.018 E.00187
G1 X258.009 Y168.18 E.00754
G1 X258.179 Y168.24 E.00724
G1 X262.51 Y168.24 E.17409
G1 X262.51 Y172.25 E.16117
G1 X262.51 Y176.26 E.16117
G1 X258.11 Y176.269 E.17685
G1 X257.971 Y176.364 E.00677
G1 E-.4 F4200
G1 X252.4 Y166.65 F24000
G1 E.4 F4200
;TYPE:Inner wall
;WIDTH:0.451698
G1 F7200
G1 X252.621 Y166.65 E.00676
G1 E-.4 F4200
G1 X261.275 Y170.576 F24000
G1 E.4 F4200
;TYPE:Bottom surface
;WIDTH:0.587196
G1 F7200
G1 X260.416 Y169.717 E.0495
G1 X259.646 Y169.717 E.03135
G1 X261.033 Y171.104 E.07991
G1 X261.033 Y171.874 E.03135
G1 X258.634 Y169.475 E.13817
G1 E-.4 F4200
G1 X256.675 Y167.516 F24000
G1 E.4 F4200
G1 F7200
G1 X256.276 Y167.117 E.02297
G1 X255.506 Y167.117 E.03135
G1 X256.439 Y168.05 E.05375
G2 X256.543 Y168.584 I1.533 J-.021 E.02227
G1 X256.77 Y169.004 E.01946
G1 X257.074 Y169.325 E.018
G2 X258.102 Y169.712 I1.089 J-1.331 E.04551
G1 X261.033 Y172.644 E.16886
G1 X261.033 Y173.413 E.03135
G1 X254.737 Y167.117 E.36269
G1 X254.129 Y167.117 E.02475
G3 X254.267 Y167.417 I-.231 J.288 E.01393
G1 X261.033 Y174.183 E.38976
G1 X261.033 Y174.783 E.02443
G1 X260.863 Y174.783 E.00692
G1 X254.366 Y168.286 E.37423
G1 X254.366 Y169.056 E.03135
G1 X260.094 Y174.783 E.32989
G1 X259.324 Y174.783 E.03135
G1 X254.367 Y169.826 E.28555
G1 X254.367 Y170.596 E.03135
G1 X258.554 Y174.783 E.24121
G2 X257.824 Y174.823 I-.2 J3.056 E.02985
G1 X254.367 Y171.365 E.19915
G1 X254.367 Y172.135 E.03135
G1 X257.277 Y175.045 E.16764
G2 X256.861 Y175.399 I.517 J1.028 E.02245
G1 X254.367 Y172.905 E.14369
G1 X254.367 Y173.675 E.03135
G1 X256.566 Y175.873 E.12666
G1 X256.543 Y175.916 E.00196
G1 X256.437 Y176.404 E.02035
G1 X256.437 Y176.514 E.00448
G1 X254.367 Y174.444 E.11922
