; HEADER_BLOCK_START
; generated by OrcaSlicer 1.8.1 on 2023-12-15 at 22:20:22
; total layer number: 377
; HEADER_BLOCK_END

; THUMBNAIL_BLOCK_START

;
; THUMBNAIL_BLOCK_END

; external perimeters extrusion width = 0.52mm
; perimeters extrusion width = 0.52mm
; infill extrusion width = 0.55mm
; solid infill extrusion width = 0.55mm
; top infill extrusion width = 0.55mm
; first layer extrusion width = 0.58mm

; EXECUTABLE_BLOCK_START
EXCLUDE_OBJECT_DEFINE NAME=a__buffer-top-magnet_magnet_xN_1_.stl_id_0_copy_0 CENTER=165,165 POLYGON=[[63,160.4],[65,155.4],[65.4,155],[74.8181,155],[255.182,155],[264.6,155],[265,155.4],[267,160.4],[267,169.6],[265,174.6],[264.6,175],[263.247,175],[242.92,175],[236.734,175],[93.2663,175],[87.0796,175],[66.7533,175],[65.4,175],[65,174.6],[63,169.6],[63,160.4]]
M73 P0 R51
;TYPE:Custom
M104 S0
M140 S0
START_PRINT BED=75 HOTEND=215
G90
G21
M83 ; use relative distances for extrusion
; filament start gcode
SET_PRESSURE_ADVANCE ADVANCE=0.032; Override pressure advance value
M106 S0
;LAYER_CHANGE
;Z:0.2
;HEIGHT:0.2
;BEFORE_LAYER_CHANGE
;0.2
G92 E0

;DSLR_SNAPSHOT
TIMELAPSE_TAKE_FRAME
;_SET_FAN_SPEED_CHANGING_LAYER
SET_VELOCITY_LIMIT ACCEL=10000 ACCEL_TO_DECEL=5000
SET_VELOCITY_LIMIT SQUARE_CORNER_VELOCITY=10
G1 E-.4 F4200
G1 X86.313 Y152.931 F24000
G1 Z.2
G1 E.4 F4200
;TYPE:Skirt
;WIDTH:0.58
G1 F3000
G1 X86.736 Y152.831 E.01746
G1 X87.32 Y152.763 E.02364
G1 X242.68 Y152.763 E6.24432
G1 X243.264 Y152.831 E.02364
G1 X243.687 Y152.931 E.01746
G1 X244.915 Y153.625 E.05669
G1 X245.64 Y155.4 E.07707
G1 X245.64 Y174.6 E.7717
G1 X245.248 Y175.955 E.05669
G1 X243.687 Y177.069 E.07707
G1 X243.264 Y177.169 E.01745
G1 X242.68 Y177.237 E.02364
G1 X87.32 Y177.237 E6.24432
G1 X86.313 Y177.069 E.04103
G1 X85.085 Y176.375 E.05669
G1 X84.36 Y174.6 E.07707
G1 X84.36 Y155.4 E.7717
G1 X84.752 Y154.045 E.05669
G1 X86.272 Y152.96 E.07506
; printing object [a]_buffer-top-magnet+magnet_xN (1).stl id:0 copy 0
G1 E-.4 F4200
EXCLUDE_OBJECT_START NAME=a__buffer-top-magnet_magnet_xN_1_.stl_id_0_copy_0
G1 X88.361 Y156.764 F24000
G1 E.4 F4200
;TYPE:Inner wall
;WIDTH:0.579999
G1 F7200
G1 X241.639 Y156.764 E6.16059
G1 X241.639 Y173.236 E.66204
G1 X88.361 Y173.236 E6.16058
G1 X88.361 Y156.774 E.66164
G1 X87.824 Y156.227 F24000
G1 F7200
G1 X242.176 Y156.227 E6.20376
G1 X242.176 Y173.773 E.70521
G1 X87.824 Y173.773 E6.20376
G1 X87.824 Y156.237 E.70481
G1 X87.365 Y155.69 F24000
;TYPE:Outer wall
G1 F7200
G1 X242.624 Y155.69 E6.24024
G1 X242.713 Y155.709 E.00363
G1 X242.713 Y155.778 E.00281
G1 X242.713 Y174.292 E.74409
G1 X242.635 Y174.31 E.00323
G1 X87.376 Y174.31 E6.24024
G1 X87.287 Y174.292 E.00363
G1 X87.287 Y155.709 E.7469
G1 X87.356 Y155.692 E.00282
G1 E-.4 F4200
G1 X198.021 Y162.544 F24000
G1 E.4 F4200
;TYPE:Inner wall
G1 F7200
G1 X198.152 Y162.446 E.00655
G1 X198.68 Y162.193 E.02353
G1 X199.247 Y162.048 E.02353
G1 X199.832 Y162.016 E.02353
G1 X200.411 Y162.099 E.02353
G1 X200.963 Y162.294 E.02353
G1 X201.467 Y162.592 E.02353
G1 X201.903 Y162.983 E.02353
G1 X202.254 Y163.452 E.02353
G1 X202.507 Y163.98 E.02353
G1 X202.652 Y164.547 E.02353
G1 X202.69 Y165 E.01827
G1 X202.634 Y165.578 E.02335
G1 X202.464 Y166.14 E.0236
G1 X202.108 Y166.767 E.02898
G1 X201.717 Y167.203 E.02353
G1 X201.248 Y167.554 E.02353
G1 X200.72 Y167.807 E.02353
G1 X200.153 Y167.952 E.02353
G1 X199.568 Y167.984 E.02353
G1 X198.989 Y167.901 E.02353
G1 X198.437 Y167.706 E.02353
G1 X197.933 Y167.408 E.02353
G1 X197.497 Y167.017 E.02353
G1 X197.146 Y166.548 E.02353
G1 X196.893 Y166.02 E.02353
G1 X196.748 Y165.453 E.02353
G1 X196.716 Y164.868 E.02353
G1 X196.799 Y164.289 E.02353
G1 X196.994 Y163.737 E.02353
G1 X197.292 Y163.233 E.02353
G1 X197.683 Y162.797 E.02353
G1 X198.013 Y162.55 E.01658
G1 X198.335 Y162.973 F24000
G1 F7200
G1 X198.405 Y162.92 E.00353
G3 X202.118 Y164.6 I1.295 J2.08 E.19338
G1 X202.153 Y165 E.01615
G1 X202.087 Y165.555 E.02248
G3 X198.024 Y163.212 I-2.387 J-.555 E.36742
G1 X198.327 Y162.979 E.01538
G1 X198.662 Y163.399 F24000
;TYPE:Outer wall
G1 F7200
G3 X201.479 Y164.292 I1.042 J1.603 E.13574
G3 X201.616 Y165 I-1.811 J.718 E.02917
G3 X198.654 Y163.405 I-1.912 J.002 E.31752
G1 E-.4 F4200
G1 X128.174 Y162.918 F24000
G1 E.4 F4200
;TYPE:Inner wall
G1 F7200
G1 X128.283 Y162.797 E.00655
G1 X128.752 Y162.446 E.02353
G1 X129.28 Y162.193 E.02353
G1 X129.847 Y162.048 E.02353
G1 X130.432 Y162.016 E.02353
G1 X131.011 Y162.099 E.02353
G1 X131.563 Y162.294 E.02353
G1 X132.067 Y162.592 E.02353
G1 X132.503 Y162.983 E.02353
G1 X132.854 Y163.452 E.02353
G1 X133.107 Y163.98 E.02353
G1 X133.252 Y164.547 E.02353
G1 X133.29 Y165 E.01827
G1 X133.234 Y165.578 E.02335
G1 X133.064 Y166.14 E.0236
G1 X132.708 Y166.767 E.02898
G1 X132.317 Y167.203 E.02353
G1 X131.848 Y167.554 E.02353
G1 X131.32 Y167.807 E.02353
G1 X130.753 Y167.952 E.02353
G1 X130.168 Y167.984 E.02353
G1 X129.589 Y167.901 E.02353
G1 X129.037 Y167.706 E.02353
G1 X128.533 Y167.408 E.02353
G1 X128.097 Y167.017 E.02353
G1 X127.746 Y166.548 E.02353
G1 X127.493 Y166.02 E.02353
G1 X127.348 Y165.453 E.02353
G1 X127.316 Y164.868 E.02353
G1 X127.399 Y164.289 E.02353
G1 X127.594 Y163.737 E.02353
G1 X127.892 Y163.233 E.02353
G1 X128.168 Y162.926 E.01658
G1 X128.566 Y163.278 F24000
G1 F7200
G1 X128.624 Y163.212 E.00353
G3 X132.717 Y164.6 I1.676 J1.788 E.21272
G1 X132.753 Y165 E.01615
G1 X132.687 Y165.555 E.02248
G3 X128.307 Y163.574 I-2.387 J-.555 E.34809
G1 X128.56 Y163.286 E.01538
G1 X128.97 Y163.633 F24000
;TYPE:Outer wall
G1 F7200
G3 X132.079 Y164.292 I1.334 J1.369 E.15079
G3 X132.216 Y165 I-1.811 J.718 E.02917
G3 X128.963 Y163.64 I-1.912 J.002 E.30246
G1 E-.4 F4200
G1 X241.477 Y158.015 F24000
G1 E.4 F4200
;TYPE:Bottom surface
;WIDTH:0.581887
G1 F7200
G1 X240.629 Y157.167 E.04837
G1 X239.867 Y157.167 E.03074
G1 X241.236 Y158.536 E.07806
G1 X241.236 Y159.298 E.03074
G1 X239.105 Y157.167 E.12154
G1 X238.343 Y157.167 E.03074
G1 X241.236 Y160.06 E.16502
G1 X241.236 Y160.822 E.03074
G1 X237.581 Y157.167 E.20849
G1 X236.818 Y157.167 E.03074
G1 X241.236 Y161.584 E.25197
G1 X241.236 Y162.347 E.03074
G1 X236.056 Y157.167 E.29545
G1 X235.294 Y157.167 E.03074
G1 X241.236 Y163.109 E.33892
G1 X241.236 Y163.871 E.03074
G1 X234.532 Y157.167 E.3824
G1 X233.77 Y157.167 E.03074
G1 X241.236 Y164.633 E.42588
G1 X241.236 Y165.395 E.03074
G1 X233.007 Y157.167 E.46935
G1 X232.245 Y157.167 E.03074
G1 X241.236 Y166.158 E.51283
G1 X241.236 Y166.92 E.03074
G1 X231.483 Y157.167 E.55631
G1 X230.721 Y157.167 E.03074
G1 X241.236 Y167.682 E.59979
G1 X241.236 Y168.444 E.03074
G1 X229.958 Y157.167 E.64326
G1 X229.196 Y157.167 E.03074
G1 X241.236 Y169.206 E.68674
G1 X241.236 Y169.969 E.03074
G1 X228.434 Y157.167 E.73022
G1 X227.672 Y157.167 E.03074
G1 X241.236 Y170.731 E.77369
G1 X241.236 Y171.493 E.03074
G1 X226.91 Y157.167 E.81717
G1 X226.147 Y157.167 E.03074
G1 X241.236 Y172.255 E.86065
G1 X241.236 Y172.833 E.0233
G1 X241.051 Y172.833 E.00744
G1 X225.385 Y157.167 E.8936
G1 X224.623 Y157.167 E.03074
G1 X240.289 Y172.833 E.8936
G1 X239.527 Y172.833 E.03074
G1 X223.861 Y157.167 E.8936
G1 X223.099 Y157.167 E.03074
G1 X238.765 Y172.833 E.8936
G1 X238.002 Y172.833 E.03074
G1 X222.336 Y157.167 E.8936
G1 X221.574 Y157.167 E.03074
G1 X237.24 Y172.833 E.8936
G1 X236.478 Y172.833 E.03074
G1 X220.812 Y157.167 E.8936
G1 X220.05 Y157.167 E.03074
G1 X235.716 Y172.833 E.8936
G1 X234.954 Y172.833 E.03074
G1 X219.287 Y157.167 E.8936
G1 X218.525 Y157.167 E.03074
G1 X234.191 Y172.833 E.8936
G1 X233.429 Y172.833 E.03074
G1 X217.763 Y157.167 E.8936
G1 X217.001 Y157.167 E.03074
G1 X232.667 Y172.833 E.8936
G1 X231.905 Y172.833 E.03074
G1 X216.239 Y157.167 E.8936
G1 X215.476 Y157.167 E.03074
G1 X231.142 Y172.833 E.8936
G1 X230.38 Y172.833 E.03074
G1 X214.714 Y157.167 E.8936
G1 X213.952 Y157.167 E.03074
G1 X229.618 Y172.833 E.8936
G1 X228.856 Y172.833 E.03074
G1 X213.19 Y157.167 E.8936
G1 X212.428 Y157.167 E.03074
G1 X228.094 Y172.833 E.8936
G1 X227.331 Y172.833 E.03074
G1 X211.665 Y157.167 E.8936
G1 X210.903 Y157.167 E.03074
G1 X226.569 Y172.833 E.8936
G1 X225.807 Y172.833 E.03074
G1 X210.141 Y157.167 E.8936
G1 X209.379 Y157.167 E.03074
G1 X225.045 Y172.833 E.8936
G1 X224.283 Y172.833 E.03074
G1 X208.616 Y157.167 E.8936
G1 X207.854 Y157.167 E.03074
G1 X223.52 Y172.833 E.8936
G1 X222.758 Y172.833 E.03074
G1 X207.092 Y157.167 E.8936
G1 X206.33 Y157.167 E.03074
G1 X221.996 Y172.833 E.8936
G1 X221.234 Y172.833 E.03074
G1 X205.568 Y157.167 E.8936
G1 X204.805 Y157.167 E.03074
G1 X220.471 Y172.833 E.8936
G1 X219.709 Y172.833 E.03074
G1 X204.043 Y157.167 E.8936
G1 X203.281 Y157.167 E.03074
G1 X218.947 Y172.833 E.8936
G1 X218.185 Y172.833 E.03074
G1 X202.519 Y157.167 E.8936
G1 X201.757 Y157.167 E.03074
G1 X217.423 Y172.833 E.8936
G1 X216.66 Y172.833 E.03074
G1 X200.994 Y157.167 E.8936
G1 X200.232 Y157.167 E.03074
G1 X215.898 Y172.833 E.8936
G1 X215.136 Y172.833 E.03074
G1 X199.47 Y157.167 E.8936
G1 X198.708 Y157.167 E.03074
G1 X214.374 Y172.833 E.8936
G1 X213.612 Y172.833 E.03074
G1 X197.945 Y157.167 E.8936
G1 X197.183 Y157.167 E.03074
G1 X212.849 Y172.833 E.8936
G1 X212.087 Y172.833 E.03074
G1 X196.421 Y157.167 E.8936
G1 X195.659 Y157.167 E.03074
G1 X200.133 Y161.641 E.25522
G2 X199.363 Y161.634 I-.418 J3.287 E.03113
G1 X194.897 Y157.167 E.25478
G1 X194.134 Y157.167 E.03074
G1 X198.726 Y161.758 E.26189
G2 X198.18 Y161.974 I1.016 J3.364 E.02371
G1 X193.372 Y157.167 E.27422
G1 X192.61 Y157.167 E.03074
G1 X197.705 Y162.262 E.29062
G2 X197.297 Y162.616 I2.559 J3.361 E.02181
G1 X191.848 Y157.167 E.31081
G1 X191.086 Y157.167 E.03074
G1 X196.946 Y163.028 E.33431
G2 X196.665 Y163.508 I1.934 J1.458 E.02251
G1 X190.323 Y157.167 E.36171
G1 X189.561 Y157.167 E.03074
G1 X196.456 Y164.062 E.39327
G2 X196.335 Y164.703 I1.56 J.625 E.02651
G1 X188.799 Y157.167 E.42989
G1 X188.037 Y157.167 E.03074
G1 X196.665 Y165.795 E.49216
G1 E-.4 F4200
G1 X202.752 Y164.26 F24000
G1 E.4 F4200
G1 F7200
G1 X211.325 Y172.833 E.48902
G1 X210.563 Y172.833 E.03074
G1 X203.061 Y165.332 E.42789
G3 X202.935 Y165.968 I-1.67 J.001 E.02633
G1 X209.8 Y172.833 E.39158
G1 X209.038 Y172.833 E.03074
G1 X202.722 Y166.517 E.36025
G3 X202.438 Y166.995 I-2.207 J-.989 E.02248
G1 X208.276 Y172.833 E.33299
G1 X207.514 Y172.833 E.03074
G1 X202.084 Y167.403 E.30971
G3 X201.672 Y167.754 I-2.686 J-2.742 E.02183
G1 X206.752 Y172.833 E.28973
G1 X205.989 Y172.833 E.03074
G1 X201.195 Y168.039 E.27346
G3 X200.641 Y168.247 I-1.409 J-2.909 E.02391
G1 X205.227 Y172.833 E.26159
G1 X204.465 Y172.833 E.03074
G1 X199.998 Y168.366 E.25481
M73 P1 R51
G1 X199.701 Y168.393 E.01203
G1 X199.224 Y168.354 E.0193
G1 X203.703 Y172.833 E.25547
G1 X202.94 Y172.833 E.03074
G1 X187.274 Y157.167 E.8936
G1 X186.512 Y157.167 E.03074
G1 X202.178 Y172.833 E.8936
G1 X201.416 Y172.833 E.03074
G1 X185.75 Y157.167 E.8936
G1 X184.988 Y157.167 E.03074
G1 X200.654 Y172.833 E.8936
G1 X199.892 Y172.833 E.03074
G1 X184.226 Y157.167 E.8936
G1 X183.463 Y157.167 E.03074
G1 X199.129 Y172.833 E.8936
G1 X198.367 Y172.833 E.03074
G1 X182.701 Y157.167 E.8936
G1 X181.939 Y157.167 E.03074
G1 X197.605 Y172.833 E.8936
G1 X196.843 Y172.833 E.03074
G1 X181.177 Y157.167 E.8936
G1 X180.415 Y157.167 E.03074
G1 X196.081 Y172.833 E.8936
G1 X195.318 Y172.833 E.03074
G1 X179.652 Y157.167 E.8936
G1 X178.89 Y157.167 E.03074
G1 X194.556 Y172.833 E.8936
G1 X193.794 Y172.833 E.03074
G1 X178.128 Y157.167 E.8936
G1 X177.366 Y157.167 E.03074
G1 X193.032 Y172.833 E.8936
G1 X192.269 Y172.833 E.03074
G1 X176.603 Y157.167 E.8936
G1 X175.841 Y157.167 E.03074
G1 X191.507 Y172.833 E.8936
G1 X190.745 Y172.833 E.03074
G1 X175.079 Y157.167 E.8936
G1 X174.317 Y157.167 E.03074
G1 X189.983 Y172.833 E.8936
G1 X189.221 Y172.833 E.03074
G1 X173.555 Y157.167 E.8936
G1 X172.792 Y157.167 E.03074
G1 X188.458 Y172.833 E.8936
G1 X187.696 Y172.833 E.03074
G1 X172.03 Y157.167 E.8936
G1 X171.268 Y157.167 E.03074
G1 X186.934 Y172.833 E.8936
G1 X186.172 Y172.833 E.03074
G1 X170.506 Y157.167 E.8936
G1 X169.743 Y157.167 E.03074
G1 X185.41 Y172.833 E.8936
G1 X184.647 Y172.833 E.03074
G1 X168.981 Y157.167 E.8936
G1 X168.219 Y157.167 E.03074
G1 X183.885 Y172.833 E.8936
G1 X183.123 Y172.833 E.03074
G1 X167.457 Y157.167 E.8936
G1 X166.695 Y157.167 E.03074
G1 X182.361 Y172.833 E.8936
G1 X181.598 Y172.833 E.03074
G1 X165.932 Y157.167 E.8936
G1 X165.17 Y157.167 E.03074
G1 X180.836 Y172.833 E.8936
G1 X180.074 Y172.833 E.03074
G1 X164.408 Y157.167 E.8936
G1 X163.646 Y157.167 E.03074
G1 X179.312 Y172.833 E.8936
G1 X178.55 Y172.833 E.03074
G1 X162.884 Y157.167 E.8936
G1 X162.121 Y157.167 E.03074
G1 X177.787 Y172.833 E.8936
G1 X177.025 Y172.833 E.03074
G1 X161.359 Y157.167 E.8936
G1 X160.597 Y157.167 E.03074
G1 X176.263 Y172.833 E.8936
G1 X175.501 Y172.833 E.03074
G1 X159.835 Y157.167 E.8936
G1 X159.072 Y157.167 E.03074
G1 X174.739 Y172.833 E.8936
G1 X173.976 Y172.833 E.03074
G1 X158.31 Y157.167 E.8936
G1 X157.548 Y157.167 E.03074
G1 X173.214 Y172.833 E.8936
G1 X172.452 Y172.833 E.03074
G1 X156.786 Y157.167 E.8936
G1 X156.024 Y157.167 E.03074
G1 X171.69 Y172.833 E.8936
G1 X170.927 Y172.833 E.03074
G1 X155.261 Y157.167 E.8936
G1 X154.499 Y157.167 E.03074
G1 X170.165 Y172.833 E.8936
G1 X169.403 Y172.833 E.03074
G1 X153.737 Y157.167 E.8936
G1 X152.975 Y157.167 E.03074
G1 X168.641 Y172.833 E.8936
G1 X167.879 Y172.833 E.03074
G1 X152.213 Y157.167 E.8936
G1 X151.45 Y157.167 E.03074
G1 X167.116 Y172.833 E.8936
G1 X166.354 Y172.833 E.03074
G1 X150.688 Y157.167 E.8936
G1 X149.926 Y157.167 E.03074
G1 X165.592 Y172.833 E.8936
G1 X164.83 Y172.833 E.03074
G1 X149.164 Y157.167 E.8936
G1 X148.401 Y157.167 E.03074
G1 X164.068 Y172.833 E.8936
G1 X163.305 Y172.833 E.03074
G1 X147.639 Y157.167 E.8936
G1 X146.877 Y157.167 E.03074
G1 X162.543 Y172.833 E.8936
G1 X161.781 Y172.833 E.03074
G1 X146.115 Y157.167 E.8936
G1 X145.353 Y157.167 E.03074
G1 X161.019 Y172.833 E.8936
G1 X160.256 Y172.833 E.03074
G1 X144.59 Y157.167 E.8936
G1 X143.828 Y157.167 E.03074
G1 X159.494 Y172.833 E.8936
G1 X158.732 Y172.833 E.03074
G1 X143.066 Y157.167 E.8936
G1 X142.304 Y157.167 E.03074
G1 X157.97 Y172.833 E.8936
G1 X157.208 Y172.833 E.03074
G1 X141.542 Y157.167 E.8936
G1 X140.779 Y157.167 E.03074
G1 X156.445 Y172.833 E.8936
G1 X155.683 Y172.833 E.03074
G1 X140.017 Y157.167 E.8936
G1 X139.255 Y157.167 E.03074
G1 X154.921 Y172.833 E.8936
G1 X154.159 Y172.833 E.03074
G1 X138.493 Y157.167 E.8936
G1 X137.73 Y157.167 E.03074
G1 X153.397 Y172.833 E.8936
G1 X152.634 Y172.833 E.03074
G1 X136.968 Y157.167 E.8936
G1 X136.206 Y157.167 E.03074
G1 X151.872 Y172.833 E.8936
G1 X151.11 Y172.833 E.03074
G1 X135.444 Y157.167 E.8936
G1 X134.682 Y157.167 E.03074
G1 X150.348 Y172.833 E.8936
G1 X149.585 Y172.833 E.03074
G1 X133.919 Y157.167 E.8936
G1 X133.157 Y157.167 E.03074
G1 X148.823 Y172.833 E.8936
G1 X148.061 Y172.833 E.03074
G1 X132.395 Y157.167 E.8936
G1 X131.633 Y157.167 E.03074
G1 X147.299 Y172.833 E.8936
G1 X146.537 Y172.833 E.03074
G1 X130.871 Y157.167 E.8936
G1 X130.108 Y157.167 E.03074
G1 X145.774 Y172.833 E.8936
G1 X145.012 Y172.833 E.03074
G1 X129.346 Y157.167 E.8936
G1 X128.584 Y157.167 E.03074
G1 X144.25 Y172.833 E.8936
G1 X143.488 Y172.833 E.03074
G1 X127.822 Y157.167 E.8936
G1 X127.059 Y157.167 E.03074
G1 X142.726 Y172.833 E.8936
G1 X141.963 Y172.833 E.03074
G1 X133.646 Y164.516 E.47441
G1 X133.694 Y165 E.01961
G1 X133.665 Y165.297 E.01202
G1 X141.201 Y172.833 E.42989
G1 X140.439 Y172.833 E.03074
G1 X133.544 Y165.938 E.39327
G3 X133.335 Y166.492 I-1.615 J-.294 E.02399
G1 X139.677 Y172.833 E.36171
G1 X138.914 Y172.833 E.03074
G1 X133.054 Y166.972 E.33431
G3 X132.703 Y167.384 I-3.092 J-2.274 E.02183
G1 X138.152 Y172.833 E.31081
G1 X137.39 Y172.833 E.03074
G1 X132.295 Y167.738 E.29061
G3 X131.82 Y168.026 I-1.696 J-2.267 E.02242
G1 X136.628 Y172.833 E.27422
G1 X135.866 Y172.833 E.03074
G1 X131.271 Y168.239 E.26207
G3 X130.633 Y168.363 I-.662 J-1.703 E.02637
G1 X135.103 Y172.833 E.255
G1 X134.341 Y172.833 E.03074
G1 X129.568 Y168.059 E.27229
G1 E-.4 F4200
G1 X131.083 Y161.953 F24000
G1 E.4 F4200
G1 F7200
G1 X126.297 Y157.167 E.27299
G1 X125.535 Y157.167 E.03074
G1 X129.998 Y161.63 E.25456
G2 X129.355 Y161.749 I.142 J2.551 E.02644
G1 X124.773 Y157.167 E.26138
