; HEADER_BLOCK_START
; generated by OrcaSlicer 1.6.3 on 2023-11-16 at 21:45:45
; total layer number: 74
; HEADER_BLOCK_END

; THUMBNAIL_BLOCK_START
; THUMBNAIL_BLOCK_END

; external perimeters extrusion width = 0.62mm
; perimeters extrusion width = 0.62mm
; infill extrusion width = 0.65mm
; solid infill extrusion width = 0.65mm
; top infill extrusion width = 0.65mm
; first layer extrusion width = 0.68mm

; EXECUTABLE_BLOCK_START
EXCLUDE_OBJECT_DEFINE NAME=acrylic_holde.stl_id_0_copy_0 CENTER=160,170 POLYGON=[[118.75,162.75],[201.25,162.75],[201.25,177.25],[118.75,177.25],[118.75,162.75]]
M73 P0 R3
M73 C0
;TYPE:Custom
M104 S0
M140 S0
START_PRINT BED=75 HOTEND=235
G90
G21
M83 ; use relative distances for extrusion
; filament start gcode
SET_PRESSURE_ADVANCE ADVANCE=0.04; Override pressure advance value
M106 S0
;LAYER_CHANGE
;Z:0.2
;HEIGHT:0.2
;BEFORE_LAYER_CHANGE
;0.2
G92 E0

;DSLR_SNAPSHOT
TIMELAPSE_TAKE_FRAME
M204 S5000
G1 E-.4 F4200
G1 X117.566 Y160.394 F36000
G1 Z.2
G1 E.4 F4200
;TYPE:Skirt
;WIDTH:0.68
G1 F7200
G1 X118.75 Y160.113 E.05802
G1 X201.25 Y160.113 E3.93327
G1 X202.634 Y160.505 E.06859
G1 X203.606 Y161.566 E.06859
G1 X203.887 Y162.75 E.05802
G1 X203.887 Y177.25 E.6913
G1 X203.495 Y178.634 E.06859
G1 X202.434 Y179.606 E.06859
G1 X201.25 Y179.887 E.05802
G1 X118.75 Y179.887 E3.93327
G1 X117.366 Y179.495 E.06859
M73 P1 R3
G1 X116.394 Y178.434 E.06859
G1 X116.113 Y177.25 E.05802
G1 X116.113 Y162.75 E.6913
G1 X116.505 Y161.366 E.06859
G1 X117.499 Y160.455 E.0643
; printing object acrylic holde.stl id:0 copy 0
EXCLUDE_OBJECT_START NAME=acrylic_holde.stl_id_0_copy_0
G1 E-.4 F4200
G1 X120.464 Y164.464 F36000
G1 E.4 F4200
;TYPE:Inner wall
;WIDTH:0.679999
G1 F7200
G1 X199.536 Y164.464 E3.76982
G1 X199.536 Y170 E.26393
G1 X199.536 Y175.536 E.26393
G1 X120.464 Y175.536 E3.76982
G1 X120.464 Y164.476 E.52728
G1 X119.827 Y163.827 F36000
G1 F7200
G1 X200.173 Y163.827 E3.83057
M73 P2 R3
G1 X200.173 Y170 E.2943
G1 X200.173 Y176.173 E.2943
G1 X119.827 Y176.173 E3.83057
G1 X119.827 Y163.839 E.58803
G1 X119.19 Y163.19 F36000
;TYPE:Outer wall
G1 F7200
G1 X200.81 Y163.19 E3.89132
G1 X200.81 Y170 E.32467
G1 X200.81 Y176.81 E.32467
G1 X119.19 Y176.81 E3.89132
M73 P3 R3
G1 X119.19 Y163.202 E.64878
G1 X119.31 Y163.197
G1 E-.4 F4200
G1 X198.052 Y164.655 F36000
G1 E.4 F4200
;TYPE:Bottom surface
;WIDTH:0.682218
G1 F7200
G1 X199.058 Y165.661 E.06805
G1 X199.058 Y166.565 E.04325
G1 X197.435 Y164.942 E.10983
G1 X196.531 Y164.942 E.04325
G1 X199.058 Y167.469 E.171
G1 X199.058 Y168.373 E.04325
G1 X195.627 Y164.942 E.23217
G1 X194.722 Y164.942 E.04325
G1 X199.058 Y169.278 E.29334
G1 X199.058 Y170.182 E.04325
G1 X193.818 Y164.942 E.35451
G1 X192.914 Y164.942 E.04325
G1 X199.058 Y171.086 E.41568
G1 X199.058 Y171.99 E.04325
G1 X192.01 Y164.942 E.47685
G1 X191.106 Y164.942 E.04325
G1 X199.058 Y172.894 E.53802
G1 X199.058 Y173.798 E.04325
G1 X190.202 Y164.942 E.59919
G1 X189.298 Y164.942 E.04325
G1 X199.058 Y174.702 E.66036
G1 X199.058 Y175.058 E.01703
G1 X198.51 Y175.058 E.02623
G1 X188.394 Y164.942 E.68444
M73 P4 R3
G1 X187.49 Y164.942 E.04325
G1 X197.606 Y175.058 E.68444
G1 X196.702 Y175.058 E.04325
G1 X186.586 Y164.942 E.68444
G1 X185.681 Y164.942 E.04325
G1 X195.798 Y175.058 E.68444
G1 X194.893 Y175.058 E.04325
G1 X184.777 Y164.942 E.68444
G1 X183.873 Y164.942 E.04325
G1 X193.989 Y175.058 E.68444
G1 X193.085 Y175.058 E.04325
G1 X182.969 Y164.942 E.68444
G1 X182.065 Y164.942 E.04325
G1 X192.181 Y175.058 E.68444
G1 X191.277 Y175.058 E.04325
G1 X181.161 Y164.942 E.68444
G1 X180.257 Y164.942 E.04325
G1 X190.373 Y175.058 E.68444
G1 X189.469 Y175.058 E.04325
G1 X179.353 Y164.942 E.68444
G1 X178.449 Y164.942 E.04325
G1 X188.565 Y175.058 E.68444
G1 X187.661 Y175.058 E.04325
G1 X177.545 Y164.942 E.68444
G1 X176.64 Y164.942 E.04325
G1 X186.756 Y175.058 E.68444
G1 X185.852 Y175.058 E.04325
G1 X175.736 Y164.942 E.68444
M73 P5 R3
G1 X174.832 Y164.942 E.04325
G1 X184.948 Y175.058 E.68444
G1 X184.044 Y175.058 E.04325
G1 X173.928 Y164.942 E.68444
G1 X173.024 Y164.942 E.04325
G1 X183.14 Y175.058 E.68444
G1 X182.236 Y175.058 E.04325
G1 X172.12 Y164.942 E.68444
G1 X171.216 Y164.942 E.04325
G1 X181.332 Y175.058 E.68444
G1 X180.428 Y175.058 E.04325
G1 X170.312 Y164.942 E.68444
G1 X169.408 Y164.942 E.04325
G1 X179.524 Y175.058 E.68444
G1 X178.62 Y175.058 E.04325
G1 X168.503 Y164.942 E.68444
G1 X167.599 Y164.942 E.04325
G1 X177.715 Y175.058 E.68444
G1 X176.811 Y175.058 E.04325
G1 X166.695 Y164.942 E.68444
G1 X165.791 Y164.942 E.04325
G1 X175.907 Y175.058 E.68444
G1 X175.003 Y175.058 E.04325
G1 X164.887 Y164.942 E.68444
G1 X163.983 Y164.942 E.04325
G1 X174.099 Y175.058 E.68444
G1 X173.195 Y175.058 E.04325
M73 P6 R3
G1 X163.079 Y164.942 E.68444
G1 X162.175 Y164.942 E.04325
G1 X172.291 Y175.058 E.68444
G1 X171.387 Y175.058 E.04325
G1 X161.271 Y164.942 E.68444
G1 X160.367 Y164.942 E.04325
G1 X170.483 Y175.058 E.68444
G1 X169.579 Y175.058 E.04325
G1 X159.462 Y164.942 E.68444
G1 X158.558 Y164.942 E.04325
G1 X168.674 Y175.058 E.68444
G1 X167.77 Y175.058 E.04325
G1 X157.654 Y164.942 E.68444
G1 X156.75 Y164.942 E.04325
G1 X166.866 Y175.058 E.68444
G1 X165.962 Y175.058 E.04325
G1 X155.846 Y164.942 E.68444
G1 X154.942 Y164.942 E.04325
G1 X165.058 Y175.058 E.68444
G1 X164.154 Y175.058 E.04325
G1 X154.038 Y164.942 E.68444
G1 X153.134 Y164.942 E.04325
G1 X163.25 Y175.058 E.68444
G1 X162.346 Y175.058 E.04325
G1 X152.23 Y164.942 E.68444
G1 X151.325 Y164.942 E.04325
G1 X161.442 Y175.058 E.68444
M73 P7 R3
G1 X160.537 Y175.058 E.04325
G1 X150.421 Y164.942 E.68444
G1 X149.517 Y164.942 E.04325
G1 X159.633 Y175.058 E.68444
G1 X158.729 Y175.058 E.04325
G1 X148.613 Y164.942 E.68444
G1 X147.709 Y164.942 E.04325
G1 X157.825 Y175.058 E.68444
G1 X156.921 Y175.058 E.04325
G1 X146.805 Y164.942 E.68444
G1 X145.901 Y164.942 E.04325
G1 X156.017 Y175.058 E.68444
G1 X155.113 Y175.058 E.04325
G1 X144.997 Y164.942 E.68444
G1 X144.093 Y164.942 E.04325
G1 X154.209 Y175.058 E.68444
G1 X153.305 Y175.058 E.04325
G1 X143.189 Y164.942 E.68444
G1 X142.284 Y164.942 E.04325
G1 X152.401 Y175.058 E.68444
G1 X151.496 Y175.058 E.04325
G1 X141.38 Y164.942 E.68444
G1 X140.476 Y164.942 E.04325
G1 X150.592 Y175.058 E.68444
G1 X149.688 Y175.058 E.04325
G1 X139.572 Y164.942 E.68444
G1 X138.668 Y164.942 E.04325
G1 X148.784 Y175.058 E.68444
M73 P8 R3
G1 X147.88 Y175.058 E.04325
G1 X137.764 Y164.942 E.68444
G1 X136.86 Y164.942 E.04325
G1 X146.976 Y175.058 E.68444
G1 X146.072 Y175.058 E.04325
G1 X135.956 Y164.942 E.68444
G1 X135.052 Y164.942 E.04325
G1 X145.168 Y175.058 E.68444
G1 X144.264 Y175.058 E.04325
G1 X134.148 Y164.942 E.68444
G1 X133.243 Y164.942 E.04325
G1 X143.36 Y175.058 E.68444
G1 X142.455 Y175.058 E.04325
G1 X132.339 Y164.942 E.68444
G1 X131.435 Y164.942 E.04325
G1 X141.551 Y175.058 E.68444
G1 X140.647 Y175.058 E.04325
G1 X130.531 Y164.942 E.68444
G1 X129.627 Y164.942 E.04325
G1 X139.743 Y175.058 E.68444
G1 X138.839 Y175.058 E.04325
G1 X128.723 Y164.942 E.68444
G1 X127.819 Y164.942 E.04325
G1 X137.935 Y175.058 E.68444
G1 X137.031 Y175.058 E.04325
G1 X126.915 Y164.942 E.68444
G1 X126.011 Y164.942 E.04325
M73 P9 R3
G1 X136.127 Y175.058 E.68444
G1 X135.223 Y175.058 E.04325
G1 X125.106 Y164.942 E.68444
G1 X124.202 Y164.942 E.04325
G1 X134.318 Y175.058 E.68444
G1 X133.414 Y175.058 E.04325
G1 X123.298 Y164.942 E.68444
G1 X122.394 Y164.942 E.04325
G1 X132.51 Y175.058 E.68444
G1 X131.606 Y175.058 E.04325
G1 X121.49 Y164.942 E.68444
G1 X120.942 Y164.942 E.02622
G1 X120.942 Y165.298 E.01703
G1 X130.702 Y175.058 E.66036
G1 X129.798 Y175.058 E.04325
G1 X120.942 Y166.202 E.59919
G1 X120.942 Y167.106 E.04325
G1 X128.894 Y175.058 E.53802
G1 X127.99 Y175.058 E.04325
G1 X120.942 Y168.01 E.47685
G1 X120.942 Y168.914 E.04325
G1 X127.086 Y175.058 E.41567
G1 X126.182 Y175.058 E.04325
G1 X120.942 Y169.818 E.3545
G1 X120.942 Y170.723 E.04325
G1 X125.277 Y175.058 E.29333
G1 X124.373 Y175.058 E.04325
G1 X120.942 Y171.627 E.23216
G1 X120.942 Y172.531 E.04325
G1 X123.469 Y175.058 E.17099
G1 X122.565 Y175.058 E.04325
G1 X120.942 Y173.435 E.10982
G1 X120.942 Y174.339 E.04325
G1 X121.948 Y175.345 E.06805
; stop printing object acrylic holde.stl id:0 copy 0
EXCLUDE_OBJECT_END NAME=acrylic_holde.stl_id_0_copy_0
M106 S252
;LAYER_CHANGE
;Z:0.4
;HEIGHT:0.2
;BEFORE_LAYER_CHANGE
;0.4
G92 E0

;DSLR_SNAPSHOT
TIMELAPSE_TAKE_FRAME
M204 S10000
; printing object acrylic holde.stl id:0 copy 0
EXCLUDE_OBJECT_START NAME=acrylic_holde.stl_id_0_copy_0
M204 S20000
G1 E-.4 F4200
G1 X120.214 Y175.786 Z.4 F36000
G1 E.4 F4200
M204 S10000
;TYPE:Inner wall
;WIDTH:0.619999
G1 F18000
G1 X120.214 Y164.214 E.49973
M73 P10 R3
G1 X199.786 Y164.214 E3.43637
G1 X199.786 Y170 E.24987
G1 X199.786 Y175.786 E.24987
G1 X120.226 Y175.786 E3.43586
M204 S20000
G1 X119.637 Y176.363 F36000
M204 S10000
G1 F18000
G1 X119.637 Y163.637 E.54958
G1 X200.363 Y163.637 E3.48622
G1 X200.363 Y170 E.27479
G1 X200.363 Y176.363 E.27479
G1 X119.649 Y176.363 E3.4857
M204 S20000
G1 X119.06 Y176.94 F36000
M204 S5000
;TYPE:Outer wall
G1 F15000
G1 X119.06 Y163.06 E.59942
G1 X200.94 Y163.06 E3.53606
G1 X200.94 Y170 E.29971
G1 X200.94 Y176.94 E.29971
G1 X119.072 Y176.94 E3.53554
M73 P11 R3
G1 X119.117 Y176.834
M204 S10000
M204 S20000
G1 E-.4 F4200
G1 X199.611 Y174.378 F36000
G1 E.4 F4200
M204 S10000
;TYPE:Internal solid infill
;WIDTH:0.652825
G1 F17215.796
G1 X198.651 Y175.338 E.06196
G1 X197.789 Y175.338 E.03937
G1 X199.338 Y173.789 E.10001
G1 X199.338 Y172.926 E.03937
G1 X196.926 Y175.338 E.15568
G1 X196.064 Y175.338 E.03937
G1 X199.338 Y172.064 E.21136
G1 X199.338 Y171.201 E.03937
G1 X195.201 Y175.338 E.26703
G1 X194.339 Y175.338 E.03937
G1 X199.338 Y170.339 E.32271
G1 X199.338 Y169.476 E.03937
G1 X193.476 Y175.338 E.37838
G1 X192.613 Y175.338 E.03937
G1 X199.338 Y168.613 E.43406
G1 X199.338 Y167.751 E.03937
G1 X191.751 Y175.338 E.48973
G1 X190.888 Y175.338 E.03937
G1 X199.338 Y166.888 E.54541
G1 X199.338 Y166.026 E.03937
G1 X190.026 Y175.338 E.60108
G1 X189.163 Y175.338 E.03937
G1 X199.338 Y165.163 E.65676
G1 X199.338 Y164.662 E.02288
G1 X198.977 Y164.662 E.01648
G1 X188.301 Y175.338 E.68912
G1 X187.438 Y175.338 E.03937
G1 X198.114 Y164.662 E.68912
G1 X197.252 Y164.662 E.03937
G1 X186.576 Y175.338 E.68912
G1 X185.713 Y175.338 E.03937
G1 X196.389 Y164.662 E.68912
G1 X195.527 Y164.662 E.03937
G1 X184.851 Y175.338 E.68912
G1 X183.988 Y175.338 E.03937
G1 X194.664 Y164.662 E.68912
G1 X193.802 Y164.662 E.03937
G1 X183.126 Y175.338 E.68912
G1 X182.263 Y175.338 E.03937
G1 X192.939 Y164.662 E.68912
G1 X192.077 Y164.662 E.03937
G1 X181.401 Y175.338 E.68912
G1 X180.538 Y175.338 E.03937
G1 X191.214 Y164.662 E.68912
G1 X190.352 Y164.662 E.03937
G1 X179.675 Y175.338 E.68912
G1 X178.813 Y175.338 E.03937
G1 X189.489 Y164.662 E.68912
M73 P12 R3
G1 X188.626 Y164.662 E.03937
G1 X177.95 Y175.338 E.68912
G1 X177.088 Y175.338 E.03937
G1 X187.764 Y164.662 E.68912
G1 X186.901 Y164.662 E.03937
G1 X176.225 Y175.338 E.68912
G1 X175.363 Y175.338 E.03937
G1 X186.039 Y164.662 E.68912
G1 X185.176 Y164.662 E.03937
G1 X174.5 Y175.338 E.68912
G1 X173.638 Y175.338 E.03937
G1 X184.314 Y164.662 E.68912
G1 X183.451 Y164.662 E.03937
G1 X172.775 Y175.338 E.68912
G1 X171.913 Y175.338 E.03937
G1 X182.589 Y164.662 E.68912
G1 X181.726 Y164.662 E.03937
G1 X171.05 Y175.338 E.68912
G1 X170.188 Y175.338 E.03937
G1 X180.864 Y164.662 E.68912
G1 X180.001 Y164.662 E.03937
G1 X169.325 Y175.338 E.68912
G1 X168.462 Y175.338 E.03937
G1 X179.139 Y164.662 E.68912
G1 X178.276 Y164.662 E.03937
G1 X167.6 Y175.338 E.68912
G1 X166.737 Y175.338 E.03937
G1 X177.413 Y164.662 E.68912
G1 X176.551 Y164.662 E.03937
G1 X165.875 Y175.338 E.68912
G1 X165.012 Y175.338 E.03937
G1 X175.688 Y164.662 E.68912
G1 X174.826 Y164.662 E.03937
G1 X164.15 Y175.338 E.68912
G1 X163.287 Y175.338 E.03937
G1 X173.963 Y164.662 E.68912
G1 X173.101 Y164.662 E.03937
G1 X162.425 Y175.338 E.68912
G1 X161.562 Y175.338 E.03937
G1 X172.238 Y164.662 E.68912
G1 X171.376 Y164.662 E.03937
G1 X160.7 Y175.338 E.68912
G1 X159.837 Y175.338 E.03937
G1 X170.513 Y164.662 E.68912
G1 X169.651 Y164.662 E.03937
G1 X158.975 Y175.338 E.68912
M73 P13 R3
G1 X158.112 Y175.338 E.03937
G1 X168.788 Y164.662 E.68912
G1 X167.926 Y164.662 E.03937
G1 X157.25 Y175.338 E.68912
G1 X156.387 Y175.338 E.03937
G1 X167.063 Y164.662 E.68912
G1 X166.201 Y164.662 E.03937
G1 X155.524 Y175.338 E.68912
G1 X154.662 Y175.338 E.03937
G1 X165.338 Y164.662 E.68912
G1 X164.475 Y164.662 E.03937
G1 X153.799 Y175.338 E.68912
G1 X152.937 Y175.338 E.03937
G1 X163.613 Y164.662 E.68912
G1 X162.75 Y164.662 E.03937
G1 X152.074 Y175.338 E.68912
G1 X151.212 Y175.338 E.03937
G1 X161.888 Y164.662 E.68912
G1 X161.025 Y164.662 E.03937
G1 X150.349 Y175.338 E.68912
G1 X149.487 Y175.338 E.03937
G1 X160.163 Y164.662 E.68912
G1 X159.3 Y164.662 E.03937
G1 X148.624 Y175.338 E.68912
G1 X147.762 Y175.338 E.03937
G1 X158.438 Y164.662 E.68912
G1 X157.575 Y164.662 E.03937
G1 X146.899 Y175.338 E.68912
G1 X146.037 Y175.338 E.03937
G1 X156.713 Y164.662 E.68912
G1 X155.85 Y164.662 E.03937
G1 X145.174 Y175.338 E.68912
G1 X144.311 Y175.338 E.03937
G1 X154.988 Y164.662 E.68912
G1 X154.125 Y164.662 E.03937
G1 X143.449 Y175.338 E.68912
G1 X142.586 Y175.338 E.03937
G1 X153.262 Y164.662 E.68912
G1 X152.4 Y164.662 E.03937
G1 X141.724 Y175.338 E.68912
G1 X140.861 Y175.338 E.03937
G1 X151.537 Y164.662 E.68912
G1 X150.675 Y164.662 E.03937
G1 X139.999 Y175.338 E.68912
G1 X139.136 Y175.338 E.03937
G1 X149.812 Y164.662 E.68912
G1 X148.95 Y164.662 E.03937
M73 P14 R3
G1 X138.274 Y175.338 E.68912
G1 X137.411 Y175.338 E.03937
G1 X148.087 Y164.662 E.68912
G1 X147.225 Y164.662 E.03937
G1 X136.549 Y175.338 E.68912
G1 X135.686 Y175.338 E.03937
G1 X146.362 Y164.662 E.68912
G1 X145.5 Y164.662 E.03937
G1 X134.824 Y175.338 E.68912
G1 X133.961 Y175.338 E.03937
G1 X144.637 Y164.662 E.68912
G1 X143.775 Y164.662 E.03937
G1 X133.098 Y175.338 E.68912
G1 X132.236 Y175.338 E.03937
G1 X142.912 Y164.662 E.68912
G1 X142.049 Y164.662 E.03937
G1 X131.373 Y175.338 E.68912
G1 X130.511 Y175.338 E.03937
G1 X141.187 Y164.662 E.68912
G1 X140.324 Y164.662 E.03937
G1 X129.648 Y175.338 E.68912
G1 X128.786 Y175.338 E.03937
G1 X139.462 Y164.662 E.68912
G1 X138.599 Y164.662 E.03937
G1 X127.923 Y175.338 E.68912
G1 X127.061 Y175.338 E.03937
G1 X137.737 Y164.662 E.68912
G1 X136.874 Y164.662 E.03937
G1 X126.198 Y175.338 E.68912
G1 X125.336 Y175.338 E.03937
G1 X136.012 Y164.662 E.68912
G1 X135.149 Y164.662 E.03937
G1 X124.473 Y175.338 E.68912
G1 X123.611 Y175.338 E.03937
G1 X134.287 Y164.662 E.68912
G1 X133.424 Y164.662 E.03937
G1 X122.748 Y175.338 E.68912
G1 X121.886 Y175.338 E.03937
G1 X132.562 Y164.662 E.68912
G1 X131.699 Y164.662 E.03937
G1 X121.023 Y175.338 E.68912
G1 X120.662 Y175.338 E.01648
G1 X120.662 Y174.837 E.02289
G1 X130.837 Y164.662 E.65675
G1 X129.974 Y164.662 E.03937
G1 X120.662 Y173.974 E.60107
G1 X120.662 Y173.111 E.03937
G1 X129.111 Y164.662 E.5454
M73 P15 R3
G1 X128.249 Y164.662 E.03937
G1 X120.662 Y172.249 E.48972
G1 X120.662 Y171.386 E.03937
G1 X127.386 Y164.662 E.43405
G1 X126.524 Y164.662 E.03937
G1 X120.662 Y170.524 E.37837
G1 X120.662 Y169.661 E.03937
G1 X125.661 Y164.662 E.3227
G1 X124.799 Y164.662 E.03937
G1 X120.662 Y168.799 E.26702
G1 X120.662 Y167.936 E.03937
G1 X123.936 Y164.662 E.21135
G1 X123.074 Y164.662 E.03937
G1 X120.662 Y167.074 E.15567
G1 X120.662 Y166.211 E.03937
G1 X122.211 Y164.662 E.1
G1 X121.349 Y164.662 E.03937
G1 X120.389 Y165.622 E.06196
; stop printing object acrylic holde.stl id:0 copy 0
EXCLUDE_OBJECT_END NAME=acrylic_holde.stl_id_0_copy_0
;LAYER_CHANGE
;Z:0.6
;HEIGHT:0.2
;BEFORE_LAYER_CHANGE
;0.6
G92 E0

;DSLR_SNAPSHOT
TIMELAPSE_TAKE_FRAME
; printing object acrylic holde.stl id:0 copy 0
EXCLUDE_OBJECT_START NAME=acrylic_holde.stl_id_0_copy_0
M204 S20000
G1 E-.4 F4200
G1 X120.214 Y164.214 Z.6 F36000
G1 E.4 F4200
M204 S10000
;TYPE:Inner wall
;WIDTH:0.619999
G1 F18000
G1 X199.786 Y164.214 E3.43637
G1 X199.786 Y170 E.24987
G1 X199.786 Y175.786 E.24987
G1 X120.214 Y175.786 E3.43637
G1 X120.214 Y164.226 E.49922
M204 S20000
G1 X119.637 Y163.637 F36000
M204 S10000
G1 F18000
G1 X200.363 Y163.637 E3.48622
G1 X200.363 Y170 E.27479
G1 X200.363 Y176.363 E.27479
