; HEADER_BLOCK_START
; generated by OrcaSlicer 1.6.3 on 2023-12-07 at 15:44:03
; total layer number: 27
; HEADER_BLOCK_END

; THUMBNAIL_BLOCK_START
; THUMBNAIL_BLOCK_END

; external perimeters extrusion width = 0.62mm
; perimeters extrusion width = 0.62mm
; infill extrusion width = 0.65mm
; solid infill extrusion width = 0.65mm
; top infill extrusion width = 0.65mm
; first layer extrusion width = 0.68mm

; EXECUTABLE_BLOCK_START
EXCLUDE_OBJECT_DEFINE NAME=array-back.stl_id_0_copy_0 CENTER=160,160 POLYGON=[[60,82.4],[60.1531,81.6304],[61.2611,78.9553],[61.6971,78.3029],[78.3029,61.6971],[78.9553,61.2611],[81.6304,60.1531],[82.4,60],[237.6,60],[238.37,60.1531],[241.045,61.2611],[241.697,61.6971],[258.303,78.3029],[258.739,78.9553],[259.847,81.6304],[260,82.4],[260,237.6],[259.847,238.37],[258.739,241.045],[258.303,241.697],[241.697,258.303],[241.045,258.739],[238.37,259.847],[237.6,260],[82.4,260],[81.6304,259.847],[78.9553,258.739],[78.3029,258.303],[61.6971,241.697],[61.2611,241.045],[60.1531,238.37],[60,237.6],[60,82.4]]
M73 P0 R30
;TYPE:Custom
M104 S0
M140 S0
START_PRINT BED=75 HOTEND=215
G90
G21
M83 ; use relative distances for extrusion
; filament start gcode
SET_PRESSURE_ADVANCE ADVANCE=0.032; Override pressure advance value
M106 S0
;LAYER_CHANGE
;Z:0.2
;HEIGHT:0.2
;BEFORE_LAYER_CHANGE
;0.2
G92 E0

;DSLR_SNAPSHOT
TIMELAPSE_TAKE_FRAME
M204 S5000
G1 E-.4 F4200
G1 X69.479 Y69.479 F48000
G1 Z.2
G1 E.4 F4200
;TYPE:Skirt
;WIDTH:0.68
G1 F7200
G1 X79.094 Y59.864 E.64828
G1 X80.12 Y59.222 E.05772
G1 X81.129 Y59.021 E.04906
G1 X238.871 Y59.021 E7.5205
G1 X239.88 Y59.222 E.04906
G1 X240.906 Y59.864 E.05772
G1 X259.894 Y78.852 E1.28023
G1 X260.536 Y79.878 E.05772
G1 X260.737 Y80.887 E.04906
G1 X260.737 Y239.113 E7.54359
G1 X260.536 Y240.122 E.04906
G1 X259.894 Y241.148 E.05772
G1 X240.906 Y260.136 E1.28023
G1 X239.88 Y260.778 E.05772
G1 X238.871 Y260.979 E.04906
G1 X81.129 Y260.979 E7.5205
G1 X80.12 Y260.778 E.04906
G1 X79.094 Y260.136 E.05772
G1 X60.106 Y241.148 E1.28023
G1 X59.464 Y240.122 E.05772
G1 X59.263 Y239.113 E.04906
G1 X59.263 Y80.887 E7.54359
G1 X59.464 Y79.878 E.04906
G1 X60.106 Y78.852 E.05772
G1 X69.415 Y69.542 E.62766
; printing object array-back.stl id:0 copy 0
EXCLUDE_OBJECT_START NAME=array-back.stl_id_0_copy_0
G1 E-.4 F4200
G1 X181.176 Y253.224 F48000
G1 E.4 F4200
;TYPE:Inner wall
;WIDTH:0.679999
G1 F7200
G1 X180.98 Y253.123 E.01049
G2 X180.35 Y252.986 I-.69 J1.649 E.03091
G1 X139.65 Y252.986 E1.94044
G2 X138.523 Y253.452 I0 J1.593 E.05964
G1 X138.159 Y253.858 E.02602
G2 X137.886 Y254.75 I1.482 J.941 E.04498
G1 X137.886 Y256.628 E.08955
G1 X81.739 Y256.628 E2.67686
G1 X75.39 Y250.283 E.42791
G1 X75.75 Y250.232 E.01732
G1 X76.553 Y249.998 E.03988
G1 X77.516 Y249.516 E.05132
G1 X78.166 Y249.01 E.03928
G1 X78.818 Y248.309 E.04564
G2 X79.418 Y247.264 I-9.426 J-6.105 E.05749
G1 X79.693 Y246.445 E.04121
G1 X79.835 Y245.408 E.04987
G1 X79.789 Y244.555 E.04076
G1 X79.54 Y243.529 E.0503
G1 X79.187 Y242.761 E.04031
G1 X78.575 Y241.89 E.05075
G1 X77.97 Y241.312 E.03988
G1 X77.072 Y240.719 E.05132
G1 X76.308 Y240.409 E.03928
G1 X75.29 Y240.187 E.04972
G2 X72.727 Y240.585 I-.533 J5.009 E.12502
G1 X71.813 Y241.1 E.05004
G1 X71.163 Y241.65 E.04061
G1 X70.494 Y242.47 E.05045
G1 X70.097 Y243.213 E.04017
G1 X69.845 Y243.933 E.03636
G1 X69.717 Y244.607 E.0327
G1 X63.614 Y238.503 E.41151
G1 X63.613 Y159.359 E3.77329
G1 X64.08 Y159.62 E.02553
G1 X64.882 Y159.908 E.04061
G1 X65.927 Y160.077 E.05045
G2 X66.993 Y160.007 I.273 J-3.997 E.05109
M73 P0 R29
G1 X67.812 Y159.823 E.04003
G1 X68.576 Y159.491 E.03971
G1 X69.444 Y158.919 E.04956
G1 X69.909 Y158.482 E.0304
G1 X70.359 Y157.921 E.03427
G1 X70.864 Y157.018 E.04935
;WIDTH:0.714937
G1 X71.019 Y156.611 E.02189
;WIDTH:0.749875
G1 X71.173 Y156.205 E.02303
G1 X71.226 Y155.684 E.0277
;WIDTH:0.713219
G1 X71.279 Y155.163 E.02627
;WIDTH:0.703256
G1 X71.246 Y154.306 E.04234
G1 X70.986 Y153.284 E.05216
;WIDTH:0.679999
G1 X70.633 Y152.515 E.04032
G1 X69.997 Y151.621 E.05232
G1 X69.307 Y150.98 E.04488
G1 X68.55 Y150.488 E.04305
G2 X63.614 Y150.636 I-2.336 J4.478 E.24599
G1 X63.614 Y81.497 E3.29626
G1 X81.739 Y63.372 E1.22206
G1 X238.261 Y63.372 E7.46233
G1 X256.386 Y81.497 E1.22206
G1 X256.387 Y150.626 E3.29577
G1 X256.118 Y150.473 E.01476
G1 X255.354 Y150.164 E.03928
G1 X254.335 Y149.941 E.04972
G1 X253.7 Y149.914 E.03029
G2 X251.773 Y150.339 I.196 J5.464 E.09462
G1 X250.859 Y150.853 E.05
G1 X250.21 Y151.403 E.04053
G1 X249.54 Y152.225 E.05058
G1 X249.143 Y152.968 E.04017
;WIDTH:0.727493
G1 X248.794 Y153.981 E.0549
G1 X248.724 Y154.812 E.04274
;WIDTH:0.702947
G1 X248.773 Y155.855 E.05154
G1 X248.93 Y156.47 E.03137
;WIDTH:0.679999
G2 X250.778 Y159.086 I4.989 J-1.564 E.15522
G1 X251.68 Y159.62 E.04997
G1 X252.482 Y159.908 E.04061
G2 X253.527 Y160.077 I2.126 J-9.829 E.05048
G1 X254.369 Y160.049 E.04017
G1 X255.412 Y159.823 E.0509
G2 X256.386 Y159.359 I-1.257 J-3.896 E.05158
G1 X256.386 Y238.503 E3.77326
G1 X250.286 Y244.604 E.4113
G1 X250.031 Y243.529 E.05265
G1 X249.678 Y242.761 E.04032
G1 X249.066 Y241.89 E.05075
G1 X248.462 Y241.312 E.03988
G1 X247.563 Y240.719 E.05132
G1 X246.8 Y240.409 E.03928
G1 X245.781 Y240.187 E.04972
G2 X243.219 Y240.585 I-.533 J5.009 E.12503
G1 X242.304 Y241.1 E.05004
G1 X241.654 Y241.65 E.04061
G1 X240.986 Y242.47 E.05045
G1 X240.588 Y243.213 E.04017
G1 X240.263 Y244.23 E.0509
G1 X240.173 Y244.869 E.03074
G2 X240.23 Y246.098 I10.853 J.111 E.05871
G2 X242.224 Y249.332 I4.993 J-.846 E.18567
G1 X243.126 Y249.866 E.04997
G1 X243.928 Y250.154 E.04061
G1 X244.607 Y250.282 E.03298
G1 X238.261 Y256.628 E.42789
G1 X182.114 Y256.628 E2.67685
G1 X182.114 Y254.75 E.08955
G2 X181.648 Y253.623 I-1.593 J0 E.05964
G1 X181.253 Y253.266 E.02539
G1 X181.186 Y253.229 E.00362
G1 X180.871 Y253.797 F48000
G1 F7200
G1 X180.73 Y253.702 E.00811
G1 X180.35 Y253.623 E.01848
G1 X139.65 Y253.623 E1.94044
G1 X139.485 Y253.637 E.0079
G1 X139.108 Y253.791 E.01939
G1 X138.803 Y254.074 E.01984
G1 X138.606 Y254.36 E.01655
G1 X138.523 Y254.75 E.019
G1 X138.523 Y257.265 E.11992
G1 X81.475 Y257.265 E2.71981
G1 X73.791 Y249.586 E.51791
G1 X73.928 Y249.616 E.00668
G1 X74.65 Y249.691 E.03461
G1 X75.591 Y249.615 E.04499
G1 X76.284 Y249.42 E.03435
G1 X77.139 Y249.002 E.04537
G1 X77.705 Y248.569 E.03395
G1 X78.307 Y247.929 E.04193
G2 X78.822 Y247.039 I-11.336 J-7.154 E.04901
G1 X79.064 Y246.343 E.03514
G1 X79.198 Y245.42 E.04447
G1 X79.167 Y244.689 E.03488
G1 X78.953 Y243.776 E.04472
G1 X78.656 Y243.113 E.03461
G1 X78.12 Y242.336 E.04499
G1 X77.604 Y241.834 E.03435
G1 X76.815 Y241.302 E.04537
G1 X76.157 Y241.028 E.03395
G1 X75.25 Y240.822 E.04437
G2 X73.026 Y241.148 I-.494 J4.388 E.10834
G1 X72.207 Y241.6 E.04458
G1 X71.646 Y242.065 E.03479
G1 X71.046 Y242.789 E.04481
G1 X70.698 Y243.424 E.03452
M73 P1 R29
G1 X70.402 Y244.322 E.04508
G1 X70.314 Y245.035 E.03426
G1 X70.341 Y245.799 E.03643
G1 X70.413 Y246.205 E.01967
G1 X62.977 Y238.767 E.50145
G1 X62.969 Y158.052 E3.84817
G2 X63.516 Y158.546 I3.343 J-3.15 E.0352
G1 X64.316 Y159.029 E.04452
G1 X65 Y159.282 E.03479
G1 X65.927 Y159.44 E.04481
G2 X66.875 Y159.381 I.273 J-3.262 E.04545
G1 X67.576 Y159.231 E.03421
G1 X68.238 Y158.951 E.03425
G1 X69.017 Y158.446 E.04427
G2 X69.81 Y157.598 I-2.683 J-3.303 E.05553
G1 X70.268 Y156.793 E.04413
G1 X70.51 Y156.097 E.03513
G1 X70.644 Y155.174 E.04447
G1 X70.612 Y154.443 E.03488
G1 X70.398 Y153.53 E.04472
G1 X70.102 Y152.867 E.03461
G1 X69.552 Y152.077 E.04593
G1 X68.947 Y151.506 E.03961
G1 X68.28 Y151.065 E.03814
G2 X64.472 Y150.902 I-2.079 J4.007 E.18761
G1 X63.652 Y151.355 E.04468
G2 X62.97 Y151.955 I1.975 J2.93 E.04342
G1 X62.977 Y81.233 E3.37174
G1 X81.475 Y62.735 E1.24722
G1 X238.525 Y62.735 E7.48749
G1 X257.023 Y81.233 E1.24722
G1 X257.031 Y151.952 E3.37159
G1 X256.65 Y151.588 E.02511
G1 X255.861 Y151.056 E.04539
G1 X255.203 Y150.783 E.03395
G1 X254.295 Y150.577 E.04437
G2 X252.072 Y150.902 I-.494 J4.388 E.10834
G1 X251.254 Y151.354 E.04456
G1 X250.693 Y151.818 E.0347
G1 X250.091 Y152.543 E.04493
G1 X249.744 Y153.178 E.03452
G1 X249.448 Y154.076 E.04508
G1 X249.36 Y154.789 E.03426
G1 X249.408 Y155.719 E.04437
G2 X251.116 Y158.546 I4.376 J-.714 E.1614
G1 X251.916 Y159.029 E.04451
G1 X252.6 Y159.282 E.03479
G1 X253.527 Y159.44 E.04481
G1 X254.251 Y159.423 E.03452
G1 X255.176 Y159.231 E.04508
G1 X255.838 Y158.951 E.03426
G1 X256.623 Y158.44 E.04463
G1 X257.029 Y158.054 E.02673
G1 X257.023 Y238.767 E3.84808
G1 X249.576 Y246.215 E.50213
G1 X249.689 Y245.42 E.03829
G1 X249.658 Y244.689 E.03488
G1 X249.444 Y243.776 E.04472
G1 X249.148 Y243.113 E.03461
G1 X248.612 Y242.336 E.04499
G1 X248.096 Y241.834 E.03435
G1 X247.306 Y241.302 E.04537
G1 X246.649 Y241.028 E.03395
G1 X245.741 Y240.822 E.04437
G2 X243.518 Y241.148 I-.494 J4.388 E.10834
G1 X242.699 Y241.6 E.04458
G1 X242.137 Y242.065 E.03479
G1 X241.537 Y242.789 E.04481
G1 X241.19 Y243.424 E.03452
G1 X240.894 Y244.322 E.04508
G2 X240.819 Y245.421 I3.531 J.791 E.0527
G2 X240.977 Y246.506 I3.405 J.059 E.05252
G2 X242.562 Y248.792 I4.383 J-1.346 E.13475
G1 X243.361 Y249.274 E.04451
G1 X244.046 Y249.528 E.03479
G1 X244.972 Y249.686 E.04481
G1 X245.696 Y249.669 E.03452
G1 X246.22 Y249.57 E.02542
G1 X238.525 Y257.265 E.51884
G1 X181.477 Y257.265 E2.7198
G1 X181.477 Y254.75 E.11992
G1 X181.45 Y254.525 E.0108
G1 X181.313 Y254.215 E.01615
G1 X181.026 Y253.903 E.02023
G1 X180.881 Y253.804 E.00839
G1 X180.531 Y254.316 F48000
;TYPE:Outer wall
G1 F7200
G1 X180.35 Y254.26 E.00901
G1 X139.65 Y254.26 E1.94044
G1 X139.523 Y254.286 E.00616
G1 X139.215 Y254.571 E.02003
G1 X139.16 Y254.75 E.00889
G1 X139.16 Y257.902 E.1503
G1 X81.222 Y257.902 E2.76227
G1 X73.315 Y250.011 E.53257
;WIDTH:0.684923
G1 X72.679 Y249.371 E.04335
;WIDTH:0.706987
G2 X71.75 Y248.48 I-9.413 J8.879 E.06401
;WIDTH:0.684154
G1 X71.229 Y247.939 E.03604
;WIDTH:0.71056
G2 X70.485 Y247.178 I-6.118 J5.235 E.05319
;WIDTH:0.679999
G1 X62.34 Y239.025 E.54944
G1 X62.339 Y158.617 E3.83357
G2 X62.24 Y156.628 I-19.962 J-.004 E.09498
;WIDTH:0.718104
G1 X62.259 Y156.101 E.02662
;WIDTH:0.760003
G1 X62.28 Y156.015 E.00477
;WIDTH:0.801902
G1 X62.301 Y155.929 E.00504
;WIDTH:0.8438
G1 X62.322 Y155.843 E.00532
;WIDTH:0.885699
G1 X62.343 Y155.756 E.0056
;WIDTH:0.927598
G1 X62.364 Y155.67 E.00588
;WIDTH:0.969496
G1 X62.385 Y155.584 E.00616
G1 X62.423 Y155.659 E.00587
;WIDTH:0.927598
G1 X62.461 Y155.735 E.0056
;WIDTH:0.885699
G1 X62.499 Y155.81 E.00534
;WIDTH:0.8438
G1 X62.538 Y155.886 E.00507
;WIDTH:0.801902
G1 X62.576 Y155.961 E.00481
;WIDTH:0.760003
G1 X62.614 Y156.037 E.00454
;WIDTH:0.718104
G1 X62.826 Y156.544 E.02776
;WIDTH:0.679999
G1 X63.141 Y157.23 E.036
G1 X63.45 Y157.636 E.02433
G1 X63.854 Y158.006 E.02613
G1 X64.551 Y158.437 E.03906
G1 X65.118 Y158.656 E.02897
G1 X65.927 Y158.803 E.03918
G1 X66.473 Y158.803 E.02607
G2 X67.341 Y158.639 I-2.383 J-14.978 E.04208
G1 X67.9 Y158.411 E.02879
G1 X68.546 Y158.006 E.03633
G2 X69.261 Y157.274 I-2.242 J-2.906 E.04898
G1 X69.672 Y156.569 E.03892
G1 X69.881 Y155.996 E.02907
G1 X70.007 Y155.186 E.03907
G1 X69.99 Y154.578 E.029
G1 X69.811 Y153.777 E.03915
G1 X69.571 Y153.22 E.02891
G1 X69.107 Y152.532 E.03955
G1 X68.588 Y152.032 E.03435
G1 X68.055 Y151.668 E.03078
G2 X64.77 Y151.465 I-1.861 J3.431 E.16195
G1 X64.047 Y151.854 E.03916
G2 X63.266 Y152.579 I1.865 J2.792 E.05103
G1 X62.999 Y153.018 E.02451
G1 X62.705 Y153.746 E.0374
;WIDTH:0.724823
G1 X62.661 Y153.825 E.00461
;WIDTH:0.769647
G1 X62.617 Y153.903 E.00491
;WIDTH:0.814471
G1 X62.573 Y153.982 E.00521
;WIDTH:0.859295
G1 X62.529 Y154.061 E.00552
;WIDTH:0.904119
G1 X62.485 Y154.14 E.00582
;WIDTH:0.948942
G1 X62.441 Y154.219 E.00612
;WIDTH:0.993766
G1 X62.397 Y154.298 E.00642
G1 X62.374 Y154.21 E.00643
;WIDTH:0.947889
G1 X62.352 Y154.122 E.00615
;WIDTH:0.903241
G1 X62.329 Y154.034 E.00584
;WIDTH:0.858593
G1 X62.307 Y153.946 E.00554
;WIDTH:0.813944
G1 X62.285 Y153.858 E.00524
;WIDTH:0.769296
G1 X62.262 Y153.77 E.00493
;WIDTH:0.724648
G1 X62.24 Y153.682 E.00463
;WIDTH:0.679999
G3 X62.298 Y152.784 I3.904 J-.2 E.04299
G2 X62.34 Y151.268 I-14.665 J-1.168 E.07234
G1 X62.34 Y80.979 E3.3511
G1 X81.217 Y62.098 E1.2729
G1 X238.779 Y62.098 E7.51193
G1 X257.66 Y80.975 E1.2729
G1 X257.661 Y151.598 E3.36705
G2 X257.76 Y153.3 I16.486 J-.102 E.0813
G1 X257.76 Y153.817 E.02464
;WIDTH:0.725508
G1 X257.737 Y153.941 E.00643
;WIDTH:0.771016
G1 X257.714 Y154.064 E.00686
;WIDTH:0.816525
G1 X257.692 Y154.188 E.00729
;WIDTH:0.862033
G1 X257.669 Y154.312 E.00772
;WIDTH:0.907542
G1 X257.646 Y154.436 E.00815
;WIDTH:0.95305
G1 X257.623 Y154.56 E.00858
G1 X257.545 Y154.37 E.01398
;WIDTH:0.907542
G1 X257.467 Y154.181 E.01328
;WIDTH:0.862033
G1 X257.389 Y153.991 E.01258
;WIDTH:0.816525
G1 X257.311 Y153.801 E.01188
;WIDTH:0.771016
G1 X257.232 Y153.611 E.01118
;WIDTH:0.725508
G1 X257.154 Y153.422 E.01048
;WIDTH:0.679999
G1 X256.951 Y152.922 E.0257
G1 X256.671 Y152.501 E.02416
G1 X256.284 Y152.11 E.02621
G1 X255.604 Y151.639 E.03943
G1 X255.052 Y151.402 E.02863
G1 X254.311 Y151.221 E.03636
G2 X252.37 Y151.465 I-.517 J3.729 E.09434
G1 X251.648 Y151.854 E.03911
G1 X251.176 Y152.233 E.02887
G1 X250.643 Y152.862 E.03929
G1 X250.345 Y153.389 E.02888
G1 X250.078 Y154.168 E.03926
G1 X249.996 Y154.767 E.0288
G1 X250.024 Y155.53 E.03643
G2 X251.454 Y158.006 I3.757 J-.519 E.1398
G1 X252.151 Y158.437 E.03906
G1 X252.718 Y158.656 E.02897
G1 X253.527 Y158.803 E.03918
G1 X254.132 Y158.797 E.02888
G1 X254.941 Y158.639 E.03926
G1 X255.5 Y158.411 E.0288
G1 X256.146 Y158.006 E.03634
G2 X256.962 Y157.005 I-1.703 J-2.222 E.06215
G1 X257.183 Y156.523 E.02527
G1 X257.232 Y156.311 E.01035
;WIDTH:0.634896
G1 X257.28 Y156.1 E.00962
;WIDTH:0.589792
G3 X257.362 Y155.826 I.554 J.016 E.01182
;WIDTH:0.634895
G1 X257.395 Y155.764 E.00311
;WIDTH:0.679998
G1 X257.428 Y155.702 E.00335
;WIDTH:0.725102
G1 X257.46 Y155.64 E.00358
;WIDTH:0.770205
G1 X257.493 Y155.578 E.00382
;WIDTH:0.815308
G1 X257.526 Y155.516 E.00406
;WIDTH:0.860412
G1 X257.559 Y155.454 E.00429
;WIDTH:0.905515
G1 X257.592 Y155.392 E.00453
;WIDTH:0.950618
G1 X257.625 Y155.33 E.00477
G1 X257.647 Y155.397 E.00477
;WIDTH:0.905515
G1 X257.67 Y155.463 E.00453
;WIDTH:0.860412
G1 X257.692 Y155.529 E.00429
;WIDTH:0.815308
G1 X257.715 Y155.596 E.00406
;WIDTH:0.770205
G1 X257.737 Y155.662 E.00382
;WIDTH:0.725102
G1 X257.76 Y155.729 E.00358
;WIDTH:0.679998
G1 X257.783 Y155.795 E.00335
;WIDTH:0.634895
G1 X257.805 Y155.862 E.00311
;WIDTH:0.589792
G1 X257.828 Y155.928 E.00287
;WIDTH:0.571691
G1 X257.814 Y156.101 E.00688
;WIDTH:0.607794
G1 X257.796 Y156.313 E.00896
;WIDTH:0.643897
G1 X257.778 Y156.524 E.00953
;WIDTH:0.679999
G2 X257.66 Y158.749 I13.868 J1.851 E.10636
G1 X257.66 Y239.021 E3.82701
G1 X249.823 Y246.869 E.52879
;WIDTH:0.68378
G1 X249.441 Y247.249 E.02586
;WIDTH:0.717195
G2 X248.718 Y248.002 I4.549 J5.096 E.05271
;WIDTH:0.682027
G1 X248.352 Y248.373 E.02492
;WIDTH:0.706222
G2 X247.173 Y249.519 I15.285 J16.906 E.08164
;WIDTH:0.679999
G1 X238.783 Y257.902 E.56544
G1 X180.84 Y257.902 E2.76251
G1 X180.84 Y254.75 E.1503
G1 X180.812 Y254.62 E.00633
G1 X180.539 Y254.325 E.01917
G1 X180.531 Y254.278
G1 E-.4 F4200
G1 X257.623 Y154.56 F48000
G1 E.4 F4200
;WIDTH:0.95305
G1 F7200
G1 X257.633 Y155.176 E.04193
;WIDTH:0.950618
G1 X257.625 Y155.33 E.01051
G1 E-.4 F4200
G1 X247.695 Y212.208 F48000
G1 E.4 F4200
;TYPE:Inner wall
;WIDTH:0.679999
G1 F7200
G1 X247.522 Y212.432 E.01354
G1 X212.432 Y247.522 E2.36588
G1 X212.11 Y247.771 E.01944
G1 X211.478 Y248.034 E.0326
G1 X211.063 Y248.089 E.01996
G1 X108.937 Y248.089 E4.86899
G1 X108.522 Y248.034 E.01996
G1 X107.89 Y247.771 E.0326
G1 X107.568 Y247.522 E.01944
M73 P2 R29
G1 X72.478 Y212.432 E2.36588
G1 X72.229 Y212.11 E.01944
G1 X71.966 Y211.478 E.0326
G1 X71.911 Y211.063 E.01996
G1 X71.911 Y157.209 E2.56756
;WIDTH:0.706627
G1 X71.898 Y156.663 E.02713
;WIDTH:0.749875
G3 X71.891 Y155.879 I4.16 J-.425 E.04151
;WIDTH:0.719275
G1 X71.907 Y155.498 E.01932
;WIDTH:0.688674
G1 X71.91 Y154.61 E.04291
;WIDTH:0.681595
G1 X71.911 Y153.474 E.0543
;WIDTH:0.679999
G1 X71.911 Y108.937 E2.12336
G1 X71.966 Y108.522 E.01996
G1 X72.229 Y107.89 E.0326
G1 X72.478 Y107.568 E.01944
G1 X107.568 Y72.478 E2.36588
