; HEADER_BLOCK_START
; generated by OrcaSlicer 1.6.3 on 2023-12-07 at 15:43:48
; total layer number: 27
; HEADER_BLOCK_END

; THUMBNAIL_BLOCK_START
; THUMBNAIL_BLOCK_END

; external perimeters extrusion width = 0.62mm
; perimeters extrusion width = 0.62mm
; infill extrusion width = 0.65mm
; solid infill extrusion width = 0.65mm
; top infill extrusion width = 0.65mm
; first layer extrusion width = 0.68mm

; EXECUTABLE_BLOCK_START
EXCLUDE_OBJECT_DEFINE NAME=array-front.stl_id_0_copy_0 CENTER=160,160 POLYGON=[[60,82.4],[60.1531,81.6304],[61.2611,78.9553],[61.6971,78.3029],[78.3029,61.6971],[78.9553,61.2611],[81.6304,60.1531],[82.4,60],[237.6,60],[238.37,60.1531],[241.045,61.2611],[241.697,61.6971],[258.303,78.3029],[258.739,78.9553],[259.847,81.6304],[260,82.4],[260,237.6],[259.847,238.37],[258.739,241.045],[258.303,241.697],[241.697,258.303],[241.045,258.739],[238.37,259.847],[237.6,260],[82.4,260],[81.6304,259.847],[78.9553,258.739],[78.3029,258.303],[61.6971,241.697],[61.2611,241.045],[60.1531,238.37],[60,237.6],[60,82.4]]
M73 P0 R32
;TYPE:Custom
M104 S0
M140 S0
START_PRINT BED=75 HOTEND=215
G90
G21
M83 ; use relative distances for extrusion
; filament start gcode
SET_PRESSURE_ADVANCE ADVANCE=0.032; Override pressure advance value
M106 S0
;LAYER_CHANGE
;Z:0.2
;HEIGHT:0.2
;BEFORE_LAYER_CHANGE
;0.2
G92 E0

;DSLR_SNAPSHOT
TIMELAPSE_TAKE_FRAME
M204 S5000
G1 E-.4 F4200
G1 X69.479 Y69.479 F48000
G1 Z.2
G1 E.4 F4200
;TYPE:Skirt
;WIDTH:0.68
G1 F7200
G1 X79.094 Y59.864 E.64828
G1 X80.12 Y59.222 E.05772
G1 X81.129 Y59.021 E.04906
G1 X238.871 Y59.021 E7.5205
G1 X239.88 Y59.222 E.04906
G1 X240.906 Y59.864 E.05772
G1 X259.894 Y78.852 E1.28023
G1 X260.536 Y79.878 E.05772
G1 X260.737 Y80.887 E.04906
G1 X260.737 Y239.113 E7.54359
G1 X260.536 Y240.122 E.04906
G1 X259.894 Y241.148 E.05772
G1 X240.906 Y260.136 E1.28023
G1 X239.88 Y260.778 E.05772
G1 X238.871 Y260.979 E.04906
G1 X81.129 Y260.979 E7.5205
G1 X80.12 Y260.778 E.04906
G1 X79.094 Y260.136 E.05772
G1 X60.106 Y241.148 E1.28023
G1 X59.464 Y240.122 E.05772
G1 X59.263 Y239.113 E.04906
G1 X59.263 Y80.887 E7.54359
M73 P0 R31
G1 X59.464 Y79.878 E.04906
G1 X60.106 Y78.852 E.05772
G1 X69.415 Y69.542 E.62766
; printing object array-front.stl id:0 copy 0
EXCLUDE_OBJECT_START NAME=array-front.stl_id_0_copy_0
G1 E-.4 F4200
G1 X181.878 Y66.076 F48000
G1 E.4 F4200
;TYPE:Inner wall
;WIDTH:0.679999
G1 F7200
G1 X181.971 Y65.898 E.00956
G2 X182.114 Y65.25 I-1.611 J-.697 E.03181
G1 X182.114 Y63.372 E.08955
G1 X238.261 Y63.372 E2.67686
G1 X244.602 Y69.709 E.42738
G2 X243.891 Y69.851 I.507 J4.391 E.03459
G1 X243.219 Y70.093 E.03408
G1 X242.304 Y70.608 E.05004
G1 X241.654 Y71.159 E.04061
G1 X241.157 Y71.737 E.03636
G2 X240.588 Y72.722 I4.612 J3.32 E.05431
G1 X240.263 Y73.739 E.05089
G1 X240.169 Y74.567 E.03973
G1 X240.23 Y75.607 E.04967
G2 X242.224 Y78.841 I4.993 J-.846 E.18567
G1 X243.126 Y79.375 E.04997
G1 X243.928 Y79.662 E.04061
G1 X244.972 Y79.831 E.05046
G1 X245.814 Y79.804 E.04016
G1 X246.858 Y79.577 E.05091
G2 X247.875 Y79.086 I-1.281 J-3.957 E.05402
G1 X248.49 Y78.673 E.03531
G1 X248.955 Y78.237 E.03041
G1 X249.404 Y77.676 E.03427
G1 X249.91 Y76.772 E.04935
G1 X250.185 Y75.953 E.0412
G1 X250.276 Y75.386 E.0274
G1 X256.386 Y81.497 E.41198
G1 X256.387 Y160.626 E3.77253
G1 X256.118 Y160.473 E.01475
G1 X255.354 Y160.164 E.03928
G1 X254.335 Y159.941 E.04972
G1 X253.7 Y159.914 E.0303
G2 X251.773 Y160.339 I.196 J5.465 E.09461
G1 X250.858 Y160.854 E.05004
G1 X250.208 Y161.404 E.04061
G1 X249.54 Y162.225 E.05046
G1 X249.143 Y162.968 E.04016
;WIDTH:0.727459
G1 X248.794 Y163.981 E.05491
G1 X248.724 Y164.812 E.04273
;WIDTH:0.702921
G1 X248.773 Y165.855 E.05155
G1 X248.93 Y166.47 E.03137
;WIDTH:0.679999
G2 X250.778 Y169.087 I4.99 J-1.564 E.15522
G1 X251.68 Y169.621 E.04998
G1 X252.482 Y169.908 E.04061
G2 X253.527 Y170.077 I2.126 J-9.83 E.05048
G1 X254.369 Y170.05 E.04016
G1 X255.412 Y169.823 E.05091
G2 X256.386 Y169.359 I-1.258 J-3.897 E.05157
G1 X256.386 Y238.503 E3.29649
G1 X238.261 Y256.628 E1.22206
G1 X81.739 Y256.628 E7.46233
G1 X63.614 Y238.503 E1.22206
G1 X63.613 Y169.359 E3.29652
G1 X64.08 Y169.621 E.02554
G1 X64.882 Y169.908 E.04061
G1 X65.927 Y170.077 E.05045
G2 X66.993 Y170.007 I.274 J-3.995 E.05109
G1 X67.812 Y169.823 E.04004
G1 X68.576 Y169.491 E.03971
G1 X69.445 Y168.918 E.04961
G1 X69.909 Y168.482 E.03037
G1 X70.359 Y167.922 E.03427
G1 X70.864 Y167.018 E.04935
;WIDTH:0.71491
G1 X71.019 Y166.612 E.02189
;WIDTH:0.749821
G1 X71.174 Y166.205 E.02303
G1 X71.226 Y165.684 E.0277
;WIDTH:0.713165
G1 X71.279 Y165.163 E.02627
;WIDTH:0.703196
G1 X71.246 Y164.307 E.04233
G1 X70.986 Y163.284 E.05216
;WIDTH:0.679999
G1 X70.633 Y162.515 E.04031
G1 X70.021 Y161.644 E.05076
G1 X69.416 Y161.066 E.03987
G1 X68.518 Y160.473 E.05132
G1 X67.754 Y160.164 E.03928
G1 X66.735 Y159.941 E.04972
G2 X63.614 Y160.636 I-.5 J5.109 E.15503
G1 X63.614 Y81.497 E3.77303
G1 X69.713 Y75.397 E.41125
G2 X72.125 Y79.087 I4.937 J-.594 E.21774
G1 X72.634 Y79.375 E.02791
G1 X73.436 Y79.662 E.04061
G1 X74.481 Y79.831 E.05046
G1 X75.323 Y79.804 E.04016
G1 X76.366 Y79.577 E.0509
G1 X77.13 Y79.245 E.03971
G1 X77.998 Y78.673 E.04957
G1 X78.463 Y78.237 E.0304
G1 X78.913 Y77.676 E.03428
G1 X79.419 Y76.772 E.04935
G1 X79.693 Y75.953 E.04119
G1 X79.835 Y74.917 E.04988
G1 X79.789 Y74.063 E.04076
G1 X79.54 Y73.038 E.05031
G1 X79.187 Y72.269 E.04032
G1 X78.575 Y71.399 E.05074
G1 X77.97 Y70.821 E.03988
G1 X77.072 Y70.228 E.05132
G1 X76.308 Y69.918 E.03928
G1 X75.399 Y69.712 E.04447
G1 X81.739 Y63.372 E.42746
G1 X137.886 Y63.372 E2.67685
G1 X137.886 Y65.25 E.08955
G2 X138.352 Y66.377 I1.593 J0 E.05964
G1 X138.747 Y66.734 E.02539
G2 X139.65 Y67.014 I.963 J-1.506 E.0456
G1 X180.35 Y67.014 E1.94044
G2 X181.477 Y66.548 I0 J-1.593 E.05964
G1 X181.841 Y66.142 E.02602
G1 X181.872 Y66.086 E.00303
G1 X181.305 Y65.77 F48000
G1 F7200
G1 X181.394 Y65.64 E.0075
G1 X181.477 Y65.25 E.019
G1 X181.477 Y62.735 E.11992
G1 X238.525 Y62.735 E2.71981
G1 X246.206 Y70.412 E.51776
G2 X243.517 Y70.656 I-.95 J4.457 E.13069
G1 X242.699 Y71.108 E.04458
G1 X242.137 Y71.574 E.03479
G1 X241.64 Y72.152 E.03636
G2 X241.19 Y72.933 I4.803 J3.293 E.043
G1 X240.894 Y73.831 E.04507
G1 X240.805 Y74.544 E.03426
G1 X240.853 Y75.473 E.04437
G2 X242.562 Y78.301 I4.376 J-.714 E.1614
G1 X243.361 Y78.783 E.04452
G1 X244.046 Y79.036 E.03479
G1 X244.972 Y79.194 E.04482
G1 X245.696 Y79.178 E.03452
G1 X246.622 Y78.985 E.04508
G2 X247.537 Y78.546 I-1.02 J-3.3 E.04856
G1 X248.063 Y78.2 E.03001
G2 X248.856 Y77.352 I-2.682 J-3.303 E.05553
G1 X249.314 Y76.548 E.04414
G1 X249.556 Y75.852 E.03513
G1 X249.689 Y74.929 E.04447
G1 X249.679 Y74.382 E.02606
G1 X249.567 Y73.775 E.02945
G1 X257.023 Y81.233 E.5028
G1 X257.031 Y161.952 E3.84837
G1 X256.65 Y161.588 E.02513
G1 X255.861 Y161.056 E.04539
G1 X255.203 Y160.783 E.03395
G1 X254.296 Y160.577 E.04437
G2 X252.072 Y160.902 I-.494 J4.388 E.10834
G1 X251.253 Y161.354 E.04458
G1 X250.692 Y161.82 E.03479
G1 X250.091 Y162.543 E.04482
G1 X249.744 Y163.178 E.03452
G1 X249.448 Y164.077 E.04508
G1 X249.36 Y164.79 E.03425
G1 X249.408 Y165.719 E.04437
G2 X251.116 Y168.547 I4.376 J-.714 E.1614
G1 X251.916 Y169.029 E.04452
G1 X252.6 Y169.282 E.03479
G1 X253.527 Y169.44 E.04482
G1 X254.251 Y169.424 E.03452
G1 X255.176 Y169.231 E.04509
G1 X255.838 Y168.951 E.03425
G1 X256.623 Y168.44 E.04463
G1 X257.03 Y168.054 E.02677
G1 X257.023 Y238.767 E3.37133
M73 P1 R31
G1 X238.525 Y257.265 E1.24722
G1 X81.475 Y257.265 E7.48749
G1 X62.977 Y238.767 E1.24722
G1 X62.969 Y168.052 E3.37139
G2 X63.516 Y168.546 I3.202 J-2.995 E.03518
G1 X64.316 Y169.029 E.04452
G1 X65 Y169.282 E.03479
G1 X65.927 Y169.44 E.04481
G2 X66.875 Y169.381 I.274 J-3.261 E.04545
G1 X67.576 Y169.231 E.03421
G1 X68.238 Y168.951 E.03424
G1 X69.018 Y168.446 E.0443
G2 X69.81 Y167.598 I-2.685 J-3.304 E.05549
G1 X70.268 Y166.794 E.04413
G1 X70.51 Y166.098 E.03513
G1 X70.644 Y165.174 E.04447
G1 X70.612 Y164.444 E.03487
G1 X70.398 Y163.53 E.04473
G1 X70.102 Y162.867 E.03461
G1 X69.566 Y162.091 E.045
G1 X69.05 Y161.588 E.03435
G1 X68.261 Y161.056 E.04537
G1 X67.603 Y160.783 E.03395
G1 X66.696 Y160.577 E.04438
G2 X64.472 Y160.902 I-.494 J4.387 E.10834
G1 X63.652 Y161.355 E.04468
G2 X62.97 Y161.955 I1.974 J2.929 E.04338
G1 X62.977 Y81.233 E3.84848
G1 X70.41 Y73.798 E.50123
G1 X70.314 Y74.544 E.03584
G1 X70.362 Y75.473 E.04436
G2 X72.07 Y78.301 I4.375 J-.713 E.16141
G1 X72.87 Y78.783 E.04452
G1 X73.554 Y79.036 E.03479
G1 X74.481 Y79.194 E.04482
G1 X75.205 Y79.178 E.03452
G1 X76.131 Y78.985 E.04508
G1 X76.792 Y78.705 E.03425
G1 X77.571 Y78.2 E.04427
G2 X78.364 Y77.352 I-2.683 J-3.303 E.05553
G1 X78.822 Y76.548 E.04414
G1 X79.064 Y75.852 E.03513
G1 X79.198 Y74.929 E.04447
G1 X79.167 Y74.198 E.03487
G1 X78.953 Y73.284 E.04472
G1 X78.656 Y72.622 E.03461
G1 X78.12 Y71.845 E.04498
G1 X77.604 Y71.342 E.03435
G1 X76.815 Y70.811 E.04537
G1 X76.157 Y70.537 E.03395
G1 X75.417 Y70.356 E.03636
G2 X73.799 Y70.411 I-.651 J4.738 E.07754
G1 X81.475 Y62.735 E.51755
G1 X138.523 Y62.735 E2.71981
G1 X138.523 Y65.25 E.11992
G1 X138.55 Y65.475 E.0108
G1 X138.687 Y65.785 E.01615
G1 X138.974 Y66.097 E.02023
G1 X139.27 Y66.298 E.01707
G1 X139.65 Y66.377 E.01848
G1 X180.35 Y66.377 E1.94044
G1 X180.515 Y66.363 E.0079
G1 X180.892 Y66.209 E.01938
G1 X181.197 Y65.926 E.01984
G1 X181.298 Y65.78 E.00848
G1 X180.785 Y65.429 F48000
;TYPE:Outer wall
G1 F7200
G1 X180.84 Y65.25 E.00889
G1 X180.84 Y62.098 E.15029
G1 X238.778 Y62.098 E2.76227
G1 X247.211 Y70.514 E.568
;WIDTH:0.693385
G2 X248.307 Y71.573 I20.615 J-20.266 E.07421
;WIDTH:0.693697
G2 X249.285 Y72.593 I25.055 J-23.041 E.06881
;WIDTH:0.680664
G1 X249.672 Y72.979 E.0261
;WIDTH:0.679999
G1 X257.66 Y80.975 E.53884
G1 X257.661 Y161.598 E3.84382
G2 X257.76 Y163.284 I15.681 J-.074 E.08053
G1 X257.76 Y163.817 E.02541
;WIDTH:0.725495
G1 X257.737 Y163.941 E.00644
;WIDTH:0.77099
G1 X257.715 Y164.065 E.00686
;WIDTH:0.816485
G1 X257.692 Y164.188 E.00729
;WIDTH:0.86198
G1 X257.669 Y164.312 E.00772
;WIDTH:0.907475
G1 X257.646 Y164.436 E.00815
;WIDTH:0.95297
G1 X257.624 Y164.56 E.00858
G1 X257.544 Y164.368 E.01416
;WIDTH:0.907475
G1 X257.465 Y164.176 E.01345
;WIDTH:0.86198
G1 X257.386 Y163.984 E.01274
;WIDTH:0.816485
G1 X257.306 Y163.791 E.01204
;WIDTH:0.77099
G1 X257.227 Y163.599 E.01133
;WIDTH:0.725495
G1 X257.148 Y163.407 E.01062
;WIDTH:0.679999
G1 X256.951 Y162.921 E.02498
G1 X256.671 Y162.501 E.02411
G1 X256.284 Y162.11 E.02621
G1 X255.604 Y161.639 E.03944
G1 X255.052 Y161.402 E.02862
G1 X254.311 Y161.221 E.03636
G2 X252.37 Y161.465 I-.517 J3.729 E.09434
G1 X251.648 Y161.854 E.03913
G1 X251.175 Y162.235 E.02897
G1 X250.643 Y162.862 E.03918
G1 X250.345 Y163.389 E.02888
G1 X250.078 Y164.168 E.03927
G1 X249.996 Y164.767 E.02879
G1 X250.024 Y165.53 E.03643
G2 X251.454 Y168.007 I3.757 J-.519 E.1398
G1 X252.151 Y168.437 E.03906
G1 X252.718 Y168.656 E.02897
G1 X253.527 Y168.803 E.03918
G1 X254.132 Y168.798 E.02888
G1 X254.941 Y168.639 E.03927
G1 X255.5 Y168.411 E.02879
G1 X256.146 Y168.006 E.03634
G2 X256.969 Y166.991 I-1.7 J-2.219 E.06288
G1 X257.183 Y166.523 E.02455
G1 X257.232 Y166.312 E.01034
;WIDTH:0.634895
G1 X257.28 Y166.1 E.00961
;WIDTH:0.589791
G3 X257.362 Y165.827 I.553 J.016 E.01181
;WIDTH:0.634895
G1 X257.395 Y165.765 E.00311
;WIDTH:0.679998
G1 X257.428 Y165.703 E.00335
;WIDTH:0.725102
G1 X257.46 Y165.641 E.00358
;WIDTH:0.770206
G1 X257.493 Y165.579 E.00382
;WIDTH:0.815309
G1 X257.526 Y165.517 E.00406
;WIDTH:0.860413
G1 X257.559 Y165.455 E.00429
;WIDTH:0.905517
G1 X257.592 Y165.393 E.00453
;WIDTH:0.95062
G1 X257.625 Y165.331 E.00477
G1 X257.647 Y165.397 E.00477
;WIDTH:0.905517
G1 X257.67 Y165.464 E.00453
;WIDTH:0.860413
G1 X257.692 Y165.53 E.00429
;WIDTH:0.815309
G1 X257.715 Y165.597 E.00406
;WIDTH:0.770206
G1 X257.737 Y165.663 E.00382
;WIDTH:0.725102
G1 X257.76 Y165.729 E.00358
;WIDTH:0.679998
G1 X257.783 Y165.796 E.00335
;WIDTH:0.634895
G1 X257.805 Y165.862 E.00311
;WIDTH:0.589791
G1 X257.828 Y165.929 E.00287
;WIDTH:0.571659
G1 X257.814 Y166.102 E.00686
;WIDTH:0.607773
G1 X257.796 Y166.307 E.00872
;WIDTH:0.643886
G1 X257.778 Y166.513 E.00928
;WIDTH:0.679999
G2 X257.66 Y168.732 I14.029 J1.859 E.10605
G1 X257.66 Y239.021 E3.35109
G1 X238.783 Y257.902 E1.2729
G1 X81.222 Y257.902 E7.51192
G1 X62.34 Y239.025 E1.2729
G1 X62.339 Y168.617 E3.3568
G2 X62.24 Y166.628 I-20.035 J-.002 E.09498
;WIDTH:0.718086
G1 X62.259 Y166.102 E.02661
;WIDTH:0.759975
G1 X62.28 Y166.015 E.00477
;WIDTH:0.801864
G1 X62.301 Y165.929 E.00504
;WIDTH:0.843753
G1 X62.322 Y165.843 E.00532
;WIDTH:0.885642
G1 X62.343 Y165.756 E.0056
;WIDTH:0.927531
G1 X62.364 Y165.67 E.00588
;WIDTH:0.96942
G1 X62.385 Y165.584 E.00616
G1 X62.423 Y165.659 E.00587
;WIDTH:0.927531
G1 X62.461 Y165.735 E.0056
;WIDTH:0.885642
G1 X62.499 Y165.81 E.00534
;WIDTH:0.843753
G1 X62.537 Y165.886 E.00507
;WIDTH:0.801864
G1 X62.576 Y165.961 E.00481
;WIDTH:0.759975
G1 X62.614 Y166.037 E.00454
;WIDTH:0.718086
G1 X62.826 Y166.544 E.02776
;WIDTH:0.679999
G1 X63.141 Y167.23 E.036
G1 X63.45 Y167.637 E.02433
G1 X63.854 Y168.006 E.02613
G1 X64.551 Y168.437 E.03906
G1 X65.118 Y168.656 E.02897
G1 X65.927 Y168.803 E.03918
G1 X66.473 Y168.803 E.02606
G2 X67.341 Y168.639 I-2.382 J-14.976 E.04209
G1 X67.9 Y168.411 E.02879
G1 X68.546 Y168.006 E.03636
G2 X69.261 Y167.274 I-2.244 J-2.907 E.04895
G1 X69.672 Y166.569 E.03892
G1 X69.881 Y165.996 E.02907
G1 X70.007 Y165.186 E.03908
G1 X69.99 Y164.578 E.029
G1 X69.811 Y163.777 E.03915
G1 X69.571 Y163.22 E.02891
G1 X69.111 Y162.537 E.03924
G1 X68.684 Y162.109 E.02882
G1 X68.004 Y161.639 E.03943
G1 X67.452 Y161.402 E.02862
G1 X66.711 Y161.221 E.03636
G2 X64.77 Y161.465 I-.517 J3.729 E.09434
G1 X64.047 Y161.854 E.03916
G2 X63.261 Y162.587 I1.855 J2.779 E.05148
G1 X62.999 Y163.019 E.02406
G1 X62.705 Y163.746 E.0374
;WIDTH:0.724813
G1 X62.661 Y163.825 E.00461
;WIDTH:0.769626
G1 X62.617 Y163.904 E.00491
;WIDTH:0.81444
G1 X62.573 Y163.982 E.00521
;WIDTH:0.859254
G1 X62.529 Y164.061 E.00552
;WIDTH:0.904067
G1 X62.485 Y164.14 E.00582
;WIDTH:0.948881
G1 X62.441 Y164.219 E.00612
;WIDTH:0.993694
G1 X62.397 Y164.298 E.00642
G1 X62.374 Y164.21 E.00643
;WIDTH:0.947829
G1 X62.352 Y164.122 E.00615
;WIDTH:0.903191
G1 X62.329 Y164.034 E.00584
;WIDTH:0.858553
G1 X62.307 Y163.946 E.00554
;WIDTH:0.813914
G1 X62.285 Y163.858 E.00524
;WIDTH:0.769276
G1 X62.262 Y163.77 E.00493
;WIDTH:0.724638
G1 X62.24 Y163.682 E.00463
;WIDTH:0.679999
G3 X62.299 Y162.767 I3.881 J-.209 E.04385
G2 X62.34 Y161.251 I-14.778 J-1.155 E.07233
G1 X62.34 Y80.979 E3.82702
G1 X70.064 Y73.243 E.52119
;WIDTH:0.681561
G1 X70.726 Y72.582 E.04474
;WIDTH:0.687587
G3 X71.761 Y71.515 I22.62 J20.904 E.0717
;WIDTH:0.703217
G2 X72.827 Y70.481 I-14.134 J-15.644 E.07339
;WIDTH:0.679999
G1 X81.217 Y62.098 E.56545
G1 X139.16 Y62.098 E2.76251
G1 X139.16 Y65.25 E.15029
G1 X139.188 Y65.38 E.00633
G1 X139.469 Y65.684 E.01974
G1 X139.65 Y65.74 E.00901
G1 X180.35 Y65.74 E1.94044
G1 X180.477 Y65.714 E.00616
G1 X180.777 Y65.437 E.01946
G1 X180.823 Y65.428
G1 E-.4 F4200
G1 X257.624 Y164.56 F48000
G1 E.4 F4200
;WIDTH:0.95297
G1 F7200
G1 X257.634 Y165.176 E.04193
;WIDTH:0.95062
G1 X257.625 Y165.331 E.01054
G1 E-.4 F4200
G1 X248.639 Y73.017 F48000
G1 E.4 F4200
;WIDTH:0.68119
G1 F7200
G1 X248.856 Y73.53 E.02659
;WIDTH:0.679999
G1 X249.035 Y74.332 E.03921
G1 X249.052 Y74.94 E.029
G1 X248.927 Y75.75 E.03907
G1 X248.718 Y76.323 E.02906
G1 X248.307 Y77.028 E.03892
G3 X247.591 Y77.761 I-2.958 J-2.174 E.04898
G1 X246.945 Y78.165 E.03633
G1 X246.386 Y78.393 E.02879
G1 X245.578 Y78.552 E.03927
G1 X244.972 Y78.557 E.02888
G1 X244.164 Y78.41 E.03918
G1 X243.597 Y78.191 E.02897
G1 X242.9 Y77.761 E.03906
G3 X241.469 Y75.285 I2.326 J-2.995 E.1398
G1 X241.442 Y74.521 E.03643
G1 X241.524 Y73.923 E.02879
G1 X241.791 Y73.143 E.03926
G1 X242.089 Y72.616 E.02888
G1 X242.62 Y71.989 E.03918
G1 X243.094 Y71.608 E.02897
G1 X243.816 Y71.219 E.03913
G3 X246.68 Y71.222 I1.428 J3.508 E.14003
;WIDTH:0.703754
G1 X247.354 Y71.578 E.03768
G1 X247.815 Y71.979 E.03022
;WIDTH:0.680551
G1 X247.815 Y71.98 E.00004
;WIDTH:0.68937
G1 X248.356 Y72.564 E.03851
G1 X248.632 Y73.007 E.02526
G1 X248.75 Y73.021
G1 E-.4 F4200
G1 X72.011 Y77.405 F48000
