; HEADER_BLOCK_START
; generated by OrcaSlicer 1.8.1 on 2024-01-22 at 18:29:18
; total layer number: 65
; HEADER_BLOCK_END

; THUMBNAIL_BLOCK_START

;
; THUMBNAIL_BLOCK_END

; external perimeters extrusion width = 0.52mm
; perimeters extrusion width = 0.52mm
; infill extrusion width = 0.55mm
; solid infill extrusion width = 0.55mm
; top infill extrusion width = 0.55mm
; first layer extrusion width = 0.58mm

; EXECUTABLE_BLOCK_START
EXCLUDE_OBJECT_DEFINE NAME=Base_Plate.stl_id_0_copy_0 CENTER=165,165 POLYGON=[[85.4,105.4],[244.6,105.4],[244.6,224.6],[85.4,224.6],[85.4,105.4]]
M73 P0 R31
;TYPE:Custom
M104 S0
M140 S0
START_PRINT BED=75 HOTEND=220
G90
G21
M83 ; use relative distances for extrusion
; filament start gcode
SET_PRESSURE_ADVANCE ADVANCE=0.036; Override pressure advance value
M106 S0
;LAYER_CHANGE
;Z:0.2
;HEIGHT:0.2
;BEFORE_LAYER_CHANGE
;0.2
G92 E0

;DSLR_SNAPSHOT
TIMELAPSE_TAKE_FRAME
;_SET_FAN_SPEED_CHANGING_LAYER
SET_VELOCITY_LIMIT ACCEL=10000 ACCEL_TO_DECEL=5000
SET_VELOCITY_LIMIT SQUARE_CORNER_VELOCITY=10
G1 E-.4 F4200
G1 X82.757 Y102.203 F48000
G1 Z.2
G1 E.4 F4200
;TYPE:Skirt
;WIDTH:0.58
G1 F3000
G1 X84.371 Y101.381 E.08086
G1 X85.4 Y101.252 E.04632
G1 X244.6 Y101.252 E7.10961
G1 X246.367 Y101.647 E.08086
G1 X247.797 Y102.757 E.08086
G1 X248.619 Y104.371 E.08086
G1 X248.748 Y105.4 E.04632
G1 X248.748 Y224.6 E5.32328
G1 X248.353 Y226.367 E.08086
G1 X247.243 Y227.797 E.08086
G1 X245.629 Y228.619 E.08086
G1 X244.6 Y228.748 E.04632
G1 X85.4 Y228.748 E7.10961
G1 X83.633 Y228.353 E.08086
G1 X82.203 Y227.243 E.08086
G1 X81.381 Y225.629 E.08086
G1 X81.252 Y224.6 E.04632
G1 X81.252 Y105.4 E5.32328
G1 X81.647 Y103.633 E.08086
G1 X82.726 Y102.242 E.07863
G1 X83.162 Y102.615 F48000
G1 F3000
G1 X83.28 Y102.476 E.00814
G1 X85.4 Y101.789 E.09951
G1 X244.6 Y101.789 E7.10961
G1 X246.241 Y102.183 E.07538
G1 X247.524 Y103.28 E.07538
G1 X248.211 Y105.4 E.09951
G1 X248.211 Y224.6 E5.32328
G1 X247.817 Y226.241 E.07538
G1 X246.72 Y227.524 E.07538
G1 X244.6 Y228.211 E.09951
G1 X85.4 Y228.211 E7.10961
M73 P1 R31
G1 X83.759 Y227.817 E.07538
G1 X82.476 Y226.72 E.07538
G1 X81.789 Y224.6 E.09951
G1 X81.789 Y105.4 E5.32328
G1 X82.183 Y103.759 E.07538
G1 X83.13 Y102.653 E.06501
G1 X83.538 Y103.046 F48000
G1 F3000
G1 X83.799 Y102.776 E.01681
G1 X85.4 Y102.326 E.07426
G1 X244.6 Y102.326 E7.10961
G1 X246.105 Y102.719 E.06946
G1 X247.224 Y103.799 E.06946
G1 X247.674 Y105.4 E.07426
G1 X247.674 Y224.6 E5.32328
G1 X247.281 Y226.105 E.06946
G1 X246.201 Y227.224 E.06946
G1 X244.6 Y227.674 E.07426
G1 X85.4 Y227.674 E7.10961
G1 X83.895 Y227.281 E.06946
G1 X82.776 Y226.201 E.06946
G1 X82.326 Y224.6 E.07426
G1 X82.326 Y105.4 E5.32328
G1 X82.719 Y103.895 E.06946
G1 X83.503 Y103.082 E.05042
G1 X83.872 Y103.498 F48000
G1 F3000
G1 X84.31 Y103.109 E.02618
G1 X85.4 Y102.863 E.04989
G1 X244.6 Y102.863 E7.10961
G1 X245.955 Y103.255 E.06299
M73 P2 R31
G1 X246.891 Y104.31 E.06299
G1 X247.137 Y105.4 E.04989
G1 X247.137 Y224.6 E5.32328
G1 X246.745 Y225.955 E.06299
G1 X245.69 Y226.891 E.06299
G1 X244.6 Y227.137 E.04989
G1 X85.4 Y227.137 E7.10961
G1 X84.045 Y226.745 E.06299
G1 X83.109 Y225.69 E.06299
G1 X82.863 Y224.6 E.04989
G1 X82.863 Y105.4 E5.32328
G1 X83.255 Y104.045 E.06299
G1 X83.834 Y103.531 E.03458
; printing object Base_Plate.stl id:0 copy 0
G1 E-.4 F4200
EXCLUDE_OBJECT_START NAME=Base_Plate.stl_id_0_copy_0
G1 X243.136 Y106.864 F48000
G1 E.4 F4200
;TYPE:Inner wall
;WIDTH:0.579999
G1 F7200
G1 X243.136 Y165 E2.59625
G1 X243.136 Y223.136 E2.59625
G1 X86.864 Y223.136 E6.97883
G1 X86.864 Y106.864 E5.1925
G1 X243.126 Y106.864 E6.97838
G1 X243.673 Y106.327 F48000
G1 F7200
G1 X243.673 Y165 E2.62023
G1 X243.673 Y223.673 E2.62023
G1 X86.327 Y223.673 E7.0268
G1 X86.327 Y106.327 E5.24047
G1 X243.663 Y106.327 E7.02635
G1 X244.21 Y105.79 F48000
;TYPE:Outer wall
G1 F7200
G1 X244.21 Y165 E2.64422
G1 X244.21 Y224.21 E2.64422
G1 X85.79 Y224.21 E7.07477
M73 P3 R30
G1 X85.79 Y105.79 E5.28844
G1 X244.2 Y105.79 E7.07432
G1 E-.4 F4200
G1 X242.975 Y108.111 F48000
G1 E.4 F4200
;TYPE:Bottom surface
;WIDTH:0.580175
G1 F4800
G1 X242.13 Y107.267 E.05334
G1 X241.371 Y107.267 E.03394
G1 X242.733 Y108.629 E.08608
G1 X242.733 Y109.389 E.03394
G1 X240.611 Y107.267 E.13408
G1 X239.851 Y107.267 E.03394
G1 X242.733 Y110.149 E.18208
G1 X242.733 Y110.909 E.03394
G1 X239.091 Y107.267 E.23008
G1 X238.331 Y107.267 E.03394
G1 X242.733 Y111.669 E.27808
G1 X242.733 Y112.428 E.03394
G1 X237.572 Y107.267 E.32608
G1 X236.812 Y107.267 E.03394
G1 X242.733 Y113.188 E.37409
G1 X242.733 Y113.948 E.03394
G1 X236.052 Y107.267 E.42209
G1 X235.292 Y107.267 E.03394
G1 X242.733 Y114.708 E.47009
G1 X242.733 Y115.468 E.03394
G1 X234.532 Y107.267 E.51809
G1 X233.773 Y107.267 E.03394
G1 X242.733 Y116.227 E.56609
G1 X242.733 Y116.987 E.03394
G1 X233.013 Y107.267 E.61409
G1 X232.253 Y107.267 E.03394
G1 X242.733 Y117.747 E.6621
G1 X242.733 Y118.507 E.03394
G1 X231.493 Y107.267 E.7101
G1 X230.733 Y107.267 E.03394
G1 X242.733 Y119.267 E.7581
G1 X242.733 Y120.026 E.03394
G1 X229.974 Y107.267 E.8061
G1 X229.214 Y107.267 E.03394
G1 X242.733 Y120.786 E.8541
G1 X242.733 Y121.546 E.03394
G1 X228.454 Y107.267 E.9021
G1 X227.694 Y107.267 E.03394
G1 X242.733 Y122.306 E.9501
G1 X242.733 Y123.066 E.03394
G1 X226.934 Y107.267 E.99811
G1 X226.175 Y107.267 E.03394
G1 X242.733 Y123.825 E1.04611
G1 X242.733 Y124.585 E.03394
G1 X225.415 Y107.267 E1.09411
G1 X224.655 Y107.267 E.03394
G1 X242.733 Y125.345 E1.14211
G1 X242.733 Y126.105 E.03394
G1 X223.895 Y107.267 E1.19011
G1 X223.136 Y107.267 E.03394
G1 X242.733 Y126.864 E1.23811
G1 X242.733 Y127.624 E.03394
G1 X222.376 Y107.267 E1.28612
G1 X221.616 Y107.267 E.03394
G1 X242.733 Y128.384 E1.33412
G1 X242.733 Y129.144 E.03394
G1 X220.856 Y107.267 E1.38212
G1 X220.096 Y107.267 E.03394
G1 X242.733 Y129.904 E1.43012
G1 X242.733 Y130.663 E.03394
G1 X219.337 Y107.267 E1.47812
G1 X218.577 Y107.267 E.03394
G1 X242.733 Y131.423 E1.52612
G1 X242.733 Y132.183 E.03394
G1 X217.817 Y107.267 E1.57412
G1 X217.057 Y107.267 E.03394
G1 X242.733 Y132.943 E1.62213
G1 X242.733 Y133.703 E.03394
G1 X216.297 Y107.267 E1.67013
G1 X215.538 Y107.267 E.03394
G1 X242.733 Y134.462 E1.71813
G1 X242.733 Y135.222 E.03394
G1 X214.778 Y107.267 E1.76613
G1 X214.018 Y107.267 E.03394
G1 X242.733 Y135.982 E1.81413
G1 X242.733 Y136.742 E.03394
G1 X213.258 Y107.267 E1.86213
G1 X212.498 Y107.267 E.03394
G1 X242.733 Y137.502 E1.91013
G1 X242.733 Y138.261 E.03394
G1 X211.739 Y107.267 E1.95814
G1 X210.979 Y107.267 E.03394
G1 X242.733 Y139.021 E2.00614
G1 X242.733 Y139.781 E.03394
G1 X210.219 Y107.267 E2.05414
G1 X209.459 Y107.267 E.03394
G1 X242.733 Y140.541 E2.10214
G1 X242.733 Y141.301 E.03394
G1 X208.699 Y107.267 E2.15014
G1 X207.94 Y107.267 E.03394
G1 X242.733 Y142.06 E2.19814
G1 X242.733 Y142.82 E.03394
G1 X207.18 Y107.267 E2.24615
M73 P4 R30
G1 X206.42 Y107.267 E.03394
G1 X242.733 Y143.58 E2.29415
G1 X242.733 Y144.34 E.03394
G1 X205.66 Y107.267 E2.34215
G1 X204.9 Y107.267 E.03394
G1 X242.733 Y145.1 E2.39015
G1 X242.733 Y145.859 E.03394
G1 X204.141 Y107.267 E2.43815
G1 X203.381 Y107.267 E.03394
G1 X242.733 Y146.619 E2.48615
G1 X242.733 Y147.379 E.03394
G1 X202.621 Y107.267 E2.53415
G1 X201.861 Y107.267 E.03394
G1 X242.733 Y148.139 E2.58216
G1 X242.733 Y148.898 E.03394
G1 X201.102 Y107.267 E2.63016
G1 X200.342 Y107.267 E.03394
G1 X242.733 Y149.658 E2.67816
G1 X242.733 Y150.418 E.03394
G1 X199.582 Y107.267 E2.72616
G1 X198.822 Y107.267 E.03394
G1 X242.733 Y151.178 E2.77416
G1 X242.733 Y151.938 E.03394
G1 X198.062 Y107.267 E2.82216
G1 X197.303 Y107.267 E.03394
G1 X242.733 Y152.697 E2.87017
G1 X242.733 Y153.457 E.03394
G1 X196.543 Y107.267 E2.91817
G1 X195.783 Y107.267 E.03394
G1 X242.733 Y154.217 E2.96617
G1 X242.733 Y154.977 E.03394
G1 X195.023 Y107.267 E3.01417
G1 X194.263 Y107.267 E.03394
G1 X242.733 Y155.737 E3.06217
G1 X242.733 Y156.496 E.03394
G1 X193.504 Y107.267 E3.11017
G1 X192.744 Y107.267 E.03394
G1 X242.733 Y157.256 E3.15817
G1 X242.733 Y158.016 E.03394
G1 X191.984 Y107.267 E3.20618
G1 X191.224 Y107.267 E.03394
G1 X242.733 Y158.776 E3.25418
G1 X242.733 Y159.536 E.03394
G1 X190.464 Y107.267 E3.30218
G1 X189.705 Y107.267 E.03394
G1 X242.733 Y160.295 E3.35018
G1 X242.733 Y161.055 E.03394
G1 X188.945 Y107.267 E3.39818
M73 P5 R30
G1 X188.185 Y107.267 E.03394
G1 X242.733 Y161.815 E3.44618
G1 X242.733 Y162.575 E.03394
G1 X187.425 Y107.267 E3.49418
G1 X186.665 Y107.267 E.03394
G1 X242.733 Y163.335 E3.54219
G1 X242.733 Y164.094 E.03394
G1 X185.906 Y107.267 E3.59019
G1 X185.146 Y107.267 E.03394
G1 X242.733 Y164.854 E3.63819
G1 X242.733 Y165.614 E.03394
G1 X184.386 Y107.267 E3.68619
G1 X183.626 Y107.267 E.03394
G1 X242.733 Y166.374 E3.73419
G1 X242.733 Y167.134 E.03394
G1 X182.866 Y107.267 E3.78219
G1 X182.107 Y107.267 E.03394
G1 X242.733 Y167.893 E3.8302
G1 X242.733 Y168.653 E.03394
G1 X181.347 Y107.267 E3.8782
G1 X180.587 Y107.267 E.03394
G1 X242.733 Y169.413 E3.9262
G1 X242.733 Y170.173 E.03394
G1 X179.827 Y107.267 E3.9742
G1 X179.068 Y107.267 E.03394
G1 X242.733 Y170.932 E4.0222
G1 X242.733 Y171.692 E.03394
G1 X178.308 Y107.267 E4.0702
G1 X177.548 Y107.267 E.03394
G1 X242.733 Y172.452 E4.1182
G1 X242.733 Y173.212 E.03394
G1 X176.788 Y107.267 E4.16621
G1 X176.028 Y107.267 E.03394
G1 X242.733 Y173.972 E4.21421
G1 X242.733 Y174.731 E.03394
G1 X175.269 Y107.267 E4.26221
M73 P6 R30
G1 X174.509 Y107.267 E.03394
G1 X242.733 Y175.491 E4.31021
G1 X242.733 Y176.251 E.03394
G1 X173.749 Y107.267 E4.35821
M73 P6 R29
G1 X172.989 Y107.267 E.03394
G1 X242.733 Y177.011 E4.40621
G1 X242.733 Y177.771 E.03394
G1 X172.229 Y107.267 E4.45422
G1 X171.47 Y107.267 E.03394
G1 X242.733 Y178.53 E4.50222
G1 X242.733 Y179.29 E.03394
G1 X170.71 Y107.267 E4.55022
G1 X169.95 Y107.267 E.03394
G1 X242.733 Y180.05 E4.59822
G1 X242.733 Y180.81 E.03394
G1 X169.19 Y107.267 E4.64622
G1 X168.43 Y107.267 E.03394
G1 X242.733 Y181.57 E4.69422
G1 X242.733 Y182.329 E.03394
G1 X167.671 Y107.267 E4.74222
G1 X166.911 Y107.267 E.03394
G1 X242.733 Y183.089 E4.79023
G1 X242.733 Y183.849 E.03394
G1 X166.151 Y107.267 E4.83823
G1 X165.391 Y107.267 E.03394
G1 X242.733 Y184.609 E4.88623
G1 X242.733 Y185.369 E.03394
G1 X164.631 Y107.267 E4.93423
M73 P7 R29
G1 X163.872 Y107.267 E.03394
G1 X242.733 Y186.128 E4.98223
G1 X242.733 Y186.888 E.03394
G1 X163.112 Y107.267 E5.03023
G1 X162.352 Y107.267 E.03394
G1 X242.733 Y187.648 E5.07823
G1 X242.733 Y188.408 E.03394
G1 X161.592 Y107.267 E5.12624
G1 X160.832 Y107.267 E.03394
G1 X242.733 Y189.168 E5.17424
G1 X242.733 Y189.927 E.03394
G1 X160.073 Y107.267 E5.22224
G1 X159.313 Y107.267 E.03394
G1 X242.733 Y190.687 E5.27024
G1 X242.733 Y191.447 E.03394
G1 X158.553 Y107.267 E5.31824
G1 X157.793 Y107.267 E.03394
G1 X242.733 Y192.207 E5.36624
G1 X242.733 Y192.966 E.03394
G1 X157.034 Y107.267 E5.41425
G1 X156.274 Y107.267 E.03394
G1 X242.733 Y193.726 E5.46225
G1 X242.733 Y194.486 E.03394
G1 X155.514 Y107.267 E5.51025
G1 X154.754 Y107.267 E.03394
G1 X242.733 Y195.246 E5.55825
M73 P8 R29
G1 X242.733 Y196.006 E.03394
G1 X153.994 Y107.267 E5.60625
G1 X153.235 Y107.267 E.03394
G1 X242.733 Y196.765 E5.65425
G1 X242.733 Y197.525 E.03394
G1 X152.475 Y107.267 E5.70225
G1 X151.715 Y107.267 E.03394
G1 X242.733 Y198.285 E5.75026
G1 X242.733 Y199.045 E.03394
G1 X150.955 Y107.267 E5.79826
G1 X150.195 Y107.267 E.03394
G1 X242.733 Y199.805 E5.84626
G1 X242.733 Y200.564 E.03394
G1 X149.436 Y107.267 E5.89426
G1 X148.676 Y107.267 E.03394
G1 X242.733 Y201.324 E5.94226
G1 X242.733 Y202.084 E.03394
G1 X147.916 Y107.267 E5.99026
G1 X147.156 Y107.267 E.03394
G1 X242.733 Y202.844 E6.03826
G1 X242.733 Y203.604 E.03394
G1 X146.396 Y107.267 E6.08627
G1 X145.637 Y107.267 E.03394
G1 X242.733 Y204.363 E6.13427
M73 P9 R29
G1 X242.733 Y205.123 E.03394
G1 X144.877 Y107.267 E6.18227
G1 X144.117 Y107.267 E.03394
G1 X242.733 Y205.883 E6.23027
G1 X242.733 Y206.643 E.03394
G1 X143.357 Y107.267 E6.27827
M73 P9 R28
G1 X142.597 Y107.267 E.03394
G1 X242.733 Y207.403 E6.32627
G1 X242.733 Y208.162 E.03394
G1 X141.838 Y107.267 E6.37428
G1 X141.078 Y107.267 E.03394
G1 X242.733 Y208.922 E6.42228
G1 X242.733 Y209.682 E.03394
G1 X140.318 Y107.267 E6.47028
G1 X139.558 Y107.267 E.03394
G1 X242.733 Y210.442 E6.51828
G1 X242.733 Y211.202 E.03394
G1 X138.798 Y107.267 E6.56628
G1 X138.039 Y107.267 E.03394
G1 X242.733 Y211.961 E6.61428
M73 P10 R28
G1 X242.733 Y212.721 E.03394
G1 X137.279 Y107.267 E6.66228
G1 X136.519 Y107.267 E.03394
G1 X242.733 Y213.481 E6.71029
G1 X242.733 Y214.241 E.03394
G1 X135.759 Y107.267 E6.75829
G1 X134.999 Y107.267 E.03394
G1 X242.733 Y215.001 E6.80629
G1 X242.733 Y215.76 E.03394
G1 X134.24 Y107.267 E6.85429
G1 X133.48 Y107.267 E.03394
G1 X242.733 Y216.52 E6.90229
G1 X242.733 Y217.28 E.03394
G1 X132.72 Y107.267 E6.95029
G1 X131.96 Y107.267 E.03394
G1 X242.733 Y218.04 E6.9983
G1 X242.733 Y218.799 E.03394
G1 X131.201 Y107.267 E7.0463
G1 X130.441 Y107.267 E.03394
G1 X242.733 Y219.559 E7.0943
M73 P11 R28
G1 X242.733 Y220.319 E.03394
G1 X129.681 Y107.267 E7.1423
G1 X128.921 Y107.267 E.03394
G1 X242.733 Y221.079 E7.1903
G1 X242.733 Y221.839 E.03394
G1 X128.161 Y107.267 E7.2383
G1 X127.402 Y107.267 E.03394
G1 X242.733 Y222.598 E7.2863
G1 X242.733 Y222.733 E.00601
G1 X242.108 Y222.733 E.02793
G1 X126.642 Y107.267 E7.29481
G1 X125.882 Y107.267 E.03394
G1 X241.348 Y222.733 E7.29481
G1 X240.588 Y222.733 E.03394
G1 X125.122 Y107.267 E7.29481
G1 X124.362 Y107.267 E.03394
G1 X239.828 Y222.733 E7.29481
G1 X239.069 Y222.733 E.03394
G1 X123.603 Y107.267 E7.29481
G1 X122.843 Y107.267 E.03394
M73 P12 R28
G1 X238.309 Y222.733 E7.29481
G1 X237.549 Y222.733 E.03394
G1 X122.083 Y107.267 E7.29481
G1 X121.323 Y107.267 E.03394
G1 X236.789 Y222.733 E7.29481
G1 X236.029 Y222.733 E.03394
G1 X120.563 Y107.267 E7.29481
M73 P12 R27
G1 X119.804 Y107.267 E.03394
G1 X235.27 Y222.733 E7.29481
G1 X234.51 Y222.733 E.03394
G1 X119.044 Y107.267 E7.29481
G1 X118.284 Y107.267 E.03394
G1 X233.75 Y222.733 E7.29481
G1 X232.99 Y222.733 E.03394
G1 X117.524 Y107.267 E7.29481
G1 X116.764 Y107.267 E.03394
G1 X232.231 Y222.733 E7.29481
G1 X231.471 Y222.733 E.03394
G1 X116.005 Y107.267 E7.29481
M73 P13 R27
G1 X115.245 Y107.267 E.03394
G1 X230.711 Y222.733 E7.29481
G1 X229.951 Y222.733 E.03394
G1 X114.485 Y107.267 E7.29481
G1 X113.725 Y107.267 E.03394
G1 X229.191 Y222.733 E7.29481
G1 X228.432 Y222.733 E.03394
G1 X112.965 Y107.267 E7.29481
G1 X112.206 Y107.267 E.03394
G1 X227.672 Y222.733 E7.29481
G1 X226.912 Y222.733 E.03394
G1 X111.446 Y107.267 E7.29481
G1 X110.686 Y107.267 E.03394
G1 X226.152 Y222.733 E7.29481
G1 X225.392 Y222.733 E.03394
G1 X109.926 Y107.267 E7.29481
G1 X109.167 Y107.267 E.03394
G1 X224.633 Y222.733 E7.29481
M73 P14 R27
G1 X223.873 Y222.733 E.03394
G1 X108.407 Y107.267 E7.29481
G1 X107.647 Y107.267 E.03394
G1 X223.113 Y222.733 E7.29481
G1 X222.353 Y222.733 E.03394
G1 X106.887 Y107.267 E7.29481
G1 X106.127 Y107.267 E.03394
G1 X221.593 Y222.733 E7.29481
G1 X220.834 Y222.733 E.03394
G1 X105.368 Y107.267 E7.29481
G1 X104.608 Y107.267 E.03394
G1 X220.074 Y222.733 E7.29481
G1 X219.314 Y222.733 E.03394
G1 X103.848 Y107.267 E7.29481
G1 X103.088 Y107.267 E.03394
G1 X218.554 Y222.733 E7.29481
G1 X217.794 Y222.733 E.03394
G1 X102.328 Y107.267 E7.29481
M73 P15 R27
G1 X101.569 Y107.267 E.03394
G1 X217.035 Y222.733 E7.29481
G1 X216.275 Y222.733 E.03394
G1 X100.809 Y107.267 E7.29481
G1 X100.049 Y107.267 E.03394
G1 X215.515 Y222.733 E7.29481
G1 X214.755 Y222.733 E.03394
G1 X99.289 Y107.267 E7.29481
G1 X98.529 Y107.267 E.03394
G1 X213.995 Y222.733 E7.29481
M73 P15 R26
G1 X213.236 Y222.733 E.03394
G1 X97.77 Y107.267 E7.29481
G1 X97.01 Y107.267 E.03394
G1 X212.476 Y222.733 E7.29481
G1 X211.716 Y222.733 E.03394
G1 X96.25 Y107.267 E7.29481
G1 X95.49 Y107.267 E.03394
G1 X210.956 Y222.733 E7.29481
G1 X210.197 Y222.733 E.03394
G1 X94.73 Y107.267 E7.29481
M73 P16 R26
G1 X93.971 Y107.267 E.03394
G1 X209.437 Y222.733 E7.29481
G1 X208.677 Y222.733 E.03394
G1 X93.211 Y107.267 E7.29481
G1 X92.451 Y107.267 E.03394
G1 X207.917 Y222.733 E7.29481
G1 X207.157 Y222.733 E.03394
G1 X91.691 Y107.267 E7.29481
G1 X90.931 Y107.267 E.03394
G1 X206.398 Y222.733 E7.29481
G1 X205.638 Y222.733 E.03394
G1 X90.172 Y107.267 E7.29481
