; HEADER_BLOCK_START
; generated by OrcaSlicer 1.8.1 on 2023-12-15 at 10:06:44
; total layer number: 173
; HEADER_BLOCK_END

; THUMBNAIL_BLOCK_START

;
; THUMBNAIL_BLOCK_END

; external perimeters extrusion width = 0.52mm
; perimeters extrusion width = 0.52mm
; infill extrusion width = 0.55mm
; solid infill extrusion width = 0.55mm
; top infill extrusion width = 0.55mm
; first layer extrusion width = 0.58mm

; EXECUTABLE_BLOCK_START
EXCLUDE_OBJECT_DEFINE NAME=BDHolder.stl_id_0_copy_0 CENTER=165,165 POLYGON=[[145,167.822],[145.011,167.641],[145.044,167.463],[145.097,167.29],[145.172,167.125],[145.266,166.97],[145.377,166.828],[145.505,166.699],[151.971,160.526],[152.16,160.366],[152.363,160.222],[152.576,160.095],[152.799,159.986],[153.031,159.896],[153.291,159.808],[157.441,158.391],[161.77,156.914],[162.218,156.773],[162.672,156.652],[163.132,156.554],[163.595,156.477],[164.062,156.422],[164.53,156.389],[165,156.378],[165.47,156.389],[165.938,156.422],[166.405,156.477],[166.868,156.554],[167.328,156.652],[167.782,156.773],[168.23,156.914],[174.911,159.194],[176.719,159.811],[176.969,159.896],[177.167,159.972],[177.201,159.986],[177.363,160.064],[177.424,160.095],[177.555,160.171],[177.637,160.222],[177.742,160.294],[177.84,160.366],[177.922,160.432],[178.029,160.526],[178.093,160.586],[184.495,166.699],[184.623,166.828],[184.734,166.97],[184.828,167.125],[184.903,167.29],[184.956,167.463],[184.989,167.641],[185,167.822],[185,172.122],[184.989,172.303],[184.956,172.481],[184.903,172.654],[184.828,172.819],[184.734,172.974],[184.623,173.117],[184.495,173.245],[184.352,173.357],[184.197,173.45],[184.032,173.525],[183.859,173.579],[183.681,173.611],[183.5,173.622],[146.5,173.622],[146.319,173.611],[146.141,173.579],[145.968,173.525],[145.803,173.45],[145.648,173.357],[145.505,173.245],[145.377,173.117],[145.266,172.974],[145.172,172.819],[145.097,172.654],[145.044,172.481],[145.011,172.303],[145,172.122],[145,167.822]]
M73 P0 R15
;TYPE:Custom
M104 S0
M140 S0
START_PRINT BED=75 HOTEND=215
G90
G21
M83 ; use relative distances for extrusion
; filament start gcode
SET_PRESSURE_ADVANCE ADVANCE=0.032; Override pressure advance value
M106 S0
;LAYER_CHANGE
;Z:0.2
;HEIGHT:0.2
;BEFORE_LAYER_CHANGE
;0.2
G92 E0

;DSLR_SNAPSHOT
TIMELAPSE_TAKE_FRAME
;_SET_FAN_SPEED_CHANGING_LAYER
SET_VELOCITY_LIMIT ACCEL=10000 ACCEL_TO_DECEL=5000
SET_VELOCITY_LIMIT SQUARE_CORNER_VELOCITY=10
G1 E-.4 F4200
G1 X150.219 Y158.691 F24000
G1 Z.2
G1 E.4 F4200
;TYPE:Skirt
;WIDTH:0.58
G1 F3000
G1 X150.891 Y158.155 E.03457
G1 X151.466 Y157.814 E.02684
G1 X152.211 Y157.495 E.0326
G1 X161.455 Y154.353 E.39241
G1 X163.298 Y153.957 E.07575
G1 X165.065 Y153.842 E.07119
G1 X166.82 Y153.974 E.07075
G1 X168.545 Y154.353 E.07097
G1 X177.789 Y157.495 E.39241
G1 X178.542 Y157.818 E.03297
G1 X179.109 Y158.155 E.02647
G1 X179.781 Y158.691 E.03457
G1 X186.289 Y164.905 E.36165
G1 X186.732 Y165.405 E.02685
G1 X187.216 Y166.249 E.0391
G1 X187.452 Y167.006 E.03186
G1 X187.537 Y167.822 E.03299
G1 X187.485 Y172.76 E.19849
G1 X187.142 Y173.861 E.04632
G1 X186.408 Y174.919 E.05176
G1 X185.665 Y175.528 E.03863
G1 X185.073 Y175.838 E.02685
G1 X184.316 Y176.074 E.03186
G1 X183.653 Y176.155 E.02684
G1 X146.5 Y176.159 E1.49328
G1 X145.665 Y176.07 E.03374
G1 X144.927 Y175.838 E.0311
G1 X144.335 Y175.528 E.02685
G1 X143.583 Y174.911 E.0391
G1 X142.858 Y173.861 E.0513
G1 X142.515 Y172.76 E.04632
G1 X142.463 Y167.822 E.19849
G1 X142.548 Y167.006 E.03299
G1 X142.784 Y166.249 E.03187
G1 X143.268 Y165.405 E.0391
G1 X143.711 Y164.905 E.02685
G1 X150.183 Y158.726 E.35964
; printing object BDHolder.stl id:0 copy 0
G1 E-.4 F4200
EXCLUDE_OBJECT_START NAME=BDHolder.stl_id_0_copy_0
G1 X149.462 Y167.786 F24000
G1 E.4 F4200
;TYPE:Inner wall
;WIDTH:0.579999
G1 F7200
G1 X150.051 Y167.73 E.02377
G1 X150.364 Y167.652 E.01298
G1 X150.888 Y167.442 E.02267
G1 X151.346 Y167.135 E.02218
G1 X151.84 Y166.634 E.02827
G1 X152.024 Y166.367 E.01301
G1 X152.289 Y165.824 E.0243
G2 X152.464 Y164.826 I-3.164 J-1.069 E.0409
G1 X152.464 Y162.794 E.08168
G1 X152.552 Y162.238 E.02262
G1 X152.793 Y161.794 E.02029
G1 X153.164 Y161.453 E.02029
G1 X153.533 Y161.272 E.01648
G1 X162.212 Y158.31 E.36859
G3 X164.583 Y157.854 I2.988 J9.152 E.09733
G1 X165.816 Y157.883 E.04958
G3 X167.774 Y158.305 I-1.154 J10.105 E.08059
G1 X176.44 Y161.263 E.36808
G1 X176.939 Y161.526 E.02264
G1 X177.281 Y161.897 E.0203
G1 X177.484 Y162.359 E.02029
G1 X177.536 Y162.766 E.01648
G2 X177.545 Y164.981 I92.821 J.736 E.08903
G1 X177.61 Y165.478 E.02014
G1 X177.809 Y166.052 E.02443
G1 X178.01 Y166.412 E.01658
G1 X178.396 Y166.903 E.02509
G1 X178.808 Y167.256 E.02182
G1 X179.301 Y167.528 E.02263
G1 X179.983 Y167.736 E.02866
G1 X180.538 Y167.786 E.02239
G1 X180.324 Y168.007 E.01235
G1 X179.928 Y168.536 E.02656
G1 X179.657 Y169.113 E.02562
G1 X179.534 Y169.618 E.02091
G1 X179.498 Y170.351 E.02948
G1 X179.632 Y171.073 E.0295
G1 X179.928 Y171.744 E.02947
G1 X180.229 Y172.158 E.02058
G1 X179.742 Y172.158 E.01956
G1 X179.533 Y172.101 E.00869
G1 X175.873 Y168.459 E.20754
G1 X175.442 Y168.156 E.02118
G1 X174.917 Y167.948 E.02271
G1 X174.365 Y167.869 E.02238
G1 X173.85 Y167.898 E.02076
G1 X166.512 Y169.192 E.29945
G3 X163.488 Y169.192 I-1.512 J-8.515 E.1222
G1 X156.15 Y167.898 E.29947
G1 X155.965 Y167.879 E.00746
G1 X155.369 Y167.89 E.02397
G1 X154.862 Y168.019 E.02101
G1 X154.391 Y168.261 E.02131
G1 X153.987 Y168.58 E.0207
G1 X150.518 Y172.049 E.19717
G1 X150.329 Y172.158 E.00879
G1 X149.771 Y172.158 E.0224
G1 X150.078 Y171.731 E.02113
G1 X150.368 Y171.072 E.02894
G1 X150.502 Y170.351 E.02948
G1 X150.466 Y169.618 E.02948
G1 X150.31 Y169.021 E.02481
G2 X149.469 Y167.793 I-3.34 J1.385 E.06024
G1 E-.4 F4200
G1 X145.866 Y168.054 F24000
G1 E.4 F4200
;WIDTH:0.513157
G1 F7200
G1 X145.918 Y167.671 E.01359
G1 X146.07 Y167.407 E.01075
;WIDTH:0.520627
G1 X146.317 Y167.257 E.01029
G1 X146.592 Y167.224 E.00993
;WIDTH:0.492412
G1 X146.868 Y167.191 E.00934
;WIDTH:0.464197
G1 X147.456 Y167.182 E.01854
;WIDTH:0.488535
G1 X148.043 Y167.204 E.01958
;WIDTH:0.534267
G1 X148.37 Y167.226 E.01208
;WIDTH:0.579999
G2 X149.986 Y167.196 I.642 J-8.969 E.06502
G2 X151.482 Y166.223 I-.565 J-2.506 E.0733
G1 X151.73 Y165.772 E.02067
G1 X151.881 Y165.256 E.0216
G1 X151.927 Y164.826 E.01738
G1 X151.927 Y162.771 E.08257
G1 X152 Y162.228 E.02203
G1 X152.18 Y161.749 E.02057
G1 X152.484 Y161.337 E.02058
G1 X152.87 Y161.001 E.02058
G1 X153.349 Y160.768 E.02139
G1 X162.05 Y157.798 E.36954
G3 X164.564 Y157.317 I3.162 J9.716 E.10316
G1 X165.861 Y157.347 E.05211
G3 X167.941 Y157.795 I-1.21 J10.68 E.08567
G1 X176.635 Y160.762 E.36923
G1 X177.128 Y161.008 E.02212
G1 X177.521 Y161.332 E.0205
G1 X177.814 Y161.753 E.02058
G1 X178.007 Y162.227 E.02058
G1 X178.073 Y162.755 E.02139
G2 X178.079 Y164.925 I125.13 J.741 E.08721
G1 X178.153 Y165.439 E.02088
G1 X178.337 Y165.922 E.02078
G1 X178.638 Y166.376 E.02189
G1 X179.045 Y166.76 E.0225
G1 X179.551 Y167.052 E.02347
G2 X180.496 Y167.249 I1.035 J-2.594 E.03902
G1 X181.724 Y167.249 E.04935
G1 X181.943 Y167.228 E.00884
;WIDTH:0.537187
G1 X182.162 Y167.206 E.00813
;WIDTH:0.494375
G1 X182.381 Y167.185 E.00743
;WIDTH:0.457286
G1 X183.014 Y167.188 E.01963
;WIDTH:0.48901
G1 X183.314 Y167.214 E.01006
;WIDTH:0.520733
G1 X183.614 Y167.24 E.01078
G1 X183.874 Y167.359 E.01023
;WIDTH:0.518067
G1 X184.052 Y167.597 E.01056
G1 X184.124 Y168.044 E.01612
G1 X183.727 Y167.785 E.01687
G1 X183.182 Y167.624 E.0202
;WIDTH:0.478253
G1 X182.544 Y167.583 E.02082
;WIDTH:0.48322
G1 X182.359 Y167.592 E.00611
;WIDTH:0.521988
G1 X182.174 Y167.601 E.00664
;WIDTH:0.560756
G1 X181.989 Y167.611 E.00718
;WIDTH:0.579999
G1 X181.42 Y167.822 E.0244
G1 X180.919 Y168.168 E.02448
G2 X180.408 Y168.777 I2.181 J2.349 E.03202
G1 X180.154 Y169.331 E.02448
G1 X180.035 Y169.928 E.02448
G1 X180.057 Y170.537 E.02449
G1 X180.218 Y171.125 E.02451
G1 X180.511 Y171.659 E.02446
G1 X180.919 Y172.111 E.02448
G1 X181.42 Y172.457 E.02448
;WIDTH:0.597046
G1 X181.986 Y172.687 E.02533
G1 X181.371 Y172.695 E.02552
;WIDTH:0.579999
G1 X180.027 Y172.695 E.054
G1 X179.42 Y172.652 E.02448
G1 X179.182 Y172.509 E.01115
G1 X175.633 Y168.96 E.20171
G1 X175.308 Y168.705 E.01663
G1 X174.831 Y168.485 E.02109
G1 X174.312 Y168.403 E.02112
G1 X173.943 Y168.427 E.01485
G1 X166.594 Y169.723 E.29992
G3 X163.406 Y169.723 I-1.594 J-9.001 E.1288
G1 X156.057 Y168.427 E.29994
G1 X155.644 Y168.405 E.01661
G1 X155.121 Y168.501 E.02139
G2 X154.367 Y168.96 I.747 J2.075 E.03572
G1 X150.898 Y172.429 E.19717
G1 X150.638 Y172.628 E.01317
G1 X150.369 Y172.695 E.01115
G1 X148.629 Y172.695 E.06991
;WIDTH:0.597044
G1 X148.014 Y172.687 E.02552
G1 X148.58 Y172.457 E.02533
;WIDTH:0.579999
G1 X149.081 Y172.111 E.02448
G1 X149.489 Y171.659 E.02448
G1 X149.782 Y171.124 E.02448
G1 X149.943 Y170.537 E.02448
G1 X149.965 Y169.928 E.02448
G1 X149.83 Y169.275 E.02681
G1 X149.592 Y168.777 E.02219
G2 X149.081 Y168.168 I-2.673 J1.724 E.03202
G1 X148.58 Y167.822 E.02449
G1 X148.292 Y167.734 E.01211
;WIDTH:0.534267
G1 X148.004 Y167.646 E.01108
;WIDTH:0.488535
G1 X147.412 Y167.584 E.01984
;WIDTH:0.479255
G1 X146.808 Y167.625 E.01978
;WIDTH:0.513157
G1 X146.308 Y167.771 E.01833
G1 X145.875 Y168.049 E.01811
G1 E-.4 F4200
G1 X145.413 Y169.653 F24000
G1 E.4 F4200
;TYPE:Outer wall
;WIDTH:0.66923
G1 F7200
G1 X145.335 Y169.876 E.01109
G1 X145.312 Y169.629 E.01162
;WIDTH:0.624796
G1 X145.29 Y169.382 E.0108
;WIDTH:0.580362
G1 X145.29 Y168.792 E.02375
;WIDTH:0.579999
G3 X145.421 Y167.561 I31.501 J2.738 E.04975
G1 X145.566 Y167.239 E.01419
G1 X145.804 Y166.97 E.01443
G1 X146.107 Y166.786 E.01426
G1 X146.512 Y166.712 E.01653
G1 X149.386 Y166.712 E.11551
G1 X149.921 Y166.663 E.02159
G1 X150.349 Y166.509 E.01829
G1 X150.728 Y166.257 E.0183
G1 X151.036 Y165.922 E.0183
G1 X151.214 Y165.599 E.0148
G1 X151.359 Y165.127 E.01984
G1 X151.39 Y164.826 E.01218
G1 X151.39 Y162.865 E.07883
G3 X151.48 Y162.096 I3.626 J.035 E.03115
G1 X151.706 Y161.492 E.02593
G1 X152.089 Y160.973 E.02594
G1 X152.576 Y160.549 E.02594
G1 X153.165 Y160.263 E.0263
G1 X161.888 Y157.285 E.3705
G3 X164.545 Y156.779 I3.336 J10.281 E.109
G1 X165.905 Y156.811 E.05465
G1 X166.795 Y156.937 E.03615
G3 X168.109 Y157.284 I-3.085 J14.328 E.05461
G1 X176.719 Y160.223 E.36568
G3 X177.421 Y160.558 I-1.218 J3.456 E.03131
G1 X177.918 Y160.967 E.02585
G1 X178.286 Y161.497 E.02594
G1 X178.529 Y162.094 E.02593
G1 X178.61 Y162.744 E.0263
G1 X178.61 Y164.827 E.08372
G1 X178.659 Y165.243 E.01684
G1 X178.813 Y165.671 E.01829
G1 X179.065 Y166.05 E.0183
G1 X179.401 Y166.358 E.01831
G1 X179.79 Y166.571 E.01781
G2 X180.496 Y166.712 I.796 J-2.143 E.02909
G1 X183.014 Y166.712 E.10118
G1 X183.675 Y166.736 E.0266
G1 X184.015 Y166.841 E.0143
G1 X184.294 Y167.06 E.01423
G1 X184.5 Y167.361 E.01468
G1 X184.607 Y167.701 E.01434
G2 X184.71 Y168.812 I11.549 J-.51 E.04487
G1 X184.71 Y168.983 E.00685
;WIDTH:0.625689
G1 X184.687 Y169.421 E.01914
;WIDTH:0.671378
G1 X184.664 Y169.859 E.02064
G1 X184.601 Y169.673 E.00926
;WIDTH:0.635315
G1 X184.538 Y169.486 E.00872
;WIDTH:0.599251
G1 X184.303 Y169.032 E.02133
;WIDTH:0.579999
G1 X183.934 Y168.544 E.02455
G1 X183.519 Y168.249 E.0205
G1 X183.038 Y168.088 E.02036
G1 X182.56 Y168.053 E.01928
G1 X182.08 Y168.13 E.01951
G1 X181.633 Y168.315 E.01948
G1 X181.239 Y168.599 E.01949
G1 X180.965 Y168.914 E.01679
G1 X180.703 Y169.385 E.02166
G1 X180.579 Y169.866 E.01996
G1 X180.572 Y170.351 E.01949
G1 X180.677 Y170.825 E.01951
G1 X180.888 Y171.261 E.01948
G1 X181.194 Y171.637 E.01949
G1 X181.579 Y171.933 E.01949
G1 X182.021 Y172.131 E.01949
G1 X182.497 Y172.223 E.01949
G1 X183.013 Y172.198 E.02074
G1 X183.519 Y172.03 E.02145
G1 X183.934 Y171.735 E.02045
G1 X184.303 Y171.248 E.02455
G1 X184.508 Y170.849 E.01803
;WIDTH:0.623081
G1 X184.587 Y170.621 E.01047
;WIDTH:0.666162
G1 X184.667 Y170.393 E.01125
G1 X184.688 Y170.645 E.01178
;WIDTH:0.623081
G1 X184.71 Y170.897 E.01097
;WIDTH:0.579999
G1 X184.71 Y171.624 E.02923
G1 X184.632 Y172.178 E.02249
G1 X184.48 Y172.64 E.01952
G1 X184.227 Y172.947 E.01601
G1 X183.893 Y173.158 E.01589
G1 X183.488 Y173.232 E.01653
G1 X179.742 Y173.232 E.15057
G1 X179.24 Y173.166 E.02035
G1 X178.813 Y172.899 E.02024
G1 X175.253 Y169.34 E.20232
G1 X174.984 Y169.133 E.01366
G1 X174.635 Y168.985 E.01524
G1 X174.258 Y168.938 E.01525
G1 X174.036 Y168.956 E.00896
G1 X166.676 Y170.254 E.30039
G3 X163.324 Y170.254 I-1.676 J-9.487 E.1354
G1 X155.963 Y168.956 E.30041
G2 X154.747 Y169.34 I-.202 J1.48 E.05299
G1 X151.278 Y172.809 E.19717
G1 X150.874 Y173.119 E.02045
G1 X150.384 Y173.232 E.02024
G1 X146.794 Y173.232 E.14429
G1 X146.229 Y173.196 E.02275
G1 X145.927 Y173.063 E.01326
G1 X145.647 Y172.818 E.01493
G1 X145.412 Y172.368 E.02042
G1 X145.294 Y171.645 E.02945
G1 X145.29 Y171.297 E.014
;WIDTH:0.621482
G1 X145.312 Y170.854 E.01918
;WIDTH:0.662965
G1 X145.335 Y170.412 E.02056
G1 X145.4 Y170.602 E.00932
;WIDTH:0.628269
G1 X145.464 Y170.792 E.0088
;WIDTH:0.593572
G1 X145.697 Y171.248 E.02109
;WIDTH:0.579999
G1 X146.066 Y171.735 E.02455
G1 X146.478 Y172.028 E.02032
G1 X146.953 Y172.189 E.02018
G1 X147.44 Y172.226 E.01962
G1 X147.919 Y172.149 E.0195
G1 X148.367 Y171.964 E.01949
G1 X148.761 Y171.68 E.01949
G1 X149.078 Y171.313 E.01949
G1 X149.302 Y170.883 E.01949
G1 X149.421 Y170.413 E.01949
G1 X149.428 Y169.928 E.01949
G1 X149.323 Y169.455 E.01949
G1 X149.112 Y169.018 E.01949
G1 X148.806 Y168.642 E.01949
G1 X148.421 Y168.346 E.01949
G1 X147.978 Y168.148 E.01951
G1 X147.502 Y168.056 E.01948
G1 X146.987 Y168.081 E.02074
G1 X146.48 Y168.249 E.02145
G1 X146.066 Y168.544 E.02045
G1 X145.752 Y168.959 E.02091
;WIDTH:0.580362
G1 X145.492 Y169.43 E.02164
;WIDTH:0.624796
G1 X145.417 Y169.644 E.00986
G1 E-.4 F4200
G1 X184.664 Y169.859 F24000
G1 E.4 F4200
;WIDTH:0.671378
G1 F7200
G1 X184.667 Y170.393 E.02512
G1 E-.4 F4200
G1 X183.896 Y172.471 F24000
G1 E.4 F4200
;TYPE:Inner wall
;WIDTH:0.676086
G1 F7200
G1 X183.625 Y172.621 E.01467
G1 X183.451 Y172.651 E.00837
;WIDTH:0.63346
G1 X183.277 Y172.681 E.00781
;WIDTH:0.590833
G1 X183.103 Y172.711 E.00725
;WIDTH:0.548206
G1 X182.59 Y172.729 E.01941
;WIDTH:0.554821
G1 X182.288 Y172.708 E.01159
;WIDTH:0.597046
G1 X181.986 Y172.687 E.01255
G1 E-.4 F4200
G1 X148.014 Y172.687 F24000
G1 E.4 F4200
;WIDTH:0.597044
G1 F7200
G1 X147.735 Y172.708 E.0116
;WIDTH:0.554142
G1 X147.456 Y172.73 E.0107
;WIDTH:0.542128
G1 X147.125 Y172.714 E.01238
;WIDTH:0.573016
G1 X146.794 Y172.699 E.01315
;WIDTH:0.60907
G1 X146.616 Y172.659 E.00771
;WIDTH:0.645124
G1 X146.438 Y172.619 E.00821
;WIDTH:0.681178
G3 X146.154 Y172.512 I.008 J-.454 E.0148
G1 E-.4 F4200
G1 X145.333 Y170.393 F24000
G1 E.4 F4200
;TYPE:Outer wall
;WIDTH:0.66923
G1 F7200
G1 X145.335 Y169.876 E.02423
G1 E-.4 F4200
G1 X177.342 Y162.489 F24000
G1 E.4 F4200
;TYPE:Bottom surface
;WIDTH:0.586083
G1 F7200
G2 X176.691 Y161.845 I-7.89 J7.334 E.03725
G2 X176.294 Y161.639 I-.818 J1.087 E.01824
G1 X175.43 Y161.345 E.03711
G1 X177.131 Y163.046 E.09778
G1 X177.136 Y163.819 E.03143
G1 X174.266 Y160.949 E.16499
G1 X173.102 Y160.553 E.04999
G1 X177.141 Y164.592 E.2322
G2 X177.191 Y165.411 I3.564 J.191 E.03341
G1 X171.937 Y160.157 E.30203
G1 X170.773 Y159.76 E.04999
G1 X179.502 Y168.489 E.50178
G2 X179.267 Y169.022 I2.58 J1.456 E.02372
G1 X169.609 Y159.364 E.5552
G1 X168.444 Y158.968 E.04999
G1 X179.127 Y169.65 E.61406
G2 X179.099 Y170.391 I4.653 J.546 E.03014
G1 X167.28 Y158.572 E.67938
M73 P0 R14
G1 X166.519 Y158.39 E.03181
G1 X166.299 Y158.359 E.00905
G1 X175.989 Y168.049 E.55703
G1 X175.631 Y167.799 E.01773
G2 X174.673 Y167.501 I-1.301 J2.489 E.04099
G1 X165.45 Y158.278 E.53021
G1 X164.663 Y158.259 E.03198
G1 X173.892 Y167.489 E.53055
G2 X173.234 Y167.598 I.571 J5.474 E.02716
G1 X163.954 Y158.318 E.53344
G2 X163.301 Y158.433 I.283 J3.523 E.027
G1 X172.581 Y167.713 E.53345
G1 X171.928 Y167.828 E.02695
G1 X162.69 Y158.591 E.53101
G2 X162.104 Y158.773 I1.64 J6.332 E.02496
G1 X171.275 Y167.943 E.52718
G1 X170.622 Y168.059 E.02695
G1 X161.531 Y158.968 E.52256
M73 P1 R14
G1 X160.958 Y159.164 E.0246
G1 X169.969 Y168.174 E.51794
G1 X169.316 Y168.289 E.02695
G1 X160.386 Y159.359 E.51333
G1 X159.813 Y159.554 E.0246
G1 X168.663 Y168.404 E.50871
