; HEADER_BLOCK_START
; generated by OrcaSlicer 1.6.3 on 2023-12-08 at 13:28:26
; total layer number: 158
; HEADER_BLOCK_END

; THUMBNAIL_BLOCK_START
; THUMBNAIL_BLOCK_END

; external perimeters extrusion width = 0.62mm
; perimeters extrusion width = 0.62mm
; infill extrusion width = 0.65mm
; solid infill extrusion width = 0.65mm
; top infill extrusion width = 0.65mm
; first layer extrusion width = 0.68mm

; EXECUTABLE_BLOCK_START
EXCLUDE_OBJECT_DEFINE NAME=BDMOUINT.stl_id_0_copy_0 CENTER=130,130 POLYGON=[[110,132.821],[110.009,132.653],[110.011,132.64],[110.038,132.487],[110.044,132.462],[110.084,132.326],[110.097,132.289],[110.149,132.17],[110.172,132.124],[110.23,132.023],[110.266,131.969],[110.327,131.886],[110.377,131.826],[110.439,131.76],[116.971,125.525],[117.16,125.365],[117.363,125.221],[117.576,125.094],[117.799,124.985],[118.031,124.895],[118.291,124.807],[122.441,123.39],[126.77,121.913],[127.188,121.78],[127.611,121.666],[128.039,121.571],[128.471,121.494],[128.906,121.437],[129.343,121.398],[129.781,121.379],[130.219,121.379],[130.657,121.398],[131.094,121.437],[131.529,121.494],[131.961,121.571],[132.389,121.666],[132.812,121.78],[133.23,121.913],[139.911,124.193],[141.719,124.81],[141.969,124.895],[142.167,124.971],[142.201,124.985],[142.363,125.062],[142.424,125.094],[142.555,125.17],[142.637,125.221],[142.742,125.293],[142.84,125.365],[142.922,125.431],[143.029,125.525],[143.093,125.584],[149.561,131.76],[149.623,131.826],[149.673,131.886],[149.734,131.969],[149.77,132.023],[149.828,132.124],[149.851,132.17],[149.903,132.289],[149.916,132.326],[149.956,132.462],[149.962,132.487],[149.989,132.64],[149.991,132.653],[150,132.821],[150,137.121],[149.991,137.289],[149.989,137.302],[149.962,137.455],[149.956,137.48],[149.916,137.616],[149.903,137.653],[149.851,137.772],[149.828,137.818],[149.77,137.919],[149.734,137.973],[149.673,138.056],[149.623,138.116],[149.561,138.182],[149.495,138.244],[149.435,138.294],[149.352,138.356],[149.298,138.391],[149.197,138.449],[149.151,138.472],[149.032,138.524],[148.995,138.537],[148.859,138.577],[148.834,138.583],[148.681,138.61],[148.668,138.612],[148.5,138.621],[111.5,138.621],[111.332,138.612],[111.319,138.61],[111.166,138.583],[111.141,138.577],[111.005,138.537],[110.968,138.524],[110.849,138.472],[110.803,138.449],[110.702,138.391],[110.648,138.356],[110.565,138.294],[110.505,138.244],[110.439,138.182],[110.377,138.116],[110.327,138.056],[110.266,137.973],[110.23,137.919],[110.172,137.818],[110.149,137.772],[110.097,137.653],[110.084,137.616],[110.044,137.48],[110.038,137.455],[110.011,137.302],[110.009,137.289],[110,137.121],[110,132.821]]
M73 P0 R17
;TYPE:Custom
M104 S0
M140 S0
START_PRINT BED=75 HOTEND=215
G90
G21
M83 ; use relative distances for extrusion
; filament start gcode
SET_PRESSURE_ADVANCE ADVANCE=0.032; Override pressure advance value
M106 S0
;LAYER_CHANGE
;Z:0.2
;HEIGHT:0.2
;BEFORE_LAYER_CHANGE
;0.2
G92 E0

;DSLR_SNAPSHOT
TIMELAPSE_TAKE_FRAME
M204 S5000
G1 E-.4 F4200
G1 X115.15 Y123.617 F48000
G1 Z.2
G1 E.4 F4200
;TYPE:Skirt
;WIDTH:0.68
G1 F7200
G1 X115.833 Y123.072 E.04168
G1 X116.422 Y122.723 E.03263
G1 X117.179 Y122.4 E.03926
G1 X126.502 Y119.234 E.4694
G1 X128.56 Y118.822 E.10005
G1 X130.226 Y118.742 E.07954
G1 X131.989 Y118.898 E.08437
G1 X133.609 Y119.266 E.07921
G1 X142.821 Y122.4 E.46389
G1 X143.586 Y122.727 E.0397
G1 X144.167 Y123.072 E.03218
G1 X144.85 Y123.617 E.04168
G1 X151.379 Y129.85 E.43034
G1 X151.818 Y130.353 E.03182
G1 X152.156 Y130.889 E.03021
G1 X152.562 Y132.043 E.05832
G1 X152.637 Y132.821 E.03726
G1 X152.637 Y137.121 E.20501
G1 X152.563 Y137.89 E.03685
G1 X152.286 Y138.786 E.0447
G1 X151.823 Y139.582 E.04391
G1 X151.315 Y140.151 E.03633
G1 X150.58 Y140.696 E.04365
G1 X149.993 Y140.977 E.03103
G1 X149.278 Y141.183 E.03547
G1 X148.5 Y141.258 E.03726
G1 X111.5 Y141.258 E1.76401
G1 X110.722 Y141.183 E.03726
G1 X109.844 Y140.91 E.04382
G1 X109.169 Y140.537 E.03677
G1 X108.48 Y139.946 E.0433
G1 X107.841 Y139.049 E.05248
G1 X107.548 Y138.34 E.03659
G1 X107.41 Y137.731 E.02976
G1 X107.363 Y132.821 E.23411
G1 X107.438 Y132.043 E.03726
G1 X107.714 Y131.156 E.04429
G1 X108.084 Y130.49 E.03629
G1 X108.621 Y129.85 E.03984
G1 X115.085 Y123.68 E.42605
; printing object BDMOUINT.stl id:0 copy 0
EXCLUDE_OBJECT_START NAME=BDMOUINT.stl_id_0_copy_0
G1 E-.4 F4200
G1 X114.989 Y132.99 F48000
G1 E.4 F4200
;TYPE:Inner wall
;WIDTH:0.679999
G1 F7200
G1 X115.389 Y132.905 E.01952
G1 X115.975 Y132.675 E.03001
G1 X116.428 Y132.391 E.02549
G1 X116.899 Y131.953 E.03066
G2 X117.714 Y129.824 I-2.473 J-2.168 E.11096
G1 X117.714 Y127.803 E.09639
G1 X117.789 Y127.318 E.02338
G1 X117.99 Y126.947 E.02012
G1 X118.218 Y126.727 E.0151
G1 X118.618 Y126.506 E.0218
G1 X127.289 Y123.547 E.43682
G3 X129.438 Y123.112 I2.915 J8.888 E.10476
G1 X130.562 Y123.112 E.05358
G3 X132.711 Y123.547 I-.767 J9.322 E.10476
G1 X141.35 Y126.495 E.4352
G1 X141.785 Y126.723 E.02341
G1 X142.073 Y127.036 E.02031
G1 X142.206 Y127.318 E.01482
G1 X142.286 Y127.77 E.0219
G1 X142.286 Y129.825 E.09799
G2 X142.691 Y131.373 I3.785 J-.164 E.07686
G1 X143.101 Y131.953 E.03385
G1 X143.637 Y132.434 E.03435
G1 X144.081 Y132.705 E.02478
G1 X144.611 Y132.905 E.027
G1 X145.002 Y132.99 E.0191
G1 X144.869 Y133.158 E.01022
G2 X144.433 Y134.016 I2.941 J2.032 E.04602
G1 X144.265 Y134.737 E.03529
G1 X144.262 Y135.514 E.03705
G1 X144.435 Y136.272 E.03705
G1 X144.73 Y136.905 E.0333
G1 X144.684 Y136.897 E.00222
G1 X141.19 Y133.402 E.23562
G2 X138.806 Y132.651 I-1.951 J2.033 E.12345
G1 X131.474 Y133.944 E.35495
G3 X128.526 Y133.944 I-1.474 J-8.289 E.14131
G1 X121.193 Y132.651 E.35497
G2 X119.738 Y132.797 I-.42 J3.141 E.07039
G1 X119.269 Y133.042 E.02523
G1 X118.81 Y133.402 E.02779
G1 X115.295 Y136.905 E.23658
G1 X115.314 Y136.822 E.00407
G1 X115.62 Y136.102 E.03727
G1 X115.753 Y135.346 E.0366
G1 X115.711 Y134.57 E.03706
G1 X115.538 Y133.919 E.03209
G2 X114.996 Y132.999 I-3.126 J1.222 E.05112
G1 E-.4 F4200
G1 X112.693 Y132.392 F48000
G1 E.4 F4200
G1 F7200
G2 X114.434 Y132.398 I1.193 J-98.275 E.08298
G1 X114.97 Y132.351 E.02564
G2 X116.853 Y130.868 I-.54 J-2.622 E.1185
G1 X117.016 Y130.38 E.0245
G1 X117.077 Y129.824 E.02667
G1 X117.077 Y127.776 E.09764
G1 X117.146 Y127.264 E.02465
G1 X117.312 Y126.82 E.02263
G1 X117.594 Y126.437 E.02263
G1 X117.952 Y126.126 E.02264
G1 X118.4 Y125.907 E.02375
G1 X127.097 Y122.939 E.43811
G3 X129.403 Y122.475 I3.123 J9.557 E.11242
G1 X130.597 Y122.475 E.05692
G3 X132.903 Y122.939 I-.817 J10.021 E.11242
G1 X141.581 Y125.901 E.43714
G1 X142.046 Y126.132 E.02476
G1 X142.41 Y126.432 E.02251
G1 X142.683 Y126.824 E.02275
G1 X142.861 Y127.263 E.02255
G1 X142.923 Y127.757 E.02375
G2 X142.93 Y129.94 I111.268 J.74 E.1041
G1 X143.018 Y130.499 E.02698
G1 X143.23 Y131.034 E.02746
G1 X143.553 Y131.503 E.02712
G1 X143.938 Y131.869 E.02533
G1 X144.366 Y132.136 E.02405
G1 X144.929 Y132.334 E.02846
G1 X145.497 Y132.398 E.02721
G1 X146.408 Y132.398 E.04347
;WIDTH:0.717414
G1 X147.019 Y132.417 E.03081
G1 X146.453 Y132.637 E.03062
;WIDTH:0.679999
G1 X145.918 Y132.973 E.03015
G2 X145.088 Y134.066 I1.995 J2.375 E.06596
G1 X144.938 Y134.559 E.02456
G1 X144.877 Y135.188 E.03014
G1 X144.96 Y135.815 E.03014
G1 X145.183 Y136.406 E.03014
G1 X145.535 Y136.932 E.03014
G1 X145.996 Y137.364 E.03014
G1 X146.283 Y137.544 E.01614
G1 X144.808 Y137.544 E.07034
G1 X144.47 Y137.507 E.01619
G1 X144.285 Y137.399 E.01022
G1 X140.739 Y133.853 E.23907
G1 X140.398 Y133.584 E.0207
G1 X139.886 Y133.345 E.02697
G1 X139.327 Y133.253 E.02701
G1 X138.917 Y133.278 E.01958
G1 X131.571 Y134.574 E.35561
G3 X128.429 Y134.574 I-1.571 J-8.865 E.1506
G1 X121.083 Y133.278 E.35563
G1 X120.54 Y133.256 E.0259
G1 X120.028 Y133.37 E.02502
G1 X119.581 Y133.597 E.02391
G1 X119.261 Y133.853 E.01953
G1 X115.81 Y137.304 E.23269
G1 X115.572 Y137.49 E.01439
G1 X115.364 Y137.544 E.01022
G1 X113.727 Y137.544 E.07805
G1 X113.874 Y137.455 E.00819
G1 X114.359 Y137.05 E.03014
G1 X114.741 Y136.542 E.03028
G1 X114.999 Y135.958 E.03042
G1 X115.116 Y135.346 E.02972
G1 X115.091 Y134.714 E.03015
G1 X114.923 Y134.104 E.03017
G1 X114.698 Y133.654 E.02399
G1 X114.319 Y133.181 E.02888
G1 X113.874 Y132.822 E.02728
G1 X113.31 Y132.537 E.03014
G1 X112.705 Y132.395 E.02961
G1 E-.4 F4200
G1 X110.362 Y134.595 F48000
G1 E.4 F4200
;TYPE:Outer wall
;WIDTH:0.724572
G1 F7200
G1 X110.344 Y134.124 E.02407
;WIDTH:0.688892
G1 X110.34 Y133.524 E.029
;WIDTH:0.679999
G1 X110.403 Y132.875 E.03109
G1 X110.513 Y132.463 E.02033
G1 X110.756 Y132.073 E.02189
G1 X111.04 Y131.871 E.01665
G1 X111.512 Y131.761 E.0231
G1 X114.019 Y131.761 E.11949
G1 X114.898 Y131.718 E.04196
G1 X115.311 Y131.582 E.02074
G1 X115.683 Y131.356 E.02076
G1 X115.996 Y131.054 E.02074
G1 X116.23 Y130.696 E.0204
G1 X116.381 Y130.288 E.02072
G1 X116.44 Y129.824 E.02229
G1 X116.44 Y127.863 E.0935
G3 X116.528 Y127.107 I3.578 J.035 E.03635
G1 X116.75 Y126.515 E.03017
G1 X117.126 Y126.005 E.03017
G1 X117.604 Y125.59 E.03017
G1 X118.182 Y125.309 E.03066
G1 X126.904 Y122.332 E.4394
G3 X129.368 Y121.838 I3.331 J10.226 E.12008
G1 X130.632 Y121.838 E.06025
G3 X133.096 Y122.332 I-.867 J10.72 E.12008
G1 X141.703 Y125.269 E.4336
G3 X142.881 Y125.999 I-1.041 J2.994 E.06659
G1 X143.243 Y126.521 E.03028
G1 X143.48 Y127.105 E.03007
G1 X143.56 Y127.744 E.03066
G1 X143.56 Y129.825 E.09925
G1 X143.603 Y130.219 E.01887
G1 X143.739 Y130.632 E.02073
G1 X143.912 Y130.922 E.0161
G1 X144.261 Y131.312 E.02495
G1 X144.577 Y131.521 E.01808
G1 X145.033 Y131.702 E.02338
G1 X145.497 Y131.761 E.02229
G1 X148.413 Y131.761 E.13902
G1 X148.85 Y131.825 E.02106
G3 X149.438 Y132.359 I-.57 J1.22 E.03845
G1 X149.568 Y132.745 E.01941
G1 X149.66 Y133.355 E.02942
G1 X149.66 Y133.747 E.01869
;WIDTH:0.694596
G1 X149.653 Y134.636 E.04333
G1 X149.497 Y134.271 E.01934
;WIDTH:0.683499
G1 X149.208 Y133.824 E.02552
;WIDTH:0.679999
G1 X148.726 Y133.337 E.03268
G1 X148.282 Y133.107 E.02384
G1 X147.779 Y133.008 E.02441
G1 X147.161 Y133.059 E.0296
G1 X146.684 Y133.23 E.02413
G1 X146.277 Y133.499 E.02325
G1 X145.941 Y133.852 E.02324
G1 X145.698 Y134.266 E.02288
G1 X145.549 Y134.738 E.0236
G1 X145.513 Y135.224 E.02324
G1 X145.588 Y135.706 E.02325
G1 X145.77 Y136.158 E.02324
G1 X146.05 Y136.557 E.02324
G1 X146.413 Y136.883 E.02324
;WIDTH:0.72679
G1 X146.902 Y137.167 E.02894
;WIDTH:0.774427
G1 X147.142 Y137.249 E.01386
;WIDTH:0.822063
G1 X147.381 Y137.331 E.01476
;WIDTH:0.826729
G1 X147.893 Y137.334 E.03003
;WIDTH:0.862686
G1 X148.155 Y137.284 E.01635
;WIDTH:0.898643
G1 X148.417 Y137.234 E.01707
;WIDTH:0.900426
G1 X148.883 Y136.956 E.03483
G1 X149.294 Y136.524 E.03827
G1 X149.553 Y136.128 E.03036
G1 X149.528 Y136.997 E.05578
G1 X149.382 Y137.464 E.03139
G1 X149.209 Y137.732 E.02048
;WIDTH:0.910034
G3 X148.742 Y138.02 I-.751 J-.694 E.03605
;WIDTH:0.898643
G1 X148.396 Y138.084 E.02256
;WIDTH:0.873501
G1 X148.091 Y138.098 E.01893
;WIDTH:0.845258
G1 X147.787 Y138.113 E.01828
;WIDTH:0.834926
G1 X147.19 Y138.104 E.03542
G1 X147.037 Y138.123 E.00915
;WIDTH:0.796195
G1 X146.883 Y138.142 E.0087
;WIDTH:0.757463
G1 X146.73 Y138.162 E.00825
;WIDTH:0.718731
G1 X146.577 Y138.181 E.00781
;WIDTH:0.679999
G1 X144.808 Y138.181 E.08437
G1 X144.257 Y138.117 E.02643
G1 X143.847 Y137.862 E.02301
G1 X140.518 Y134.532 E.22448
G1 X140.043 Y134.113 E.0302
G1 X139.653 Y133.938 E.02037
G1 X139.263 Y133.887 E.01874
G1 X139.028 Y133.906 E.01128
G1 X131.668 Y135.203 E.35627
G3 X128.332 Y135.203 I-1.668 J-9.442 E.15989
G1 X120.972 Y133.906 E.35629
G1 X120.626 Y133.89 E.0165
G1 X120.237 Y133.973 E.019
G1 X119.893 Y134.153 E.01848
G1 X119.711 Y134.303 E.01126
G1 X116.26 Y137.755 E.23269
G1 X115.852 Y138.072 E.02463
G1 X115.382 Y138.181 E.02301
G1 X113.683 Y138.181 E.08102
;WIDTH:0.718326
G1 X113.076 Y138.162 E.03067
;WIDTH:0.767333
G1 X112.777 Y138.137 E.01629
;WIDTH:0.81634
G1 X112.477 Y138.113 E.01739
;WIDTH:0.841698
G1 X111.854 Y138.1 E.03727
;WIDTH:0.872983
G1 X111.56 Y138.062 E.01842
;WIDTH:0.904268
G1 X111.266 Y138.023 E.01912
;WIDTH:0.906361
G1 X110.975 Y137.889 E.02072
G1 X110.733 Y137.656 E.0217
G3 X110.478 Y137.022 I1.469 J-.959 E.04447
G1 X110.453 Y136.136 E.05726
G2 X111.071 Y136.913 I2.832 J-1.617 E.06444
G1 X111.488 Y137.192 E.03238
;WIDTH:0.903087
G1 X111.73 Y137.256 E.01612
;WIDTH:0.872393
G1 X111.972 Y137.319 E.01554
;WIDTH:0.841698
G1 X112.492 Y137.34 E.03105
;WIDTH:0.81634
G1 X112.736 Y137.271 E.01469
;WIDTH:0.767333
G1 X112.98 Y137.202 E.01376
;WIDTH:0.718326
G1 X113.423 Y136.988 E.02485
;WIDTH:0.679999
G1 X113.814 Y136.697 E.02324
G1 X114.129 Y136.325 E.02324
G1 X114.354 Y135.883 E.02366
G1 X114.47 Y135.418 E.02284
G1 X114.478 Y134.931 E.02323
G1 X114.376 Y134.454 E.02327
G1 X114.168 Y134.013 E.02323
G1 X113.866 Y133.63 E.02324
G1 X113.485 Y133.326 E.02324
G1 X113.045 Y133.116 E.02324
G1 X112.568 Y133.011 E.02327
G1 X112.297 Y133 E.01296
G1 X111.838 Y133.068 E.02214
G1 X111.379 Y133.269 E.02389
G1 X110.986 Y133.624 E.02522
;WIDTH:0.681099
G1 X110.593 Y134.104 E.02965
;WIDTH:0.724572
G1 X110.367 Y134.584 E.02706
G1 E-.4 F4200
G1 X149.652 Y134.711 F48000
G1 E.4 F4200
;WIDTH:0.696716
G1 F7200
G1 X149.652 Y135.566 E.0418
;WIDTH:0.69952
G1 X149.65 Y135.585 E.00096
G1 E-.4 F4200
G1 X147.019 Y132.417 F48000
G1 E.4 F4200
;TYPE:Inner wall
;WIDTH:0.717414
G1 F7200
G1 X147.373 Y132.401 E.01791
;WIDTH:0.68602
G1 X147.728 Y132.385 E.01708
;WIDTH:0.691172
G1 X147.956 Y132.404 E.01111
;WIDTH:0.727718
G1 X148.184 Y132.422 E.01174
;WIDTH:0.764264
G1 X148.413 Y132.44 E.01237
;WIDTH:0.789358
G1 X148.723 Y132.546 E.01829
G1 E-.4 F4200
G1 X111.349 Y132.511 F48000
G1 E.4 F4200
;WIDTH:0.805662
G1 F7200
G1 X111.541 Y132.465 E.01131
;WIDTH:0.763459
G1 X111.734 Y132.419 E.01069
;WIDTH:0.721256
G1 X112.012 Y132.4 E.01414
;WIDTH:0.683192
G1 X112.29 Y132.381 E.01335
;WIDTH:0.668548
G1 X112.693 Y132.392 E.0189
G1 E-.4 F4200
G1 X110.341 Y135.495 F48000
G1 E.4 F4200
;TYPE:Outer wall
;WIDTH:0.681588
G1 F7200
G1 X110.329 Y134.988 E.02423
;WIDTH:0.69086
G1 X110.345 Y134.791 E.00955
;WIDTH:0.724572
G1 X110.362 Y134.595 E.01005
G1 E-.4 F4200
G1 X140.948 Y126.56 F48000
G1 E.4 F4200
;TYPE:Bottom surface
;WIDTH:0.694434
G1 F7200
G1 X141.619 Y127.231 E.0463
G3 X141.805 Y127.708 I-.886 J.619 E.02517
G1 X141.809 Y128.342 E.03093
G1 X140.009 Y126.542 E.12411
G1 X138.61 Y126.065 E.07206
G1 X141.815 Y129.27 E.22098
G1 X141.82 Y130.052 E.03814
M73 P1 R17
G1 X141.841 Y130.218 E.00813
G1 X137.211 Y125.588 E.31925
G1 X135.813 Y125.11 E.07206
G1 X144.156 Y133.454 E.5753
G1 X144.057 Y133.64 E.01031
G1 X143.906 Y134.125 E.02473
G1 X134.414 Y124.633 E.65448
G1 X133.015 Y124.155 E.07206
G1 X143.776 Y134.916 E.74199
G2 X143.774 Y135.311 I1.718 J.207 E.01927
G1 X141.522 Y133.059 E.15529
G2 X140.228 Y132.29 I-2.328 J2.444 E.074
G1 X131.702 Y123.764 E.58785
G2 X130.616 Y123.599 I-1.484 J6.096 E.05366
G1 X139.154 Y132.137 E.58874
G2 X138.343 Y132.247 I.408 J6.037 E.03994
G1 X129.685 Y123.59 E.59695
G1 X129.464 Y123.59 E.01079
G1 X128.834 Y123.659 E.03094
G1 X137.56 Y132.386 E.60169
G1 X136.776 Y132.524 E.03878
G1 X128.069 Y123.816 E.60041
G2 X127.359 Y124.028 I2.058 J8.199 E.03612
G1 X135.993 Y132.662 E.59534
G1 X135.21 Y132.8 E.03878
G1 X126.672 Y124.262 E.5887
G1 X125.985 Y124.497 E.03539
G1 X134.427 Y132.938 E.58205
G1 X133.643 Y133.076 E.03878
G1 X125.298 Y124.731 E.57541
G1 X124.611 Y124.965 E.03539
G1 X132.86 Y133.214 E.56877
G1 X132.077 Y133.352 E.03878
G1 X123.924 Y125.2 E.56212
G1 X123.238 Y125.434 E.03539
G1 X131.289 Y133.486 E.55519
G3 X130.458 Y133.576 I-.929 J-4.704 E.04083
G1 X122.551 Y125.669 E.54522
G1 X121.864 Y125.903 E.03539
G1 X129.536 Y133.576 E.52904
G1 X129.32 Y133.566 E.01057
G3 X128.492 Y133.453 I.891 J-9.551 E.04077
G1 X121.177 Y126.138 E.50437
G1 X120.49 Y126.372 E.03539
G1 X127.373 Y133.255 E.4746
G1 X126.254 Y133.058 E.05538
G1 X119.803 Y126.607 E.44484
G1 X119.116 Y126.841 E.03539
G1 X125.136 Y132.861 E.41507
G1 X124.017 Y132.664 E.05538
G1 X118.481 Y127.127 E.38174
G2 X118.197 Y127.765 I.639 J.667 E.03489
G1 X122.898 Y132.466 E.32419
G1 X121.78 Y132.269 E.05538
G1 X118.187 Y128.677 E.24772
G1 X118.182 Y129.593 E.04468
G1 X120.731 Y132.142 E.17577
G2 X119.917 Y132.249 I-.037 J2.86 E.04017
