; HEADER_BLOCK_START
; generated by OrcaSlicer 1.6.3 on 2023-11-23 at 01:58:40
; total layer number: 30
; HEADER_BLOCK_END

; THUMBNAIL_BLOCK_START
; THUMBNAIL_BLOCK_END

; external perimeters extrusion width = 0.62mm
; perimeters extrusion width = 0.62mm
; infill extrusion width = 0.65mm
; solid infill extrusion width = 0.65mm
; top infill extrusion width = 0.65mm
; first layer extrusion width = 0.68mm

; EXECUTABLE_BLOCK_START
EXCLUDE_OBJECT_DEFINE NAME=Belt_Clamp.stl_id_0_copy_0 CENTER=160,160 POLYGON=[[154.2,148.35],[165.8,148.35],[165.8,171.15],[165.787,171.261],[165.783,171.28],[165.75,171.367],[165.733,171.4],[165.691,171.462],[165.654,171.504],[165.612,171.541],[165.55,171.583],[165.517,171.601],[165.429,171.633],[165.411,171.638],[165.3,171.65],[154.7,171.65],[154.589,171.638],[154.571,171.633],[154.483,171.601],[154.45,171.583],[154.388,171.541],[154.346,171.504],[154.309,171.462],[154.267,171.4],[154.25,171.367],[154.217,171.28],[154.213,171.261],[154.2,171.15],[154.2,148.35]]
M73 P0 R3
;TYPE:Custom
M104 S0
M140 S0
START_PRINT BED=75 HOTEND=200
G90
G21
M83 ; use relative distances for extrusion
; filament start gcode
SET_PRESSURE_ADVANCE ADVANCE=0.032; Override pressure advance value
M106 S0
;LAYER_CHANGE
;Z:0.2
;HEIGHT:0.2
;BEFORE_LAYER_CHANGE
;0.2
G92 E0

;DSLR_SNAPSHOT
TIMELAPSE_TAKE_FRAME
M204 S10000
G1 E-.4 F4200
G1 X153.344 Y146.963 F36000
G1 Z.2
G1 E.4 F4200
;TYPE:Skirt
;WIDTH:0.68
G1 F4925
G1 X154.406 Y145.992 E.06859
G1 X155.587 Y145.713 E.05788
G1 X164.413 Y145.713 E.42079
G1 X165.797 Y146.105 E.06859
G1 X166.769 Y147.166 E.06859
G1 X167.05 Y148.347 E.05788
G1 X167.05 Y171.153 E1.08734
G1 X166.837 Y172.193 E.05058
G1 X166.734 Y172.424 E.01207
G1 X165.928 Y173.4 E.06034
G1 X165.261 Y173.785 E.03673
G1 X164.319 Y174.045 E.04658
G1 X156.2 Y174.085 E.38708
G1 X155.299 Y173.977 E.04327
G1 X154.739 Y173.785 E.02821
G1 X154.023 Y173.361 E.03969
G1 X153.211 Y172.302 E.06362
G1 X152.95 Y171.153 E.05618
G1 X152.95 Y148.347 E1.08734
G1 X153.319 Y147.05 E.0643
; printing object Belt Clamp.stl id:0 copy 0
EXCLUDE_OBJECT_START NAME=Belt_Clamp.stl_id_0_copy_0
G1 E-.4 F4200
G1 X157.408 Y151.421 F36000
G1 E.4 F4200
;TYPE:Inner wall
;WIDTH:0.893534
G1 F4925
G1 X157.408 Y150.171 E.07956
G1 X157.772 Y150.153 E.02324
;WIDTH:0.85873
G1 X158.137 Y150.136 E.02228
;WIDTH:0.823926
G1 X158.401 Y150.115 E.01545
;WIDTH:0.781274
G1 X158.664 Y150.093 E.01461
;WIDTH:0.738622
G1 X158.928 Y150.072 E.01377
;WIDTH:0.69597
G1 X159.191 Y150.051 E.01292
;WIDTH:0.653318
G1 X160.221 Y150.032 E.04704
;WIDTH:0.665533
G1 X160.754 Y150.057 E.02487
;WIDTH:0.714101
G1 X161.287 Y150.081 E.02681
;WIDTH:0.750711
G1 X161.479 Y150.099 E.01021
;WIDTH:0.787321
G1 X161.671 Y150.118 E.01074
;WIDTH:0.82393
G1 X161.863 Y150.136 E.01127
;WIDTH:0.858733
G1 X162.228 Y150.153 E.02228
;WIDTH:0.893535
G1 X162.592 Y150.171 E.02323
G1 X162.592 Y150.596 E.02707
G1 X162.592 Y151.42 E.05248
G1 X161.955 Y150.965 E.04989
G1 X161.837 Y150.927 E.00786
;WIDTH:0.858733
G1 X161.719 Y150.889 E.00754
;WIDTH:0.82393
G1 X161.534 Y150.836 E.01127
;WIDTH:0.787321
G1 X161.349 Y150.782 E.01074
;WIDTH:0.750711
G1 X161.164 Y150.729 E.01021
;WIDTH:0.714101
G1 X160.965 Y150.693 E.01015
;WIDTH:0.683533
G1 X160.766 Y150.658 E.00969
;WIDTH:0.652965
G1 X160.185 Y150.604 E.02661
;WIDTH:0.617309
G1 X159.796 Y150.605 E.01673
;WIDTH:0.665703
G1 X159.316 Y150.667 E.02256
;WIDTH:0.714097
G1 X158.836 Y150.729 E.02431
;WIDTH:0.758957
G1 X158.639 Y150.788 E.01106
;WIDTH:0.803816
G1 X158.441 Y150.847 E.01175
;WIDTH:0.848675
G1 X158.243 Y150.906 E.01244
;WIDTH:0.893534
G2 X157.895 Y151.062 I.093 J.672 E.02466
G1 X157.417 Y151.413 E.03771
G1 E-.4 F4200
G1 X156.717 Y154.117 F36000
G1 E.4 F4200
;WIDTH:0.786006
M73 P1 R3
G1 F4925
G1 X156.699 Y153.835 E.01573
;WIDTH:0.750671
G1 X156.682 Y153.552 E.01498
;WIDTH:0.715335
G1 X156.664 Y153.27 E.01423
;WIDTH:0.679999
G1 X156.664 Y149.427 E.18323
G1 X163.336 Y149.427 E.3181
G1 X163.336 Y150.596 E.05574
G1 X163.336 Y152.684 E.09956
;WIDTH:0.683828
G1 X163.334 Y153.541 E.0411
;WIDTH:0.717885
G1 X163.317 Y153.733 E.00973
;WIDTH:0.751942
G1 X163.3 Y153.925 E.01022
;WIDTH:0.785998
G1 X163.283 Y154.117 E.01071
G1 X163.205 Y153.855 E.01519
;WIDTH:0.750665
G1 X163.126 Y153.593 E.01447
;WIDTH:0.715332
G1 X163.048 Y153.331 E.01375
;WIDTH:0.679999
G1 X162.671 Y152.604 E.03906
G1 X162.134 Y152.002 E.03846
G1 X161.458 Y151.549 E.03879
G1 X160.689 Y151.277 E.0389
G1 X159.873 Y151.206 E.03906
G1 X159.077 Y151.337 E.03844
G1 X158.332 Y151.664 E.03881
G1 X157.69 Y152.168 E.0389
G1 X157.192 Y152.819 E.03906
;WIDTH:0.68383
G1 X156.875 Y153.561 E.0387
;WIDTH:0.717889
G1 X156.822 Y153.746 E.00973
;WIDTH:0.751948
G1 X156.77 Y153.931 E.01022
;WIDTH:0.786006
G1 X156.72 Y154.105 E.01005
G1 E-.4 F4200
G1 X157.301 Y157.226 F36000
G1 E.4 F4200
;WIDTH:0.679999
G1 F4925
G1 X157.883 Y157.704 E.03588
G2 X159.316 Y158.271 I2.219 J-3.51 E.07393
G1 X160 Y158.321 E.0327
G1 X160.684 Y158.271 E.0327
G2 X162.117 Y157.704 I-.786 J-4.078 E.07393
G1 X162.699 Y157.226 E.03588
G1 X162.699 Y165.684 E.40324
G1 X162.548 Y165.543 E.00984
G2 X157.301 Y165.76 I-2.506 J2.959 E.27507
G1 X157.301 Y157.238 E.40627
G1 E-.4 F4200
G1 X156.734 Y155.058 F36000
G1 E.4 F4200
;WIDTH:0.819712
G1 F4925
G1 X156.785 Y155.192 E.00836
;WIDTH:0.785639
G1 X156.895 Y155.441 E.01515
;WIDTH:0.750426
G1 X157.005 Y155.691 E.01444
;WIDTH:0.715213
G1 X157.115 Y155.94 E.01372
;WIDTH:0.679999
G1 X157.576 Y156.611 E.03879
G1 X158.19 Y157.146 E.0388
G1 X158.917 Y157.511 E.03881
G1 X159.474 Y157.654 E.02745
G2 X160.526 Y157.654 I.526 J-4.585 E.05022
G1 X161.306 Y157.423 E.03881
G1 X162.004 Y157.005 E.03881
G1 X162.577 Y156.426 E.03881
G1 X162.988 Y155.721 E.0389
;WIDTH:0.726276
G1 X163.081 Y155.498 E.01238
;WIDTH:0.772553
G1 X163.174 Y155.274 E.01322
;WIDTH:0.81883
G1 X163.267 Y155.051 E.01406
G1 X163.283 Y155.194 E.00835
;WIDTH:0.785532
G1 X163.301 Y155.388 E.01084
;WIDTH:0.750355
G1 X163.318 Y155.582 E.01032
;WIDTH:0.715177
G1 X163.336 Y155.776 E.00981
;WIDTH:0.679999
G1 X163.336 Y166.758 E.52359
;WIDTH:0.682369
G1 X163.335 Y167.601 E.04031
;WIDTH:0.713974
G1 X163.319 Y167.888 E.01448
;WIDTH:0.745578
G1 X163.303 Y168.176 E.01516
G1 X163.196 Y167.783 E.02145
;WIDTH:0.712789
G1 X163.089 Y167.389 E.02045
;WIDTH:0.679999
G1 X162.716 Y166.666 E.03881
G1 X162.174 Y166.058 E.03881
G1 X161.498 Y165.605 E.0388
G1 X160.729 Y165.333 E.03889
G1 X159.913 Y165.261 E.03903
G1 X159.117 Y165.393 E.03848
G1 X158.372 Y165.72 E.03881
G1 X157.73 Y166.224 E.03889
G1 X157.233 Y166.874 E.03904
;WIDTH:0.685286
G1 X156.914 Y167.616 E.03883
;WIDTH:0.732283
G1 X156.855 Y167.801 E.00997
;WIDTH:0.77928
G1 X156.796 Y167.985 E.01065
;WIDTH:0.826276
G1 X156.737 Y168.169 E.01133
G1 X156.713 Y167.885 E.01671
;WIDTH:0.777517
G1 X156.688 Y167.601 E.01567
;WIDTH:0.728758
G1 X156.664 Y167.317 E.01463
;WIDTH:0.679999
G1 X156.664 Y155.779 E.55008
;WIDTH:0.72657
G1 X156.687 Y155.538 E.01236
;WIDTH:0.773141
G1 X156.71 Y155.298 E.0132
;WIDTH:0.819712
G1 X156.733 Y155.07 E.01334
G1 E-.4 F4200
G1 X157.401 Y154.261 F36000
G1 E.4 F4200
;TYPE:Outer wall
;WIDTH:0.679999
G1 F4925
G1 X157.503 Y153.681 E.0281
G1 X157.769 Y153.09 E.03089
G1 X158.182 Y152.573 E.03153
G1 X158.706 Y152.18 E.03126
G1 X159.312 Y151.929 E.03123
G1 X159.953 Y151.838 E.03089
G1 X160.61 Y151.909 E.03153
G1 X161.224 Y152.141 E.03126
G1 X161.759 Y152.518 E.03121
M73 P2 R3
G1 X162.181 Y153.01 E.03091
G1 X162.472 Y153.604 E.03153
G1 X162.605 Y154.246 E.03126
G1 X162.575 Y154.893 E.03089
G1 X162.381 Y155.526 E.03153
G1 X162.039 Y156.085 E.03126
G1 X161.568 Y156.54 E.03123
G1 X160.925 Y156.894 E.035
G1 X160.367 Y157.037 E.02745
G1 X159.712 Y157.047 E.03123
G1 X159.075 Y156.894 E.03123
G1 X158.496 Y156.587 E.03123
G1 X158.012 Y156.146 E.03123
G1 X157.653 Y155.599 E.03121
G1 X157.441 Y154.979 E.03124
G1 X157.39 Y154.326 E.03123
G1 X157.399 Y154.273 E.00256
G1 X157.305 Y154.193
G1 E-.4 F4200
G1 X158.005 Y152.8 F36000
G1 X158.163 Y152.494
G1 X158.361 Y152.194
G1 X158.601 Y151.905
G1 X158.885 Y151.635
G1 X159.221 Y151.416
G1 X159.607 Y151.342
G1 X159.992 Y151.318
G1 X160.391 Y151.342
G1 X160.779 Y151.416
G1 X161.115 Y151.635
G1 X161.399 Y151.905
G1 X163.283 Y154.117
G1 E.4 F4200
;TYPE:Inner wall
;WIDTH:0.805378
G1 F4925
G1 X163.273 Y154.937 E.04679
;WIDTH:0.81883
G1 X163.267 Y155.051 E.00663
G1 E-.4 F4200
G1 X163.458 Y149.305 F36000
G1 X155.855 Y153.076
G1 X156.734 Y155.058
G1 E.4 F4200
;WIDTH:0.819712
G1 F4925
G1 X156.709 Y154.369 E.04008
;WIDTH:0.786006
G1 X156.717 Y154.117 E.01401
G1 E-.4 F4200
G1 X157.489 Y170.418 F36000
G1 E.4 F4200
;WIDTH:0.623888
G1 F4925
G1 X156.636 Y170.405 E.03711
G1 X156.636 Y169.847 E.02425
;WIDTH:0.671126
G1 X156.66 Y169.701 E.00696
;WIDTH:0.718363
G1 X156.683 Y169.555 E.00748
;WIDTH:0.7656
G1 X156.707 Y169.409 E.008
;WIDTH:0.812837
G1 X156.73 Y169.263 E.00853
;WIDTH:0.860074
G1 X156.754 Y169.117 E.00905
G1 X156.787 Y169.186 E.0047
;WIDTH:0.829447
G1 X156.821 Y169.256 E.00453
;WIDTH:0.79882
G1 X156.909 Y169.434 E.01124
;WIDTH:0.755087
G1 X156.997 Y169.611 E.01059
;WIDTH:0.711354
G1 X157.086 Y169.789 E.00994
;WIDTH:0.667621
G1 X157.174 Y169.967 E.00929
;WIDTH:0.623888
G1 X157.483 Y170.408 E.0234
G1 E-.4 F4200
G1 X160.38 Y171.051 F36000
G1 E.4 F4200
;TYPE:Outer wall
;WIDTH:0.786594
G1 F4925
G1 X159.765 Y171.054 E.03423
;WIDTH:0.79311
G1 X159.671 Y171.048 E.00525
G1 E-.4 F4200
G1 X162.559 Y170.436 F36000
G1 E.4 F4200
;TYPE:Inner wall
;WIDTH:0.59247
G1 F4925
G2 X162.981 Y169.768 I-3.55 J-2.71 E.03256
;WIDTH:0.639024
G1 X163.057 Y169.602 E.00815
;WIDTH:0.685577
G1 X163.134 Y169.436 E.00879
;WIDTH:0.732131
G1 X163.21 Y169.27 E.00943
;WIDTH:0.778684
G1 X163.287 Y169.104 E.01006
G1 X163.31 Y169.25 E.00815
;WIDTH:0.732935
G1 X163.333 Y169.444 E.01009
;WIDTH:0.686114
G1 X163.356 Y169.638 E.0094
;WIDTH:0.639292
G1 X163.38 Y169.832 E.00872
;WIDTH:0.59247
G1 X163.38 Y170.405 E.02358
G2 X162.571 Y170.436 I.268 J17.806 E.0333
G1 E-.4 F4200
G1 X159.498 Y170.986 F36000
G1 E.4 F4200
;TYPE:Outer wall
;WIDTH:0.79311
G1 F4925
G1 X159.671 Y171.048 E.01035
G1 X159.45 Y171.067 E.01248
;WIDTH:0.755407
G1 X159.228 Y171.086 E.01185
;WIDTH:0.717703
G1 X159.007 Y171.105 E.01123
;WIDTH:0.679999
G3 X157.588 Y171.029 I-.1 J-11.346 E.06779
G3 X156.027 Y170.98 I.101 J-28.392 E.07448
G1 X156.027 Y148.79 E1.05796
G1 X163.973 Y148.79 E.37885
G1 X163.973 Y150.596 E.08611
G1 X163.961 Y170.985 E.97206
G2 X161.623 Y171.104 I.142 J25.802 E.11162
;WIDTH:0.682851
G1 X160.959 Y171.103 E.0318
;WIDTH:0.717432
G1 X160.766 Y171.086 E.00979
;WIDTH:0.752013
G1 X160.573 Y171.069 E.01029
;WIDTH:0.786594
G1 X160.38 Y171.051 E.01079
G1 X160.407 Y171.043 E.0016
;WIDTH:0.781447
G1 X160.605 Y170.971 E.01166
;WIDTH:0.747631
G1 X160.804 Y170.899 E.01112
;WIDTH:0.713815
G1 X161.002 Y170.827 E.01059
;WIDTH:0.679999
G1 X161.518 Y170.541 E.02816
M73 P3 R3
G1 X162.045 Y170.136 E.03166
G1 X162.417 Y169.582 E.0318
G1 X162.615 Y168.95 E.03158
G1 X162.645 Y168.302 E.03093
G1 X162.513 Y167.66 E.03123
G1 X162.225 Y167.072 E.03123
G1 X161.8 Y166.574 E.03123
G1 X161.264 Y166.197 E.03123
G1 X160.65 Y165.965 E.03126
G1 X159.994 Y165.893 E.0315
G1 X159.352 Y165.985 E.03093
G1 X158.746 Y166.235 E.03123
G1 X158.222 Y166.629 E.03126
G1 X157.809 Y167.145 E.0315
G1 X157.543 Y167.736 E.03093
G1 X157.43 Y168.382 E.03123
G1 X157.482 Y169.036 E.03132
G1 X157.705 Y169.666 E.03186
G1 X158.108 Y170.21 E.03225
G1 X158.658 Y170.597 E.03209
;WIDTH:0.688476
G1 X159.151 Y170.861 E.02699
;WIDTH:0.723354
G1 X159.325 Y170.923 E.00939
;WIDTH:0.758232
G1 X159.487 Y170.982 E.00923
G1 E-.4 F4200
G1 X160.841 Y170.528 F36000
G1 X161.088 Y170.412
G1 X161.319 Y170.266
G1 X161.533 Y170.087
G1 X161.716 Y169.892
G1 X163.303 Y168.176
G1 E.4 F4200
;TYPE:Inner wall
;WIDTH:0.765514
G1 F4925
G1 X163.293 Y168.992 E.04413
;WIDTH:0.778684
G1 X163.287 Y169.104 E.00615
G1 E-.4 F4200
G1 X159.418 Y171.445 F36000
G1 X156.754 Y169.117
G1 E.4 F4200
;WIDTH:0.860074
G1 F4925
G1 X156.729 Y168.426 E.04228
;WIDTH:0.826276
G1 X156.737 Y168.169 E.01508
G1 E-.4 F4200
G1 X162.508 Y158.987 F36000
G1 E.4 F4200
;TYPE:Bottom surface
;WIDTH:0.686732
G1 F4925
G1 X161.893 Y158.372 E.0419
G1 X161.37 Y158.589 E.02725
G1 X161.234 Y158.624 E.00679
G1 X162.221 Y159.611 E.06729
G1 X162.221 Y160.522 E.04387
G1 X160.476 Y158.777 E.11889
G1 X160.298 Y158.799 E.00866
G1 X159.702 Y158.799 E.0287
G1 X159.572 Y158.783 E.00633
G1 X162.221 Y161.432 E.18052
G1 X162.221 Y162.343 E.04387
G1 X158.36 Y158.482 E.26306
G3 X157.779 Y158.192 I.856 J-2.446 E.03139
G1 X157.779 Y158.811 E.02981
G1 X162.221 Y163.253 E.30268
G1 X162.221 Y164.164 E.04387
G1 X157.779 Y159.721 E.30268
G1 X157.779 Y160.632 E.04387
G1 X161.588 Y164.441 E.25955
G2 X160.416 Y164.179 I-1.414 J3.58 E.0581
G1 X157.779 Y161.542 E.17969
G1 X157.779 Y162.453 E.04387
G1 X159.519 Y164.193 E.11857
G2 X158.757 Y164.342 I.139 J2.735 E.03752
G1 X157.779 Y163.363 E.06667
G1 X157.779 Y164.274 E.04387
G1 X158.322 Y164.817 E.03699
; stop printing object Belt Clamp.stl id:0 copy 0
EXCLUDE_OBJECT_END NAME=Belt_Clamp.stl_id_0_copy_0
M106 S252
;LAYER_CHANGE
;Z:0.4
;HEIGHT:0.2
;BEFORE_LAYER_CHANGE
;0.4
G92 E0

;DSLR_SNAPSHOT
TIMELAPSE_TAKE_FRAME
M204 S15000
M140 S75 ; set bed temperature
; printing object Belt Clamp.stl id:0 copy 0
EXCLUDE_OBJECT_START NAME=Belt_Clamp.stl_id_0_copy_0
M204 S17500
G1 E-.4 F4200
G1 X157.532 Y167.326 Z.4 F36000
G1 X157.452 Y167.665
G1 X157.4 Y168.002
G1 X157.375 Y168.338
G1 X157.375 Y168.673
G1 X157.431 Y169.004
G1 X157.64 Y169.286
G1 X157.872 Y169.527
G1 X158.551 Y170.092
G1 X158.776 Y170.275
G1 X158.992 Y170.412
G1 X160.394 Y171.132
G1 E.4 F4200
M204 S10000
;TYPE:Outer wall
;WIDTH:0.949532
G1 F4316
G1 X159.765 Y171.135 E.04268
;WIDTH:0.957116
G1 X159.651 Y171.128 E.00781
M204 S15000
M204 S17500
G1 E-.4 F4200
G1 X155.686 Y167.573 F36000
G1 X155.974 Y165.884
G1 X156.018 Y165.451
G1 X156.617 Y155.76
G1 E.4 F4200
M204 S15000
;TYPE:Inner wall
;WIDTH:0.619999
G1 F4316
G2 X160 Y158.072 I3.369 J-1.299 E.18814
G1 X160.634 Y158.027 E.02745
G2 X163.383 Y155.759 I-.631 J-3.564 E.16089
G1 X163.383 Y167.104 E.48994
M73 P4 R3
G1 X162.994 Y166.392 E.03502
G2 X156.617 Y167.299 I-2.95 J2.128 E.34156
G1 X156.617 Y155.772 E.49779
M204 S17500
G1 E-.4 F4200
G1 X156.617 Y153.132 F36000
G1 E.4 F4200
M204 S15000
G1 F4316
G1 X156.617 Y149.814 E.14328
G1 X158.149 Y149.814 E.06614
;WIDTH:0.660232
G1 X158.424 Y149.834 E.01276
;WIDTH:0.700464
G1 X158.7 Y149.854 E.01359
;WIDTH:0.743459
G1 X158.825 Y149.876 E.00665
;WIDTH:0.786454
G1 X158.95 Y149.897 E.00705
;WIDTH:0.829449
G1 X159.075 Y149.919 E.00747
;WIDTH:0.872443
G1 X159.2 Y149.94 E.00787
G1 X160.211 Y149.923 E.06277
;WIDTH:0.871335
G1 X160.782 Y149.94 E.03541
G1 X160.885 Y149.918 E.00653
;WIDTH:0.827575
G1 X160.989 Y149.896 E.00624
;WIDTH:0.783814
G1 X161.093 Y149.874 E.00589
;WIDTH:0.740054
G1 X161.196 Y149.852 E.00553
;WIDTH:0.696293
G1 X161.3 Y149.83 E.00518
;WIDTH:0.652532
G1 X161.851 Y149.814 E.02513
;WIDTH:0.619999
G1 X163.383 Y149.814 E.06616
G1 X163.383 Y150.697 E.03814
G1 X163.383 Y153.132 E.10515
G2 X161.589 Y151.184 I-3.38 J1.312 E.11706
;WIDTH:0.652532
G1 X161.083 Y150.966 E.02513
;WIDTH:0.696293
G1 X161.013 Y150.926 E.00395
;WIDTH:0.740054
G1 X160.943 Y150.886 E.00422
;WIDTH:0.783814
G1 X160.873 Y150.845 E.0045
;WIDTH:0.827575
G1 X160.803 Y150.805 E.00473
;WIDTH:0.871335
G1 X160.733 Y150.765 E.005
G1 X159.782 Y150.715 E.05904
;WIDTH:0.879291
G1 X159.182 Y150.774 E.03774
G1 X159.113 Y150.816 E.00506
;WIDTH:0.834585
G1 X159.045 Y150.859 E.00477
;WIDTH:0.789878
G1 X158.976 Y150.901 E.00452
;WIDTH:0.745171
G1 X158.908 Y150.944 E.00423
;WIDTH:0.700464
G1 X158.5 Y151.151 E.02249
;WIDTH:0.660232
G1 X158.093 Y151.358 E.02111
;WIDTH:0.619999
G2 X156.622 Y153.121 I2.056 J3.212 E.10071
M204 S17500
G1 E-.4 F4200
G1 X157.951 Y170.719 F36000
G1 E.4 F4200
M204 S15000
G1 F4316
G3 X156.04 Y170.707 I-.637 J-47.79 E.08254
G1 X156.04 Y169.897 E.03496
;WIDTH:0.66019
G1 X156.06 Y169.718 E.00832
;WIDTH:0.700381
G1 X156.081 Y169.539 E.00886
;WIDTH:0.740571
G1 X156.101 Y169.36 E.0094
;WIDTH:0.780762
G1 X156.121 Y169.181 E.00995
;WIDTH:0.820952
G1 X156.141 Y169.002 E.01049
G1 X156.137 Y168.115 E.05165
;WIDTH:0.814267
