; HEADER_BLOCK_START
; generated by OrcaSlicer 1.6.3 on 2023-12-04 at 16:51:11
; total layer number: 121
; HEADER_BLOCK_END

; THUMBNAIL_BLOCK_START
; THUMBNAIL_BLOCK_END

; external perimeters extrusion width = 0.62mm
; perimeters extrusion width = 0.62mm
; infill extrusion width = 0.65mm
; solid infill extrusion width = 0.65mm
; top infill extrusion width = 0.65mm
; first layer extrusion width = 0.68mm

; EXECUTABLE_BLOCK_START
EXCLUDE_OBJECT_DEFINE NAME=BlTouch_Mount.stl_id_0_copy_0 CENTER=160,160 POLYGON=[[145.499,166.875],[145.527,166.4],[145.612,165.932],[145.751,165.477],[145.943,165.042],[146.186,164.633],[146.476,164.256],[162.691,147.375],[171.001,147.375],[174.499,147.375],[174.501,147.375],[174.501,152.375],[174.5,166.885],[174.482,167.047],[174.448,167.149],[174.429,167.202],[174.403,167.25],[174.345,167.341],[172.723,169.455],[172.61,169.573],[172.474,169.664],[172.322,169.723],[164.076,171.934],[163.045,172.182],[162.002,172.375],[160.95,172.514],[159.893,172.597],[158.832,172.625],[155.565,172.625],[155.521,172.623],[155.478,172.617],[155.435,172.608],[153.599,172.116],[148.463,170.739],[148.012,170.588],[147.581,170.385],[147.178,170.133],[146.808,169.835],[146.476,169.494],[146.186,169.117],[145.943,168.708],[145.751,168.273],[145.612,167.818],[145.527,167.35],[145.499,166.875]]
M73 P0 R8
;TYPE:Custom
M104 S0
M140 S0
START_PRINT BED=75 HOTEND=225
G90
G21
M83 ; use relative distances for extrusion
; filament start gcode
SET_PRESSURE_ADVANCE ADVANCE=0.032; Override pressure advance value
M106 S0
;LAYER_CHANGE
;Z:0.2
;HEIGHT:0.2
;BEFORE_LAYER_CHANGE
;0.2
G92 E0

;DSLR_SNAPSHOT
TIMELAPSE_TAKE_FRAME
M204 S10000
G1 E-.4 F4200
G1 X158.831 Y147.654 F48000
G1 Z.2
G1 E.4 F4200
;TYPE:Skirt
;WIDTH:0.68
G1 F7200
G1 X160.76 Y145.58 E.13503
G1 X162.691 Y144.738 E.10044
G1 X174.292 Y144.738 E.55309
G1 X175.676 Y145.13 E.06859
G1 X176.648 Y146.191 E.06859
G1 X176.929 Y147.375 E.05802
G1 X176.929 Y166.559 E.91462
G1 X176.912 Y166.897 E.01612
G1 X176.612 Y167.978 E.05352
G1 X176.289 Y168.509 E.0296
G1 X174.235 Y171.143 E.15926
G1 X173.592 Y171.614 E.03802
G1 X172.906 Y171.907 E.03555
G1 X163.445 Y174.404 E.4665
G1 X162.285 Y174.616 E.05621
G1 X160.078 Y174.847 E.10581
G1 X155.58 Y174.883 E.21445
G1 X154.835 Y174.784 E.03584
G1 X147.32 Y172.736 E.37137
G1 X146 Y172.057 E.07077
G1 X144.877 Y171.086 E.07077
G1 X144.234 Y170.248 E.05036
G1 X143.701 Y169.215 E.0554
G1 X143.461 Y168.501 E.03595
G1 X143.274 Y167.461 E.05036
G1 X143.274 Y166.289 E.0559
G1 X143.461 Y165.249 E.05036
G1 X143.871 Y164.151 E.0559
G1 X144.234 Y163.502 E.03545
G1 X144.824 Y162.722 E.04662
G1 X158.77 Y147.72 E.97656
; printing object BlTouch Mount.stl id:0 copy 0
EXCLUDE_OBJECT_START NAME=BlTouch_Mount.stl_id_0_copy_0
G1 E-.4 F4200
G1 X164.405 Y149.089 F48000
G1 E.4 F4200
;TYPE:Inner wall
;WIDTH:0.679999
G1 F7200
G1 X172.578 Y149.089 E.38964
G1 X172.578 Y153.175 E.19482
G1 X172.578 Y166.198 E.62087
G1 X171.344 Y167.811 E.09681
G1 X171.248 Y167.846 E.0049
G1 X171.352 Y167.248 E.02894
G1 X171.349 Y166.623 E.0298
G1 X171.235 Y166.009 E.0298
G1 X171.013 Y165.424 E.0298
G1 X170.691 Y164.889 E.0298
G1 X170.278 Y164.42 E.0298
G1 X169.788 Y164.032 E.0298
G1 X169.236 Y163.738 E.0298
G1 X168.64 Y163.547 E.02982
G1 X168.006 Y163.466 E.0305
G1 X167.397 Y163.496 E.02907
G1 X166.788 Y163.638 E.0298
G1 X166.214 Y163.886 E.0298
G2 X164.405 Y167.248 I1.722 J3.095 E.19227
G1 X164.516 Y167.871 E.03015
G1 X164.735 Y168.457 E.02983
G1 X165.05 Y168.988 E.02941
G1 X165.411 Y169.41 E.0265
G3 X162.609 Y170.134 I-15.222 J-53.112 E.13801
G3 X160.113 Y170.48 I-3.921 J-19.127 E.12023
G1 X160.521 Y170.284 E.02161
G1 X161.042 Y169.93 E.03003
G1 X161.496 Y169.501 E.02977
G1 X161.881 Y168.997 E.03022
G1 X162.199 Y168.389 E.03273
G1 X162.386 Y167.835 E.02786
G1 X162.491 Y167.212 E.03012
G1 X162.495 Y166.58 E.03012
G1 X162.396 Y165.956 E.03012
G1 X162.2 Y165.358 E.03003
G1 X161.912 Y164.802 E.02986
G1 X161.531 Y164.288 E.03047
G1 X161.077 Y163.849 E.03013
G1 X160.559 Y163.488 E.03012
G1 X159.989 Y163.215 E.03012
G1 X159.382 Y163.037 E.03012
G1 X158.757 Y162.959 E.03003
G1 X158.131 Y162.982 E.02986
G1 X157.505 Y163.108 E.03047
G1 X156.913 Y163.33 E.03013
G1 X156.322 Y163.678 E.0327
G1 X155.883 Y164.037 E.02704
G1 X155.471 Y164.497 E.02944
G1 X155.1 Y165.09 E.03335
G1 X154.878 Y165.605 E.02676
G1 X154.721 Y166.231 E.03075
G1 X154.669 Y166.87 E.03056
G2 X154.987 Y168.428 I4.221 J-.052 E.07627
G1 X155.281 Y168.981 E.02986
G1 X155.661 Y169.483 E.03003
G1 X156.118 Y169.92 E.03012
G1 X156.639 Y170.277 E.03013
G1 X157.179 Y170.531 E.02847
G1 X155.775 Y170.531 E.06697
G1 X151.822 Y169.471 E.1951
G1 X152.311 Y168.935 E.03457
G1 X152.634 Y168.4 E.0298
G2 X152.986 Y166.831 I-3.417 J-1.591 E.07727
G1 X152.924 Y166.219 E.02932
G1 X152.757 Y165.635 E.02896
G1 X152.485 Y165.075 E.02969
G1 X152.195 Y164.67 E.02375
G1 X151.762 Y164.228 E.02951
G2 X164.174 Y154.017 I-7.601 J-21.89 E.78255
G1 X164.344 Y153.627 E.02026
G1 X164.405 Y153.19 E.02104
G1 X164.405 Y149.101 E.19495
G1 X163.768 Y148.452 F48000
G1 F7200
G1 X173.215 Y148.452 E.45038
G1 X173.215 Y153.175 E.22519
G1 X173.215 Y166.414 E.63116
G1 X171.71 Y168.382 E.11813
G1 X170.012 Y168.837 E.08379
G2 X165.207 Y167.931 I-2.132 J-1.889 E.57287
G1 X165.453 Y168.447 E.02729
G2 X166.977 Y169.65 I2.411 J-1.487 E.09445
G1 X163.712 Y170.525 E.16112
G3 X160.357 Y171.1 I-4.824 J-18.065 E.16253
;WIDTH:0.700106
G1 X159.815 Y171.132 E.02669
;WIDTH:0.742184
G1 X159.691 Y171.114 E.00657
;WIDTH:0.784261
G1 X159.566 Y171.097 E.00697
;WIDTH:0.826339
G1 X159.442 Y171.079 E.00737
;WIDTH:0.868416
G1 X159.318 Y171.061 E.00776
;WIDTH:0.878766
G2 X158.457 Y171.074 I-.001 J27.748 E.05384
;WIDTH:0.903203
G1 X157.844 Y171.057 E.03951
G1 X157.719 Y171.079 E.00814
;WIDTH:0.858563
G1 X157.595 Y171.101 E.00772
;WIDTH:0.813922
G1 X157.47 Y171.124 E.00729
;WIDTH:0.769281
G1 X157.346 Y171.146 E.00687
;WIDTH:0.72464
G1 X157.221 Y171.168 E.00645
;WIDTH:0.679999
G1 X155.691 Y171.169 E.07298
G3 X150.092 Y169.664 I259.817 J-978.232 E.27638
G2 X150.658 Y164.271 I-.604 J-2.79 E.34108
G1 X150.074 Y164.088 E.02916
G2 X163.687 Y153.574 I-5.956 J-21.782 E.84129
G1 X163.768 Y153.19 E.01871
G1 X163.768 Y148.464 E.22532
G1 X163.131 Y147.815 F48000
;TYPE:Outer wall
G1 F7200
G1 X173.852 Y147.815 E.51113
G1 X173.852 Y153.175 E.25556
G1 X173.852 Y166.462 E.63345
G1 X173.815 Y166.678 E.01044
G1 X172.478 Y168.426 E.10491
G1 X172.049 Y168.951 E.03234
G1 X169.993 Y169.502 E.10148
;WIDTH:0.724408
G1 X169.589 Y169.587 E.02107
;WIDTH:0.768817
G2 X168.661 Y169.817 I1.389 J7.582 E.05195
;WIDTH:0.786471
G2 X167.884 Y170.03 I.796 J4.434 E.04491
;WIDTH:0.750981
G1 X167.623 Y170.118 E.01458
;WIDTH:0.71549
G1 X167.362 Y170.206 E.01385
;WIDTH:0.679999
G1 X163.869 Y171.142 E.17242
G3 X158.826 Y171.805 I-5.141 J-19.586 E.24317
G3 X155.605 Y171.805 I-1.506 J-1676.934 E.15356
G1 X149.927 Y170.281 E.28028
;WIDTH:0.720331
G1 X149.804 Y170.228 E.00677
;WIDTH:0.760662
G1 X149.682 Y170.174 E.00718
;WIDTH:0.800993
G1 X149.56 Y170.12 E.00758
;WIDTH:0.841324
G1 X149.437 Y170.066 E.00798
;WIDTH:0.881655
G1 X149.315 Y170.013 E.00839
G1 X148.702 Y169.863 E.03962
;WIDTH:0.846614
G1 X148.06 Y169.609 E.04153
;WIDTH:0.842024
G1 X147.832 Y169.465 E.01612
;WIDTH:0.839963
G1 X147.373 Y169.115 E.03439
;WIDTH:0.843542
G1 X146.915 Y168.566 E.04286
G1 X146.621 Y167.998 E.0383
;WIDTH:0.842099
G1 X146.54 Y167.73 E.01676
;WIDTH:0.83922
G1 X146.425 Y167.165 E.03435
;WIDTH:0.843402
G1 X146.438 Y166.461 E.04219
M73 P1 R8
G1 X146.589 Y165.84 E.03827
;WIDTH:0.842359
G1 X146.708 Y165.574 E.01744
;WIDTH:0.838702
G1 X146.993 Y165.073 E.03432
;WIDTH:0.843433
G1 X147.457 Y164.558 E.04154
G1 X147.977 Y164.187 E.03826
;WIDTH:0.842773
G1 X148.251 Y164.06 E.01813
;WIDTH:0.84438
G1 X148.723 Y163.877 E.03037
;WIDTH:0.871233
G1 X149.221 Y163.757 E.03175
G1 X149.382 Y163.689 E.01084
;WIDTH:0.823425
G1 X149.543 Y163.621 E.01021
;WIDTH:0.775616
G1 X149.705 Y163.553 E.00958
;WIDTH:0.727808
G1 X149.866 Y163.485 E.00896
;WIDTH:0.679999
G2 X163.085 Y153.355 I-5.766 J-21.215 E.81433
G1 X163.131 Y153.19 E.00818
G1 X163.131 Y147.827 E.25569
G1 X163.235 Y147.875
G1 E-.4 F4200
G1 X163.647 Y148.331 F48000
G1 X171.639 Y169.024
G1 X168.086 Y169.203
G1 E.4 F4200
;WIDTH:0.786471
G1 F7200
G1 X168.048 Y169.211 E.00215
G1 X167.804 Y169.171 E.01375
;WIDTH:0.750981
G1 X167.561 Y169.131 E.01309
;WIDTH:0.71549
G1 X167.317 Y169.092 E.01244
;WIDTH:0.679999
G1 X166.892 Y168.932 E.02164
G3 X165.726 Y167.472 I1.064 J-2.045 E.09172
G1 X165.667 Y166.973 E.02396
G3 X169.842 Y165.925 I2.215 J-.014 E.28126
G1 X170.019 Y166.404 E.02436
G3 X169.459 Y168.5 I-2.129 J.554 E.10816
;WIDTH:0.724408
G1 X169.173 Y168.735 E.01887
;WIDTH:0.768817
G1 X168.888 Y168.97 E.0201
G1 X168.447 Y169.132 E.02548
;WIDTH:0.786471
G1 X168.098 Y169.201 E.01981
G1 E-.4 F4200
G1 X161.649 Y165.707 F48000
G1 E.4 F4200
;TYPE:Inner wall
;WIDTH:0.679999
G1 F7200
G1 X161.68 Y165.775 E.00352
G3 X160.043 Y169.817 I-3.098 J1.098 E.22735
;WIDTH:0.708416
G1 X159.797 Y169.93 E.01346
;WIDTH:0.736832
G1 X159.552 Y170.043 E.01404
;WIDTH:0.774858
G1 X159.455 Y170.086 E.00581
;WIDTH:0.812884
G1 X159.358 Y170.129 E.00611
;WIDTH:0.85091
G1 X159.261 Y170.172 E.00641
;WIDTH:0.888935
G1 X159.164 Y170.215 E.00672
G1 X158.661 Y170.251 E.03194
;WIDTH:0.883628
G1 X158.117 Y170.227 E.03426
;WIDTH:0.903203
G3 X157.852 Y170.16 I-.046 J-.375 E.01801
;WIDTH:0.858563
G1 X157.756 Y170.11 E.00657
;WIDTH:0.813922
G1 X157.66 Y170.061 E.00621
;WIDTH:0.769281
G1 X157.565 Y170.012 E.00585
;WIDTH:0.72464
G1 X157.469 Y169.962 E.00549
;WIDTH:0.679999
G3 X160.776 Y164.426 I1.123 J-3.085 E.55101
G3 X161.458 Y165.283 I-2.194 J2.447 E.05248
G1 X161.644 Y165.696 E.0216
G1 X161.023 Y165.857 F48000
;TYPE:Outer wall
G1 F7200
G1 X161.064 Y165.958 E.00521
G3 X160.475 Y168.73 I-2.502 J.917 E.14245
G1 X159.969 Y169.125 E.03058
G1 X159.443 Y169.38 E.02788
G3 X157.324 Y169.203 I-.848 J-2.611 E.10409
G3 X156.386 Y168.348 I1.473 J-2.559 E.06097
G1 X156.139 Y167.871 E.02561
G3 X156.006 Y166.289 I2.376 J-.998 E.07694
G1 X156.19 Y165.765 E.02649
G1 X156.519 Y165.221 E.03031
G3 X157.18 Y164.632 I2.067 J1.654 E.04243
G1 X157.711 Y164.383 E.02796
G1 X158.341 Y164.239 E.03078
G1 X158.884 Y164.249 E.02593
G3 X160.342 Y164.892 I-.286 J2.618 E.07718
G3 X160.887 Y165.574 I-1.781 J1.983 E.04179
G1 X161.018 Y165.846 E.01439
G1 X161.045 Y165.859
G1 E-.4 F4200
G1 X161.486 Y165.623 F48000
G1 X161.327 Y165.289
G1 X161.033 Y164.865
G1 X160.678 Y164.497
G1 X160.269 Y164.192
G1 X159.816 Y163.957
G1 X159.331 Y163.797
G1 X158.827 Y163.717
G1 X158.322 Y163.719
G1 X157.813 Y163.804
G1 X157.329 Y163.968
G1 X156.879 Y164.208
G1 X151.279 Y168.294
G1 X150.904 Y168.484
G1 X150.539 Y168.6
G1 X150.17 Y168.661
G1 X149.825 Y168.673
G1 X149.499 Y168.65
G1 X149.182 Y168.622
G1 X148.875 Y168.537
G1 X148.588 Y168.399
G1 X147.306 Y167.506
G1 E.4 F4200
;WIDTH:0.842099
G1 F7200
G1 X147.221 Y167.162 E.02116
;WIDTH:0.843402
G1 X147.224 Y166.609 E.03312
G1 X147.357 Y166.058 E.03398
;WIDTH:0.842359
G1 X147.592 Y165.597 E.03092
;WIDTH:0.843433
G1 X147.952 Y165.185 E.03281
G1 X148.414 Y164.856 E.03396
;WIDTH:0.84438
G1 X148.922 Y164.652 E.03286
;WIDTH:0.871233
G1 X149.329 Y164.571 E.02569
G1 X149.474 Y164.605 E.00921
;WIDTH:0.823425
G1 X149.618 Y164.638 E.00868
;WIDTH:0.775616
G1 X149.763 Y164.672 E.00815
;WIDTH:0.727808
G1 X149.908 Y164.705 E.00762
;WIDTH:0.679999
G1 X149.932 Y164.709 E.00115
G1 X150.434 Y164.867 E.0251
G1 X150.824 Y165.1 E.02164
G1 X151.198 Y165.465 E.02492
G3 X151.689 Y167.201 I-1.762 J1.436 E.08845
G1 X151.519 Y167.767 E.02819
G1 X151.248 Y168.233 E.02573
G3 X150.251 Y168.958 I-1.896 J-1.56 E.05942
;WIDTH:0.717518
G1 X150.072 Y169.01 E.00941
;WIDTH:0.755036
G1 X149.892 Y169.061 E.00993
;WIDTH:0.792554
G1 X149.713 Y169.113 E.01046
;WIDTH:0.830072
G1 X149.534 Y169.164 E.01098
;WIDTH:0.855864
G1 X149.498 Y169.177 E.00235
;WIDTH:0.881655
G1 X149.461 Y169.19 E.00242
G1 X148.958 Y169.103 E.03206
;WIDTH:0.846614
G1 X148.382 Y168.878 E.03721
;WIDTH:0.842024
G1 X147.969 Y168.586 E.03024
;WIDTH:0.843542
G1 X147.605 Y168.162 E.03345
G1 X147.344 Y167.658 E.034
;WIDTH:0.842099
G1 X147.309 Y167.517 E.00869
G1 E-.4 F4200
G1 X147.866 Y166.177 F48000
G1 X148.017 Y165.897
G1 X148.216 Y165.648
G1 X148.455 Y165.439
G1 X148.729 Y165.275
G1 X154.233 Y162.37
G1 X155.235 Y161.833
G1 X156.209 Y161.247
G1 X157.152 Y160.611
G1 X158.041 Y159.944
G1 X171.074 Y149.28
G1 E.4 F4200
;TYPE:Bottom surface
;WIDTH:0.691899
G1 F7200
G1 X172.1 Y150.307 E.07049
G1 X172.1 Y151.224 E.04457
G1 X170.442 Y149.567 E.11384
G1 X169.525 Y149.567 E.04457
G1 X172.1 Y152.142 E.17688
G1 X172.1 Y153.06 E.04457
G1 X168.607 Y149.567 E.23992
G1 X167.689 Y149.567 E.04457
G1 X172.1 Y153.978 E.30295
G1 X172.1 Y154.896 E.04457
G1 X166.771 Y149.567 E.36599
G1 X165.853 Y149.567 E.04457
G1 X172.1 Y155.813 E.42903
G1 X172.1 Y156.731 E.04457
G1 X164.936 Y149.567 E.49207
G1 X164.883 Y149.567 E.00256
G1 X164.883 Y150.432 E.04201
G1 X172.1 Y157.649 E.49569
G1 X172.1 Y158.567 E.04457
G1 X164.883 Y151.35 E.49569
G1 X164.883 Y152.268 E.04457
G1 X172.1 Y159.485 E.49569
G1 X172.1 Y160.402 E.04457
G1 X164.883 Y153.185 E.49569
G3 X164.733 Y153.954 I-2.023 J.005 E.03826
G1 X172.1 Y161.32 E.50595
G1 X172.1 Y162.238 E.04457
G1 X164.406 Y154.544 E.52845
G1 X164.051 Y155.107 E.03231
G1 X172.1 Y163.156 E.55285
G1 X172.1 Y164.074 E.04457
G1 X163.692 Y155.666 E.57746
G1 X163.31 Y156.202 E.03196
G1 X172.1 Y164.991 E.6037
G1 X172.1 Y165.909 E.04457
G1 X162.921 Y156.731 E.63042
G1 X162.515 Y157.243 E.03173
G1 X168.287 Y163.014 E.3964
G2 X167.374 Y163.019 I-.439 J3.228 E.04448
G1 X162.098 Y157.743 E.36233
G1 X161.668 Y158.231 E.03158
G1 X166.626 Y163.189 E.34055
G2 X165.991 Y163.471 I.837 J2.744 E.03386
G1 X161.227 Y158.707 E.32719
G1 X160.773 Y159.171 E.03152
G1 X165.435 Y163.833 E.3202
G2 X164.963 Y164.279 I1.555 J2.121 E.03161
G1 X160.303 Y159.619 E.32008
G3 X159.825 Y160.059 I-25.345 J-27.017 E.03155
G1 X164.558 Y164.792 E.32509
G2 X164.242 Y165.393 I2.563 J1.732 E.03307
G1 X159.329 Y160.481 E.33742
G3 X158.827 Y160.897 I-4.418 J-4.82 E.03167
G1 X164.015 Y166.084 E.35628
G2 X163.924 Y166.911 I3.418 J.792 E.04052
G1 X162.859 Y165.846 E.07315
M73 P2 R8
G1 X162.67 Y165.237 E.03098
G1 X162.356 Y164.605 E.03427
G1 X161.941 Y164.028 E.03451
G1 X161.471 Y163.552 E.03253
G1 X160.934 Y163.153 E.03248
G1 X160.28 Y162.813 E.0358
G2 X159.616 Y162.603 I-1.491 J3.56 E.03385
G1 X158.303 Y161.29 E.09019
G3 X157.776 Y161.681 I-4.109 J-4.981 E.03187
G1 X158.581 Y162.486 E.05525
G2 X157.74 Y162.563 I-.136 J3.13 E.04112
G1 X157.228 Y162.051 E.03517
G3 X156.67 Y162.411 I-4.014 J-5.618 E.03226
G1 X157.025 Y162.766 E.02441
G2 X156.404 Y163.062 I1.701 J4.365 E.03347
G1 X156.098 Y162.756 E.021
G3 X155.512 Y163.088 I-3.993 J-6.386 E.03273
G1 X155.858 Y163.434 E.02378
G2 X155.38 Y163.874 I1.969 J2.615 E.0316
G1 X154.914 Y163.408 E.03204
G3 X154.293 Y163.705 I-3.229 J-5.937 E.03343
G1 X154.971 Y164.383 E.04657
G2 X154.633 Y164.963 I2.811 J2.028 E.03264
G1 X153.67 Y163.999 E.06619
G3 X153.015 Y164.263 I-2.581 J-5.462 E.03427
G1 X154.377 Y165.625 E.09354
G2 X154.22 Y166.385 I3.683 J1.157 E.03779
G1 X153.143 Y165.308 E.07401
G1 X153.366 Y165.984 E.03461
G1 X153.447 Y166.53 E.02681
G1 X154.211 Y167.294 E.05245
G2 X154.507 Y168.508 I4.049 J-.345 E.06092
G1 X153.425 Y167.426 E.07432
G3 X153.247 Y168.165 I-5.185 J-.86 E.03697
G1 X154.877 Y169.796 E.11201
G1 X153.623 Y169.459 E.06308
G1 X152.75 Y168.586 E.05999
G1 E-.4 F4200
G1 X157.666 Y169.618 F48000
G1 X158.12 Y169.687
G1 X158.578 Y169.711
G1 X159.035 Y169.687
G1 X159.494 Y169.614
G1 X159.958 Y169.489
G1 X160.412 Y169.303
G1 X160.85 Y169.056
G1 X161.19 Y168.677
G1 X162.685 Y166.59
G1 E.4 F4200
G1 F7200
G1 X164.041 Y167.946 E.09314
G2 X164.581 Y169.138 I3.64 J-.93 E.06383
G1 X164.371 Y169.194 E.01054
G1 X162.893 Y167.716 E.1015
G3 X162.693 Y168.434 I-3.564 J-.608 E.03624
G1 X163.647 Y169.388 E.06553
G3 X162.912 Y169.57 I-3.847 J-13.941 E.0368
G1 X162.399 Y169.057 E.03525
G3 X162.029 Y169.605 I-3.529 J-1.984 E.03214
G1 X162.401 Y169.977 E.02556
; stop printing object BlTouch Mount.stl id:0 copy 0
