; HEADER_BLOCK_START
; generated by OrcaSlicer 1.6.3 on 2023-11-19 at 00:18:51
; total layer number: 218
; HEADER_BLOCK_END

; THUMBNAIL_BLOCK_START
; THUMBNAIL_BLOCK_END

; external perimeters extrusion width = 0.62mm
; perimeters extrusion width = 0.62mm
; infill extrusion width = 0.65mm
; solid infill extrusion width = 0.65mm
; top infill extrusion width = 0.65mm
; first layer extrusion width = 0.68mm

; external perimeters extrusion width = 0.62mm
; perimeters extrusion width = 0.62mm
; infill extrusion width = 0.65mm
; solid infill extrusion width = 0.65mm
; top infill extrusion width = 0.65mm
; first layer extrusion width = 0.68mm

; external perimeters extrusion width = 0.62mm
; perimeters extrusion width = 0.62mm
; infill extrusion width = 0.65mm
; solid infill extrusion width = 0.65mm
; top infill extrusion width = 0.65mm
; first layer extrusion width = 0.68mm

; EXECUTABLE_BLOCK_START
EXCLUDE_OBJECT_DEFINE NAME=Body1_id_0_copy_0 CENTER=165,194 POLYGON=[[60,150.875],[60.0428,150.222],[60.1704,149.581],[60.3806,148.962],[60.6699,148.375],[61.0332,147.831],[61.4645,147.339],[61.9562,146.908],[62.5,146.545],[63.0866,146.256],[63.7059,146.045],[64.3474,145.918],[65,145.875],[235.833,145.875],[265,145.875],[265.653,145.918],[266.294,146.045],[266.913,146.256],[267.5,146.545],[268.044,146.908],[268.536,147.339],[268.967,147.831],[269.33,148.375],[269.619,148.962],[269.83,149.581],[269.957,150.222],[270,150.875],[270,237.125],[269.957,237.778],[269.83,238.419],[269.619,239.038],[269.33,239.625],[268.967,240.169],[268.536,240.661],[268.044,241.092],[267.5,241.455],[266.913,241.744],[266.294,241.955],[265.653,242.082],[265,242.125],[94.1671,242.125],[65,242.125],[64.3474,242.082],[63.7059,241.955],[63.0866,241.744],[62.5,241.455],[61.9562,241.092],[61.4645,240.661],[61.0332,240.169],[60.6699,239.625],[60.3806,239.038],[60.1704,238.419],[60.0428,237.778],[60,237.125],[60,150.875]]
EXCLUDE_OBJECT_DEFINE NAME=spool-roll-inserts.stl_id_1_copy_0 CENTER=207.439,179.991 POLYGON=[[160.939,168.491],[161.939,167.491],[168.439,165.991],[246.439,165.991],[252.939,167.491],[253.939,168.491],[253.939,191.491],[252.939,192.491],[246.439,193.991],[168.439,193.991],[161.939,192.491],[160.939,191.491],[160.939,168.491]]
EXCLUDE_OBJECT_DEFINE NAME=spool-roll-inserts.stl_id_2_copy_0 CENTER=125.834,212.577 POLYGON=[[79.3342,201.077],[80.3342,200.077],[86.8342,198.577],[164.834,198.577],[171.334,200.077],[172.334,201.077],[172.334,224.077],[171.334,225.077],[164.834,226.577],[86.8342,226.577],[80.3342,225.077],[79.3342,224.077],[79.3342,201.077]]
M73 P0 R80
;TYPE:Custom
M104 S0
M140 S0
START_PRINT BED=75 HOTEND=215
G90
G21
M83 ; use relative distances for extrusion
; filament start gcode
SET_PRESSURE_ADVANCE ADVANCE=0.032; Override pressure advance value
M106 S0
;LAYER_CHANGE
;Z:0.2
;HEIGHT:0.2
;BEFORE_LAYER_CHANGE
;0.2
G92 E0

;DSLR_SNAPSHOT
TIMELAPSE_TAKE_FRAME
M204 S10000
G1 E-.4 F4200
G1 X61.92 Y143.89 F36000
G1 Z.2
G1 E.4 F4200
;TYPE:Skirt
;WIDTH:0.68
G1 F7200
G1 X63.362 Y143.431 E.07213
G1 X65 Y143.238 E.07865
G1 X265.006 Y143.239 E9.53552
M73 P0 R79
G1 X266.638 Y143.431 E.07834
G1 X268.08 Y143.89 E.07213
G1 X269.509 Y144.716 E.07868
G1 X270.519 Y145.602 E.06408
G1 X271.523 Y146.91 E.07859
G1 X272.117 Y148.114 E.064
G1 X272.544 Y149.708 E.07867
G1 X272.637 Y150.875 E.05582
G1 X272.631 Y237.299 E4.12036
G1 X272.416 Y238.934 E.07859
G1 X272.117 Y239.886 E.0476
G1 X271.695 Y240.791 E.04761
G1 X271.159 Y241.634 E.0476
G1 X270.518 Y242.399 E.04761
G1 X269.783 Y243.074 E.0476
G1 X268.965 Y243.648 E.0476
G1 X268.08 Y244.11 E.04761
G1 X266.638 Y244.569 E.07213
G1 X265 Y244.762 E.07865
G1 X65 Y244.762 E9.53521
G1 X62.858 Y244.452 E.10318
G1 X61.92 Y244.11 E.0476
G1 X61.035 Y243.648 E.0476
G1 X60.217 Y243.074 E.0476
G1 X59.482 Y242.399 E.0476
G1 X58.841 Y241.634 E.04761
G1 X58.015 Y240.205 E.07867
G1 X57.584 Y238.934 E.064
G1 X57.411 Y237.95 E.04761
G1 X57.363 Y237.125 E.03941
G1 X57.369 Y150.701 E4.12036
G1 X57.584 Y149.066 E.07859
G1 X57.883 Y148.114 E.0476
G1 X58.305 Y147.209 E.04761
G1 X58.841 Y146.366 E.0476
G1 X59.482 Y145.601 E.04761
G1 X60.217 Y144.926 E.0476
G1 X61.035 Y144.352 E.0476
G1 X61.84 Y143.932 E.04331
; printing object spool-roll-inserts.stl id:1 copy 0
EXCLUDE_OBJECT_START NAME=spool-roll-inserts.stl_id_1_copy_0
G1 E-.4 F4200
G1 X244.77 Y192.135 F36000
G1 E.4 F4200
;TYPE:Inner wall
;WIDTH:0.679999
G1 F7200
G1 X244.743 Y192.272 E.00667
G1 X170.135 Y192.272 E3.55702
G1 X170.032 Y191.757 E.02504
G1 X169.839 Y191.415 E.01875
G2 X169.046 Y190.848 I-1.384 J1.097 E.04707
G1 X168.56 Y190.772 E.02346
G1 X162.653 Y190.772 E.28164
G1 X162.653 Y186.21 E.21751
G1 X168.56 Y186.21 E.28164
G1 X168.812 Y186.19 E.01206
G1 X169.25 Y186.052 E.02189
G1 X169.556 Y185.86 E.01723
G1 X169.839 Y185.567 E.01942
G1 X170.032 Y185.224 E.01875
G1 X170.135 Y184.709 E.02504
G1 X244.743 Y184.709 E3.55702
G1 X244.845 Y185.224 E.02504
G1 X245.039 Y185.567 E.01875
G2 X245.831 Y186.134 I1.384 J-1.097 E.04707
G1 X246.317 Y186.21 E.02346
G1 X252.224 Y186.21 E.28164
G1 X252.224 Y190.772 E.21751
G1 X246.317 Y190.772 E.28164
G1 X246.065 Y190.792 E.01206
G1 X245.627 Y190.929 E.02189
G1 X245.321 Y191.122 E.01723
G1 X245.039 Y191.415 E.01942
G1 X244.845 Y191.757 E.01875
G1 X244.772 Y192.124 E.0178
G1 X245.384 Y192.25 F36000
G1 F7200
G1 X245.362 Y192.365 E.00557
G1 X245.362 Y192.91 E.02598
G1 X169.516 Y192.91 E3.61603
G1 X169.516 Y192.365 E.02598
G1 X169.444 Y192 E.01771
G2 X168.852 Y191.455 I-.947 J.433 E.0394
G1 X168.56 Y191.409 E.01408
G1 X162.385 Y191.409 E.2944
G1 X162.016 Y191.039 E.02491
G1 X162.016 Y185.942 E.24302
G1 X162.385 Y185.573 E.02491
G1 X168.56 Y185.573 E.2944
G2 X169.222 Y185.306 I-.063 J-1.112 E.03466
G1 X169.444 Y184.981 E.01872
G1 X169.516 Y184.617 E.01771
G1 X169.516 Y184.072 E.02598
G1 X245.362 Y184.072 E3.61603
G1 X245.362 Y184.617 E.02598
G1 X245.434 Y184.981 E.01771
G2 X246.025 Y185.527 I.947 J-.433 E.0394
G1 X246.317 Y185.573 E.01408
G1 X252.492 Y185.573 E.2944
G1 X252.862 Y185.942 E.02491
G1 X252.862 Y186.203 E.01245
G1 X252.862 Y191.039 E.23057
G1 X252.492 Y191.409 E.02491
G1 X246.234 Y191.413 E.29838
G1 X245.903 Y191.503 E.01636
G1 X245.655 Y191.676 E.01441
G1 X245.434 Y192 E.01872
G1 X245.387 Y192.238 E.01157
G1 X245.999 Y192.365 F36000
;TYPE:Outer wall
G1 F7200
G1 X245.999 Y193.547 E.05636
G1 X168.879 Y193.547 E3.67677
G1 X168.879 Y192.365 E.05636
G2 X168.56 Y192.046 I-.346 J.028 E.02337
G1 X162.121 Y192.046 E.30699
G1 X161.379 Y191.303 E.05007
G1 X161.379 Y185.678 E.26817
G1 X162.121 Y184.936 E.05007
G1 X168.56 Y184.936 E.30699
G1 X168.657 Y184.92 E.00469
G1 X168.816 Y184.807 E.00929
G1 X168.879 Y184.617 E.00954
G1 X168.879 Y183.435 E.05636
G1 X245.999 Y183.435 E3.67677
G1 X245.999 Y184.617 E.05636
G2 X246.317 Y184.936 I.346 J-.028 E.02337
G1 X252.756 Y184.936 E.30699
G1 X253.499 Y185.678 E.05007
G1 X253.499 Y186.203 E.02502
G1 X253.499 Y191.303 E.24315
G1 X252.756 Y192.046 E.05007
G1 X246.317 Y192.046 E.30699
G1 X246.22 Y192.061 E.00469
G1 X246.061 Y192.175 E.00929
G1 X246.002 Y192.353 E.00897
G1 X245.884 Y192.402
G1 E-.4 F4200
G1 X252.033 Y187.699 F36000
G1 E.4 F4200
;TYPE:Bottom surface
;WIDTH:0.684786
G1 F7200
G1 X251.022 Y186.688 E.0687
G1 X250.114 Y186.688 E.0436
G1 X251.747 Y188.32 E.11089
G1 X251.747 Y189.228 E.0436
G1 X249.207 Y186.688 E.17255
G1 X248.299 Y186.688 E.0436
G1 X251.747 Y190.135 E.23421
G1 X251.747 Y190.294 E.00763
G1 X250.998 Y190.294 E.03598
G1 X247.391 Y186.688 E.245
G1 X246.483 Y186.688 E.0436
G1 X250.09 Y190.294 E.245
G1 X249.182 Y190.294 E.0436
G1 X244.075 Y185.187 E.34694
G1 X243.167 Y185.187 E.0436
G1 X248.275 Y190.294 E.34694
G1 X247.367 Y190.294 E.0436
G1 X242.26 Y185.187 E.34694
G1 X241.352 Y185.187 E.0436
G1 X246.459 Y190.294 E.34694
G2 X245.66 Y190.403 I-.074 J2.452 E.03892
G1 X240.444 Y185.187 E.35431
G1 X239.536 Y185.187 E.0436
G1 X245.071 Y190.722 E.37599
G2 X244.624 Y191.182 I1.237 J1.649 E.03096
G1 X238.629 Y185.187 E.40727
G1 X237.721 Y185.187 E.0436
G1 X244.329 Y191.795 E.44887
G1 X243.421 Y191.795 E.0436
G1 X236.813 Y185.187 E.44887
G1 X235.905 Y185.187 E.0436
G1 X242.513 Y191.795 E.44887
G1 X241.606 Y191.795 E.0436
G1 X234.998 Y185.187 E.44887
G1 X234.09 Y185.187 E.0436
G1 X240.698 Y191.795 E.44887
G1 X239.79 Y191.795 E.0436
G1 X233.182 Y185.187 E.44887
G1 X232.274 Y185.187 E.0436
G1 X238.882 Y191.795 E.44887
G1 X237.975 Y191.795 E.0436
G1 X231.367 Y185.187 E.44887
G1 X230.459 Y185.187 E.0436
G1 X237.067 Y191.795 E.44887
G1 X236.159 Y191.795 E.0436
G1 X229.551 Y185.187 E.44887
G1 X228.644 Y185.187 E.0436
G1 X235.251 Y191.795 E.44887
G1 X234.344 Y191.795 E.0436
G1 X227.736 Y185.187 E.44887
G1 X226.828 Y185.187 E.0436
G1 X233.436 Y191.795 E.44887
G1 X232.528 Y191.795 E.0436
G1 X225.92 Y185.187 E.44887
G1 X225.013 Y185.187 E.0436
G1 X231.62 Y191.795 E.44887
G1 X230.713 Y191.795 E.0436
G1 X224.105 Y185.187 E.44887
G1 X223.197 Y185.187 E.0436
G1 X229.805 Y191.795 E.44887
G1 X228.897 Y191.795 E.0436
G1 X222.289 Y185.187 E.44887
G1 X221.382 Y185.187 E.0436
G1 X227.99 Y191.795 E.44887
G1 X227.082 Y191.795 E.0436
G1 X220.474 Y185.187 E.44887
G1 X219.566 Y185.187 E.0436
G1 X226.174 Y191.795 E.44887
G1 X225.266 Y191.795 E.0436
G1 X218.658 Y185.187 E.44887
G1 X217.751 Y185.187 E.0436
G1 X224.359 Y191.795 E.44887
G1 X223.451 Y191.795 E.0436
G1 X216.843 Y185.187 E.44887
G1 X215.935 Y185.187 E.0436
G1 X222.543 Y191.795 E.44887
G1 X221.635 Y191.795 E.0436
G1 X215.028 Y185.187 E.44887
G1 X214.12 Y185.187 E.0436
G1 X220.728 Y191.795 E.44887
G1 X219.82 Y191.795 E.0436
G1 X213.212 Y185.187 E.44887
G1 X212.304 Y185.187 E.0436
G1 X218.912 Y191.795 E.44887
G1 X218.004 Y191.795 E.0436
G1 X211.397 Y185.187 E.44887
G1 X210.489 Y185.187 E.0436
G1 X217.097 Y191.795 E.44887
G1 X216.189 Y191.795 E.0436
G1 X209.581 Y185.187 E.44887
G1 X208.673 Y185.187 E.0436
G1 X215.281 Y191.795 E.44887
G1 X214.373 Y191.795 E.0436
G1 X207.766 Y185.187 E.44887
G1 X206.858 Y185.187 E.0436
G1 X213.466 Y191.795 E.44887
G1 X212.558 Y191.795 E.0436
G1 X205.95 Y185.187 E.44887
G1 X205.042 Y185.187 E.0436
G1 X211.65 Y191.795 E.44887
G1 X210.743 Y191.795 E.0436
G1 X204.135 Y185.187 E.44887
G1 X203.227 Y185.187 E.0436
G1 X209.835 Y191.795 E.44887
G1 X208.927 Y191.795 E.0436
G1 X202.319 Y185.187 E.44887
G1 X201.411 Y185.187 E.0436
G1 X208.019 Y191.795 E.44887
G1 X207.112 Y191.795 E.0436
G1 X200.504 Y185.187 E.44887
G1 X199.596 Y185.187 E.0436
G1 X206.204 Y191.795 E.44887
G1 X205.296 Y191.795 E.0436
G1 X198.688 Y185.187 E.44887
G1 X197.781 Y185.187 E.0436
G1 X204.388 Y191.795 E.44887
G1 X203.481 Y191.795 E.0436
G1 X196.873 Y185.187 E.44887
G1 X195.965 Y185.187 E.0436
G1 X202.573 Y191.795 E.44887
G1 X201.665 Y191.795 E.0436
G1 X195.057 Y185.187 E.44887
G1 X194.15 Y185.187 E.0436
G1 X200.757 Y191.795 E.44887
G1 X199.85 Y191.795 E.0436
G1 X193.242 Y185.187 E.44887
G1 X192.334 Y185.187 E.0436
G1 X198.942 Y191.795 E.44887
G1 X198.034 Y191.795 E.0436
G1 X191.426 Y185.187 E.44887
G1 X190.519 Y185.187 E.0436
G1 X197.126 Y191.795 E.44887
G1 X196.219 Y191.795 E.0436
G1 X189.611 Y185.187 E.44887
G1 X188.703 Y185.187 E.0436
G1 X195.311 Y191.795 E.44887
G1 X194.403 Y191.795 E.0436
G1 X187.795 Y185.187 E.44887
G1 X186.888 Y185.187 E.0436
G1 X193.496 Y191.795 E.44887
G1 X192.588 Y191.795 E.0436
G1 X185.98 Y185.187 E.44887
G1 X185.072 Y185.187 E.0436
G1 X191.68 Y191.795 E.44887
G1 X190.772 Y191.795 E.0436
G1 X184.165 Y185.187 E.44887
G1 X183.257 Y185.187 E.0436
G1 X189.865 Y191.795 E.44887
G1 X188.957 Y191.795 E.0436
G1 X182.349 Y185.187 E.44887
G1 X181.441 Y185.187 E.0436
G1 X188.049 Y191.795 E.44887
G1 X187.141 Y191.795 E.0436
G1 X180.534 Y185.187 E.44887
G1 X179.626 Y185.187 E.0436
G1 X186.234 Y191.795 E.44887
G1 X185.326 Y191.795 E.0436
G1 X178.718 Y185.187 E.44887
G1 X177.81 Y185.187 E.0436
G1 X184.418 Y191.795 E.44887
G1 X183.51 Y191.795 E.0436
G1 X176.903 Y185.187 E.44887
G1 X175.995 Y185.187 E.0436
G1 X182.603 Y191.795 E.44887
G1 X181.695 Y191.795 E.0436
G1 X175.087 Y185.187 E.44887
G1 X174.179 Y185.187 E.0436
G1 X180.787 Y191.795 E.44887
G1 X179.88 Y191.795 E.0436
G1 X173.272 Y185.187 E.44887
G1 X172.364 Y185.187 E.0436
G1 X178.972 Y191.795 E.44887
G1 X178.064 Y191.795 E.0436
G1 X171.456 Y185.187 E.44887
G1 X170.548 Y185.187 E.0436
G1 X177.156 Y191.795 E.44887
G1 X176.249 Y191.795 E.0436
G1 X170.253 Y185.799 E.40727
G1 X170.225 Y185.849 E.00276
G3 X169.806 Y186.26 I-1.331 J-.94 E.02833
G1 X175.341 Y191.795 E.37599
G1 X174.433 Y191.795 E.0436
G1 X169.217 Y186.579 E.35431
G3 X168.418 Y186.688 I-.725 J-2.344 E.03892
G1 X173.525 Y191.795 E.34694
G1 X172.618 Y191.795 E.0436
G1 X167.51 Y186.688 E.34694
G1 X166.603 Y186.688 E.0436
G1 X171.71 Y191.795 E.34694
G1 X170.802 Y191.795 E.0436
G1 X165.695 Y186.688 E.34694
G1 X164.787 Y186.688 E.0436
G1 X168.394 Y190.294 E.245
G1 X167.486 Y190.294 E.0436
G1 X163.879 Y186.688 E.245
G1 X163.131 Y186.688 E.03597
G1 X163.131 Y186.846 E.00763
G1 X166.578 Y190.294 E.23421
G1 X165.671 Y190.294 E.0436
G1 X163.131 Y187.754 E.17254
G1 X163.131 Y188.662 E.0436
G1 X164.763 Y190.294 E.11088
G1 X163.855 Y190.294 E.0436
G1 X162.844 Y189.283 E.06869
G1 E-.4 F4200
G1 X183.214 Y183.951 F36000
G1 X213.467 Y176.031
G1 X244.768 Y167.837
G1 E.4 F4200
;TYPE:Inner wall
;WIDTH:0.679999
G1 F7200
G1 X244.845 Y168.224 E.01882
G1 X245.039 Y168.567 E.01875
G2 X245.831 Y169.134 I1.384 J-1.097 E.04707
G1 X246.317 Y169.21 E.02346
G1 X252.224 Y169.21 E.28164
G1 X252.224 Y173.772 E.21751
G1 X246.317 Y173.772 E.28164
G1 X246.065 Y173.792 E.01206
G1 X245.627 Y173.929 E.02189
G1 X245.321 Y174.122 E.01723
G1 X245.039 Y174.415 E.01942
G1 X244.845 Y174.757 E.01875
G1 X244.743 Y175.272 E.02504
G1 X170.135 Y175.272 E3.55702
G1 X170.032 Y174.757 E.02504
G1 X169.839 Y174.415 E.01875
G2 X169.046 Y173.848 I-1.384 J1.097 E.04707
G1 X168.56 Y173.772 E.02346
G1 X162.653 Y173.772 E.28164
G1 X162.653 Y169.21 E.21751
G1 X168.56 Y169.21 E.28164
G1 X168.812 Y169.19 E.01206
G1 X169.25 Y169.052 E.02189
G1 X169.556 Y168.86 E.01723
G1 X169.839 Y168.567 E.01942
G1 X170.032 Y168.224 E.01875
G1 X170.135 Y167.709 E.02504
G1 X244.743 Y167.709 E3.55702
G1 X244.766 Y167.825 E.00565
G1 X245.383 Y167.727 F36000
G1 F7200
G1 X245.434 Y167.981 E.01236
G2 X246.025 Y168.527 I.947 J-.433 E.0394
G1 X246.317 Y168.573 E.01408
G1 X252.492 Y168.573 E.2944
G1 X252.862 Y168.942 E.02491
G1 X252.862 Y169.203 E.01245
G1 X252.862 Y174.039 E.23057
G1 X252.492 Y174.409 E.02491
G1 X246.234 Y174.413 E.29838
G1 X245.903 Y174.503 E.01636
G1 X245.655 Y174.676 E.01441
G1 X245.434 Y175 E.01872
G1 X245.362 Y175.365 E.01771
G1 X245.362 Y175.91 E.02598
G1 X169.516 Y175.91 E3.61603
G1 X169.516 Y175.365 E.02598
G1 X169.444 Y175 E.01771
G2 X168.852 Y174.455 I-.947 J.433 E.0394
G1 X168.56 Y174.409 E.01408
G1 X162.385 Y174.409 E.2944
G1 X162.016 Y174.039 E.02491
G1 X162.016 Y168.942 E.24302
G1 X162.385 Y168.573 E.02491
G1 X168.56 Y168.573 E.2944
G2 X169.222 Y168.306 I-.063 J-1.112 E.03466
G1 X169.444 Y167.981 E.01872
G1 X169.516 Y167.617 E.01771
G1 X169.516 Y167.072 E.02598
G1 X245.362 Y167.072 E3.61603
G1 X245.362 Y167.617 E.02598
G1 X245.381 Y167.715 E.00478
G1 X245.999 Y167.617 F36000
;TYPE:Outer wall
G1 F7200
G2 X246.317 Y167.936 I.346 J-.028 E.02337
G1 X252.756 Y167.936 E.30699
G1 X253.499 Y168.678 E.05007
G1 X253.499 Y169.203 E.02502
G1 X253.499 Y174.303 E.24315
G1 X252.756 Y175.046 E.05007
G1 X246.317 Y175.046 E.30699
G1 X246.22 Y175.061 E.00469
G1 X246.061 Y175.175 E.00929
G1 X245.999 Y175.365 E.00954
G1 X245.999 Y176.547 E.05636
G1 X168.879 Y176.547 E3.67677
G1 X168.879 Y175.365 E.05636
G2 X168.56 Y175.046 I-.346 J.028 E.02337
G1 X162.121 Y175.046 E.30699
G1 X161.379 Y174.303 E.05007
G1 X161.379 Y168.678 E.26817
G1 X162.121 Y167.936 E.05007
G1 X168.56 Y167.936 E.30699
G1 X168.657 Y167.92 E.00469
G1 X168.816 Y167.807 E.00929
G1 X168.879 Y167.617 E.00954
G1 X168.879 Y166.435 E.05636
G1 X245.999 Y166.435 E3.67677
G1 X245.999 Y167.605 E.05579
G1 X245.989 Y167.64
G1 E-.4 F4200
G1 X252.033 Y170.699 F36000
G1 E.4 F4200
;TYPE:Bottom surface
;WIDTH:0.684786
G1 F7200
G1 X251.022 Y169.687 E.0687
G1 X250.114 Y169.687 E.0436
G1 X251.747 Y171.32 E.11089
G1 X251.747 Y172.228 E.0436
