; HEADER_BLOCK_START
; generated by OrcaSlicer 1.8.1 on 2024-01-18 at 19:55:10
; total layer number: 100
; HEADER_BLOCK_END

; THUMBNAIL_BLOCK_START

;
; THUMBNAIL_BLOCK_END

; external perimeters extrusion width = 0.52mm
; perimeters extrusion width = 0.52mm
; infill extrusion width = 0.55mm
; solid infill extrusion width = 0.55mm
; top infill extrusion width = 0.55mm
; first layer extrusion width = 0.58mm

; external perimeters extrusion width = 0.52mm
; perimeters extrusion width = 0.52mm
; infill extrusion width = 0.55mm
; solid infill extrusion width = 0.55mm
; top infill extrusion width = 0.55mm
; first layer extrusion width = 0.58mm

; EXECUTABLE_BLOCK_START
EXCLUDE_OBJECT_DEFINE NAME=Body1.stl_id_0_copy_0 CENTER=165,195.5 POLYGON=[[120,187],[120.022,186.035],[120.087,185.073],[120.195,184.114],[120.346,183.161],[120.539,182.216],[120.775,181.28],[121.052,180.356],[121.371,179.445],[121.73,178.55],[122.129,177.672],[122.567,176.812],[123.043,175.973],[123.557,175.156],[124.106,174.363],[124.691,173.595],[125.309,172.854],[125.96,172.142],[126.642,171.46],[127.354,170.809],[128.095,170.191],[128.863,169.606],[129.656,169.057],[130.473,168.543],[131.312,168.067],[132.171,167.629],[133.05,167.23],[133.945,166.871],[134.856,166.552],[135.78,166.275],[136.716,166.039],[137.661,165.846],[138.614,165.695],[139.573,165.587],[140.535,165.522],[141.5,165.5],[188.5,165.5],[189.465,165.522],[190.427,165.587],[191.386,165.695],[192.339,165.846],[193.284,166.039],[194.22,166.275],[195.144,166.552],[196.055,166.871],[196.95,167.23],[197.828,167.629],[198.688,168.067],[199.527,168.543],[200.344,169.057],[201.137,169.606],[201.905,170.191],[202.646,170.809],[203.358,171.46],[204.04,172.142],[204.691,172.854],[205.309,173.595],[205.894,174.363],[206.443,175.156],[206.957,175.973],[207.433,176.812],[207.871,177.672],[208.27,178.55],[208.629,179.445],[208.948,180.356],[209.225,181.28],[209.461,182.216],[209.654,183.161],[209.805,184.114],[209.913,185.073],[209.978,186.035],[210,187],[210,211],[209.927,211.802],[209.813,212.598],[209.657,213.388],[209.461,214.169],[209.225,214.938],[208.948,215.694],[208.633,216.435],[208.28,217.159],[207.89,217.863],[207.464,218.546],[207.003,219.205],[206.508,219.84],[205.981,220.449],[205.423,221.029],[204.836,221.58],[204.221,222.099],[203.58,222.586],[202.914,223.038],[202.226,223.456],[201.517,223.837],[200.789,224.181],[200.044,224.487],[199.285,224.753],[198.512,224.98],[197.729,225.167],[196.938,225.312],[196.14,225.416],[195.337,225.479],[194.532,225.5],[135.468,225.5],[134.663,225.479],[133.86,225.416],[133.062,225.312],[132.271,225.167],[131.488,224.98],[130.715,224.753],[129.956,224.487],[129.211,224.181],[128.483,223.837],[127.774,223.456],[127.086,223.038],[126.42,222.586],[125.779,222.099],[125.164,221.58],[124.577,221.029],[124.019,220.449],[123.492,219.84],[122.997,219.205],[122.536,218.546],[122.11,217.863],[121.72,217.159],[121.367,216.435],[121.052,215.694],[120.775,214.938],[120.539,214.169],[120.343,213.388],[120.187,212.598],[120.073,211.802],[120,211],[120,187]]
EXCLUDE_OBJECT_DEFINE NAME=Body1.stl_id_1_copy_0 CENTER=165,134.5 POLYGON=[[120,126],[120.022,125.035],[120.087,124.073],[120.195,123.114],[120.346,122.161],[120.539,121.216],[120.775,120.28],[121.052,119.356],[121.371,118.445],[121.73,117.55],[122.129,116.672],[122.567,115.812],[123.043,114.973],[123.557,114.156],[124.106,113.363],[124.691,112.595],[125.309,111.854],[125.96,111.142],[126.642,110.46],[127.354,109.809],[128.095,109.191],[128.863,108.606],[129.656,108.057],[130.473,107.543],[131.312,107.067],[132.171,106.629],[133.05,106.23],[133.945,105.871],[134.856,105.552],[135.78,105.275],[136.716,105.039],[137.661,104.846],[138.614,104.695],[139.573,104.587],[140.535,104.522],[141.5,104.5],[188.5,104.5],[189.465,104.522],[190.427,104.587],[191.386,104.695],[192.339,104.846],[193.284,105.039],[194.22,105.275],[195.144,105.552],[196.055,105.871],[196.95,106.23],[197.828,106.629],[198.688,107.067],[199.527,107.543],[200.344,108.057],[201.137,108.606],[201.905,109.191],[202.646,109.809],[203.358,110.46],[204.04,111.142],[204.691,111.854],[205.309,112.595],[205.894,113.363],[206.443,114.156],[206.957,114.973],[207.433,115.812],[207.871,116.672],[208.27,117.55],[208.629,118.445],[208.948,119.356],[209.225,120.28],[209.461,121.216],[209.654,122.161],[209.805,123.114],[209.913,124.073],[209.978,125.035],[210,126],[210,150],[209.927,150.802],[209.813,151.598],[209.657,152.388],[209.461,153.169],[209.225,153.938],[208.948,154.694],[208.633,155.435],[208.28,156.159],[207.89,156.863],[207.464,157.546],[207.003,158.205],[206.508,158.84],[205.981,159.449],[205.423,160.029],[204.836,160.58],[204.221,161.099],[203.58,161.586],[202.914,162.038],[202.226,162.456],[201.517,162.837],[200.789,163.181],[200.044,163.487],[199.285,163.753],[198.512,163.98],[197.729,164.167],[196.938,164.312],[196.14,164.416],[195.337,164.479],[194.532,164.5],[135.468,164.5],[134.663,164.479],[133.86,164.416],[133.062,164.312],[132.271,164.167],[131.488,163.98],[130.715,163.753],[129.956,163.487],[129.211,163.181],[128.483,162.837],[127.774,162.456],[127.086,162.038],[126.42,161.586],[125.779,161.099],[125.164,160.58],[124.577,160.029],[124.019,159.449],[123.492,158.84],[122.997,158.205],[122.536,157.546],[122.11,156.863],[121.72,156.159],[121.367,155.435],[121.052,154.694],[120.775,153.938],[120.539,153.169],[120.343,152.388],[120.187,151.598],[120.073,150.802],[120,150],[120,126]]
M73 P0 R32
;TYPE:Custom
M104 S0
M140 S0
START_PRINT BED=75 HOTEND=220
G90
G21
M83 ; use relative distances for extrusion
; filament start gcode
SET_PRESSURE_ADVANCE ADVANCE=0.056; Override pressure advance value
M106 S0
;LAYER_CHANGE
;Z:0.2
;HEIGHT:0.2
;BEFORE_LAYER_CHANGE
;0.2
G92 E0

;DSLR_SNAPSHOT
TIMELAPSE_TAKE_FRAME
;_SET_FAN_SPEED_CHANGING_LAYER
SET_VELOCITY_LIMIT ACCEL=10000 ACCEL_TO_DECEL=5000
SET_VELOCITY_LIMIT SQUARE_CORNER_VELOCITY=10
G1 E-.4 F4200
G1 X121.506 Y109.936 F48000
G1 Z.2
G1 E.4 F4200
;TYPE:Skirt
;WIDTH:0.58
G1 F3000
G1 X123.709 Y107.527 E.1458
G1 X125.582 Y105.89 E.11108
G1 X128.266 Y104.031 E.1458
G1 X130.456 Y102.852 E.11108
G1 X133.486 Y101.637 E.1458
G1 X135.884 Y100.975 E.11108
G1 X139.108 Y100.464 E.1458
G1 X141.407 Y100.353 E.10277
G1 X188.532 Y100.352 E2.10454
M73 P0 R31
G1 X190.706 Y100.448 E.09718
G1 X192.988 Y100.748 E.10277
G1 X195.233 Y101.252 E.10277
G1 X197.425 Y101.955 E.10277
G1 X198.666 Y102.453 E.05971
G1 X200.735 Y103.459 E.10277
G1 X202.707 Y104.647 E.10277
G1 X204.564 Y106.006 E.10277
G1 X206.291 Y107.527 E.10277
G1 X207.875 Y109.196 E.10278
G1 X209.304 Y111 E.10277
G1 X210.565 Y112.925 E.10277
G1 X211.583 Y114.823 E.09617
G1 X212.479 Y116.901 E.10107
G1 X213.198 Y119.087 E.10277
G1 X213.718 Y121.329 E.10277
G1 X214.036 Y123.608 E.10277
G1 X214.148 Y126 E.10693
G1 X214.148 Y211 E3.79596
G1 X214.034 Y212.391 E.06232
G1 X213.68 Y214.4 E.0911
G1 X213.121 Y216.362 E.0911
G1 X212.361 Y218.255 E.0911
G1 X210.983 Y220.742 E.12698
G1 X209.644 Y222.556 E.10071
G1 X207.673 Y224.606 E.12698
G1 X206.06 Y225.909 E.09261
G1 X204.191 Y227.109 E.0992
G1 X201.62 Y228.324 E.12698
G1 X199.473 Y229.016 E.10071
G1 X196.677 Y229.53 E.12699
G1 X194.532 Y229.648 E.09591
G1 X134.555 Y229.626 E2.67847
G1 X132.525 Y229.426 E.0911
G1 X130.527 Y229.016 E.0911
G1 X128.582 Y228.401 E.0911
G1 X126.711 Y227.588 E.0911
G1 X124.753 Y226.468 E.10071
G1 X122.488 Y224.749 E.12698
G1 X120.883 Y223.165 E.10071
G1 X119.136 Y220.922 E.12698
G1 X117.992 Y218.978 E.10071
G1 X116.879 Y216.362 E.12698
G1 X116.272 Y214.19 E.10071
G1 X115.869 Y211.375 E.12699
G1 X115.874 Y124.942 E3.85994
G1 X116.097 Y122.465 E.11108
G1 X116.516 Y120.202 E.10277
G1 X117.455 Y117.075 E.1458
G1 X118.433 Y114.788 E.11108
G1 X120.044 Y111.949 E.1458
G1 X121.477 Y109.977 E.10885
G1 X121.91 Y110.292 F48000
G1 F3000
G1 X121.918 Y110.281 E.00062
G1 X124.089 Y107.906 E.14365
G1 X125.907 Y106.317 E.10785
G1 X128.551 Y104.486 E.14365
G1 X130.678 Y103.341 E.10785
G1 X133.663 Y102.144 E.14365
G1 X134.898 Y101.773 E.05756
G1 X136.937 Y101.308 E.09339
G1 X139.168 Y100.998 E.10062
G1 X141.5 Y100.889 E.10424
G1 X188.532 Y100.889 E2.10038
G1 X190.67 Y100.983 E.09557
G1 X192.904 Y101.279 E.10062
G1 X195.102 Y101.773 E.10062
G1 X197.247 Y102.462 E.10062
G1 X198.444 Y102.942 E.05756
G1 X200.47 Y103.926 E.10062
G1 X202.401 Y105.088 E.10062
G1 X204.219 Y106.418 E.10062
G1 X205.911 Y107.906 E.10062
G1 X207.463 Y109.54 E.10062
G1 X208.767 Y111.175 E.09339
G1 X210.014 Y113.051 E.10062
G1 X211.104 Y115.066 E.10229
G1 X211.981 Y117.101 E.09895
G1 X212.684 Y119.242 E.10062
G1 X213.192 Y121.437 E.10062
G1 X213.502 Y123.668 E.10062
G1 X213.611 Y126 E.10424
G1 X213.611 Y211 E3.79596
G1 X213.502 Y212.314 E.0589
G1 X213.16 Y214.269 E.08861
G1 X212.617 Y216.177 E.08861
G1 X211.879 Y218.019 E.08861
G1 X210.527 Y220.458 E.12449
G1 X209.238 Y222.205 E.09698
G1 X207.306 Y224.214 E.12449
G1 X205.736 Y225.481 E.09008
G1 X203.936 Y226.636 E.09551
G1 X201.416 Y227.827 E.12449
G1 X199.349 Y228.493 E.09698
G1 X196.607 Y228.997 E.1245
G1 X194.532 Y229.111 E.0928
G1 X134.569 Y229.089 E2.67785
G1 X132.595 Y228.893 E.08861
G1 X130.651 Y228.493 E.08861
G1 X128.759 Y227.894 E.08861
G1 X126.94 Y227.102 E.08861
G1 X125.055 Y226.024 E.09698
G1 X122.835 Y224.339 E.12449
G1 X121.289 Y222.813 E.09698
G1 X119.576 Y220.614 E.12449
G1 X118.475 Y218.743 E.09698
G1 X117.383 Y216.177 E.12449
G1 X116.799 Y214.086 E.09698
G1 X116.404 Y211.326 E.12449
G1 X116.411 Y124.954 E3.85724
G1 X116.628 Y122.549 E.10785
G1 X117.037 Y120.333 E.10062
G1 X117.962 Y117.253 E.14365
G1 X118.912 Y115.032 E.10785
G1 X120.499 Y112.234 E.14365
G1 X121.881 Y110.332 E.105
G1 X122.314 Y110.647 F48000
G1 F3000
G1 X122.331 Y110.625 E.00124
G1 X124.468 Y108.286 E.14149
G1 X126.233 Y106.745 E.10462
G1 X128.837 Y104.94 E.1415
G1 X130.9 Y103.83 E.10462
G1 X133.841 Y102.651 E.1415
G1 X135.029 Y102.294 E.05541
G1 X137.044 Y101.834 E.09231
G1 X139.229 Y101.532 E.09847
G1 X141.5 Y101.426 E.10155
G1 X188.532 Y101.427 E2.10038
G1 X190.634 Y101.519 E.09396
G1 X192.82 Y101.809 E.09847
G1 X194.971 Y102.294 E.09847
G1 X197.07 Y102.969 E.09847
G1 X198.221 Y103.431 E.05541
G1 X200.205 Y104.393 E.09847
G1 X202.095 Y105.53 E.09847
G1 X203.875 Y106.831 E.09847
G1 X205.432 Y108.191 E.09232
G1 X206.96 Y109.78 E.09847
G1 X208.34 Y111.5 E.09847
G1 X209.56 Y113.337 E.09847
G1 X210.625 Y115.309 E.1001
G1 X211.482 Y117.301 E.09684
G1 X212.169 Y119.396 E.09847
G1 X212.666 Y121.544 E.09847
G1 X212.968 Y123.729 E.09847
G1 X213.074 Y126 E.10155
G1 X213.074 Y211 E3.79596
M73 P1 R31
G1 X212.856 Y213.035 E.0914
G1 X212.442 Y214.919 E.08612
G1 X211.836 Y216.749 E.08612
G1 X211.043 Y218.507 E.08612
G1 X209.984 Y220.306 E.09324
G1 X208.305 Y222.462 E.122
G1 X206.819 Y223.929 E.09324
G1 X205.286 Y225.143 E.08732
G1 X202.973 Y226.545 E.12081
G1 X201.063 Y227.387 E.09324
G1 X198.441 Y228.157 E.122
G1 X196.379 Y228.481 E.09324
G1 X194.532 Y228.574 E.08256
G1 X134.583 Y228.552 E2.67723
G1 X132.664 Y228.36 E.08612
G1 X130.776 Y227.971 E.08612
G1 X128.937 Y227.387 E.08612
G1 X127.17 Y226.617 E.08612
G1 X125.357 Y225.58 E.09324
G1 X123.181 Y223.929 E.122
G1 X121.695 Y222.462 E.09324
G1 X120.016 Y220.306 E.122
G1 X118.957 Y218.507 E.09324
G1 X117.888 Y215.993 E.122
G1 X117.326 Y213.982 E.09324
G1 X116.938 Y211.278 E.122
G1 X116.948 Y124.966 E3.85453
G1 X117.158 Y122.633 E.10462
G1 X117.558 Y120.465 E.09847
G1 X118.469 Y117.43 E.1415
G1 X119.39 Y115.276 E.10462
G1 X120.954 Y112.52 E.1415
G1 X122.285 Y110.688 E.10115
G1 X122.719 Y111.003 F48000
G1 F3000
G1 X122.743 Y110.969 E.00186
G1 X124.848 Y108.666 E.13934
G1 X126.558 Y107.172 E.1014
G1 X129.123 Y105.395 E.13934
G1 X131.122 Y104.319 E.1014
G1 X134.018 Y103.158 E.13934
G1 X135.16 Y102.815 E.05325
G1 X137.152 Y102.36 E.09124
G1 X139.289 Y102.065 E.09632
G1 X141.5 Y101.963 E.09886
G1 X188.532 Y101.964 E2.10038
G1 X190.598 Y102.055 E.09234
G1 X192.736 Y102.34 E.09632
G1 X194.84 Y102.815 E.09632
G1 X196.893 Y103.476 E.09632
G1 X197.999 Y103.92 E.05326
G1 X199.94 Y104.861 E.09632
G1 X201.789 Y105.971 E.09632
G1 X203.531 Y107.243 E.09632
G1 X205.152 Y108.666 E.09632
G1 X206.639 Y110.228 E.09632
G1 X207.979 Y111.918 E.09632
G1 X209.163 Y113.721 E.09632
G1 X210.146 Y115.552 E.09284
G1 X210.984 Y117.501 E.09472
G1 X211.655 Y119.551 E.09632
G1 X212.14 Y121.652 E.09632
G1 X212.435 Y123.789 E.09632
G1 X212.537 Y126 E.09886
G1 X212.537 Y211 E3.79596
G1 X212.324 Y212.959 E.08799
G1 X211.922 Y214.788 E.08363
G1 X211.331 Y216.565 E.08363
G1 X210.56 Y218.271 E.08363
G1 X209.543 Y219.999 E.08951
G1 X207.899 Y222.11 E.11951
G1 X206.473 Y223.518 E.08951
G1 X204.984 Y224.699 E.08483
G1 X202.718 Y226.072 E.11832
G1 X200.885 Y226.881 E.08951
G1 X198.317 Y227.635 E.11951
G1 X196.337 Y227.946 E.08951
G1 X194.532 Y228.037 E.0807
G1 X134.597 Y228.015 E2.67661
G1 X132.734 Y227.828 E.08363
G1 X130.9 Y227.448 E.08363
G1 X129.115 Y226.881 E.08363
G1 X127.399 Y226.131 E.08363
G1 X125.659 Y225.136 E.08951
G1 X123.528 Y223.518 E.11951
G1 X122.101 Y222.11 E.08951
G1 X120.457 Y219.999 E.11951
G1 X119.44 Y218.271 E.08951
G1 X118.392 Y215.809 E.11951
G1 X117.853 Y213.878 E.08951
G1 X117.473 Y211.229 E.11951
G1 X117.485 Y124.978 E3.85182
G1 X117.673 Y122.83 E.09632
G1 X118.079 Y120.596 E.1014
G1 X118.976 Y117.607 E.13934
G1 X119.869 Y115.52 E.1014
G1 X121.408 Y112.806 E.13934
G1 X122.689 Y111.043 E.09731
; printing object Body1.stl id:0 copy 0
G1 E-.4 F4200
EXCLUDE_OBJECT_START NAME=Body1.stl_id_0_copy_0
G1 X121.465 Y210.945 F48000
G1 E.4 F4200
;TYPE:Inner wall
;WIDTH:0.579999
G1 F7200
G1 X121.464 Y187.016 E1.06863
G3 X141.516 Y166.964 I20.049 J-.003 E1.40672
G1 X188.516 Y166.965 E2.0989
G3 X208.536 Y187.089 I-.025 J20.045 E1.40858
G1 X208.536 Y210.935 E1.06489
G3 X194.513 Y224.036 I-14.016 J-.947 E.94343
G1 X135.487 Y224.036 E2.63603
G3 X121.466 Y210.955 I-.007 J-14.047 E.9425
G1 X120.928 Y210.965 F48000
G1 F7200
G1 X120.927 Y187.01 E1.06979
G3 X141.51 Y166.427 I20.586 J.003 E1.44385
G1 X188.522 Y166.428 E2.09944
G3 X209.073 Y187.089 I-.032 J20.583 E1.44598
G1 X209.073 Y210.959 E1.06597
G3 X194.52 Y224.573 I-14.553 J-.972 E.97971
G1 X135.48 Y224.573 E2.63665
G3 X120.928 Y210.975 I.001 J-14.585 E.97898
G1 X120.39 Y210.985 F48000
;TYPE:Outer wall
G1 F7200
G1 X120.39 Y187.004 E1.07095
G3 X141.504 Y165.89 I21.123 J.009 E1.48099
G1 X188.528 Y165.891 E2.09998
M73 P2 R31
G3 X209.61 Y187.089 I-.029 J21.112 E1.48354
G1 X209.61 Y210.983 E1.06706
G3 X194.527 Y225.11 I-15.091 J-.997 E1.016
G1 X135.473 Y225.11 E2.63727
G3 X120.391 Y210.995 I.008 J-15.123 E1.01545
G1 E-.4 F4200
G1 X191.885 Y180.437 F48000
G1 E.4 F4200
;TYPE:Inner wall
G1 F7200
G1 X191.885 Y180.205 E.01037
G3 X191.926 Y179.875 I3.712 J.295 E.01485
G1 X192.068 Y179.383 E.02288
G1 X192.401 Y178.757 E.03165
G1 X192.672 Y178.408 E.01974
G1 X193.108 Y178.008 E.02642
G1 X193.477 Y177.766 E.01973
G1 X194.019 Y177.528 E.0264
G1 X194.447 Y177.42 E.01975
G1 X195.037 Y177.371 E.02644
G1 X195.478 Y177.407 E.01973
G1 X196.051 Y177.552 E.0264
G1 X196.456 Y177.73 E.01975
G1 X196.951 Y178.054 E.02644
G1 X197.277 Y178.353 E.01974
G1 X197.64 Y178.82 E.02642
G1 X197.85 Y179.209 E.01974
G1 X198.043 Y179.768 E.02642
G1 X198.115 Y180.204 E.01973
G1 X198.115 Y180.795 E.0264
G1 X198.043 Y181.231 E.01975
G1 X197.851 Y181.791 E.02644
G1 X197.64 Y182.18 E.01974
G1 X197.277 Y182.647 E.02642
G1 X196.952 Y182.946 E.01974
G1 X196.456 Y183.27 E.02642
G1 X196.052 Y183.447 E.01973
G3 X195.149 Y183.634 I-1.198 J-3.525 E.04128
G1 X194.606 Y183.611 E.02426
G1 X193.948 Y183.447 E.03026
G1 X193.544 Y183.27 E.01974
G1 X193.048 Y182.946 E.02642
G1 X192.723 Y182.647 E.01974
G1 X192.36 Y182.18 E.02642
G1 X192.15 Y181.791 E.01974
G1 X191.956 Y181.227 E.02667
G1 X191.885 Y180.796 E.01948
G1 X191.885 Y180.447 E.01558
G1 X192.422 Y180.437 F48000
G1 F7200
G1 X192.422 Y180.205 E.01038
G1 X192.537 Y179.658 E.02494
G1 X192.873 Y179.013 E.03251
G1 X193.036 Y178.803 E.01184
G1 X193.471 Y178.403 E.02642
G1 X193.693 Y178.258 E.01184
G1 X194.235 Y178.02 E.0264
G1 X194.492 Y177.955 E.01185
G1 X195.082 Y177.906 E.02644
G3 X196.057 Y178.121 I-.324 J3.784 E.04471
G1 X196.658 Y178.503 E.03181
