; HEADER_BLOCK_START
; generated by OrcaSlicer 1.6.3 on 2023-11-18 at 19:52:03
; total layer number: 218
; HEADER_BLOCK_END

; THUMBNAIL_BLOCK_START
; THUMBNAIL_BLOCK_END

; external perimeters extrusion width = 0.62mm
; perimeters extrusion width = 0.62mm
; infill extrusion width = 0.65mm
; solid infill extrusion width = 0.65mm
; top infill extrusion width = 0.65mm
; first layer extrusion width = 0.68mm

; external perimeters extrusion width = 0.62mm
; perimeters extrusion width = 0.62mm
; infill extrusion width = 0.65mm
; solid infill extrusion width = 0.65mm
; top infill extrusion width = 0.65mm
; first layer extrusion width = 0.68mm

; external perimeters extrusion width = 0.62mm
; perimeters extrusion width = 0.62mm
; infill extrusion width = 0.65mm
; solid infill extrusion width = 0.65mm
; top infill extrusion width = 0.65mm
; first layer extrusion width = 0.68mm

; EXECUTABLE_BLOCK_START
EXCLUDE_OBJECT_DEFINE NAME=Body1_id_0_copy_0 CENTER=173.223,171.566 POLYGON=[[68.2233,128.441],[68.266,127.789],[68.3936,127.147],[68.6039,126.528],[68.8931,125.941],[69.2565,125.397],[69.6877,124.906],[70.1795,124.474],[70.7233,124.111],[71.3098,123.822],[71.9292,123.612],[72.5706,123.484],[73.2233,123.441],[244.056,123.441],[273.223,123.441],[273.876,123.484],[274.517,123.612],[275.137,123.822],[275.723,124.111],[276.267,124.474],[276.759,124.906],[277.19,125.397],[277.553,125.941],[277.843,126.528],[278.053,127.147],[278.18,127.789],[278.223,128.441],[278.223,214.691],[278.18,215.344],[278.053,215.985],[277.843,216.605],[277.553,217.191],[277.19,217.735],[276.759,218.227],[276.267,218.658],[275.723,219.021],[275.137,219.311],[274.517,219.521],[273.876,219.648],[273.223,219.691],[102.39,219.691],[73.2233,219.691],[72.5706,219.648],[71.9292,219.521],[71.3098,219.311],[70.7233,219.021],[70.1795,218.658],[69.6877,218.227],[69.2565,217.735],[68.8931,217.191],[68.6039,216.605],[68.3936,215.985],[68.266,215.344],[68.2233,214.691],[68.2233,128.441]]
EXCLUDE_OBJECT_DEFINE NAME=spool-roll-inserts.stl_id_1_copy_0 CENTER=122.959,191.004 POLYGON=[[76.4594,179.504],[77.4594,178.504],[83.9594,177.004],[161.959,177.004],[168.459,178.504],[169.459,179.504],[169.459,202.504],[168.459,203.504],[161.959,205.004],[83.9594,205.004],[77.4594,203.504],[76.4594,202.504],[76.4594,179.504]]
EXCLUDE_OBJECT_DEFINE NAME=spool-roll-inserts.stl_id_2_copy_0 CENTER=123.048,158.554 POLYGON=[[76.5477,147.054],[77.5477,146.054],[84.0477,144.554],[162.048,144.554],[168.548,146.054],[169.548,147.054],[169.548,170.054],[168.548,171.054],[162.048,172.554],[84.0477,172.554],[77.5477,171.054],[76.5477,170.054],[76.5477,147.054]]
M73 P0 R80
;TYPE:Custom
M104 S0
M140 S0
START_PRINT BED=75 HOTEND=200
G90
G21
M83 ; use relative distances for extrusion
; filament start gcode
SET_PRESSURE_ADVANCE ADVANCE=0.032; Override pressure advance value
M106 S0
;LAYER_CHANGE
;Z:0.2
;HEIGHT:0.2
;BEFORE_LAYER_CHANGE
;0.2
G92 E0

;DSLR_SNAPSHOT
TIMELAPSE_TAKE_FRAME
M204 S10000
G1 E-.4 F4200
G1 X69.258 Y121.918 F36000
G1 Z.2
G1 E.4 F4200
;TYPE:Skirt
;WIDTH:0.68
G1 F7200
G1 X70.144 Y121.457 E.04761
G1 X71.585 Y120.997 E.07213
G1 X73.223 Y120.804 E.07865
G1 X273.23 Y120.805 E9.53552
G1 X274.862 Y120.997 E.07834
G1 X276.303 Y121.457 E.07213
G1 X277.732 Y122.282 E.07868
G1 X278.743 Y123.168 E.06408
G1 X279.746 Y124.476 E.07859
G1 X280.34 Y125.68 E.064
G1 X280.767 Y127.274 E.07867
G1 X280.86 Y128.441 E.05582
G1 X280.855 Y214.865 E4.12036
G1 X280.639 Y216.5 E.07859
G1 X280.34 Y217.452 E.0476
G1 X279.918 Y218.358 E.04761
G1 X279.383 Y219.2 E.0476
G1 X278.741 Y219.965 E.04761
G1 X278.006 Y220.641 E.0476
G1 X277.188 Y221.214 E.0476
G1 X276.303 Y221.676 E.04761
G1 X274.862 Y222.135 E.07213
G1 X273.223 Y222.328 E.07865
G1 X73.223 Y222.328 E9.53521
G1 X71.081 Y222.018 E.10318
G1 X70.143 Y221.676 E.0476
G1 X69.258 Y221.214 E.0476
G1 X68.441 Y220.641 E.0476
G1 X67.705 Y219.965 E.0476
G1 X67.064 Y219.2 E.04761
M73 P0 R79
G1 X66.239 Y217.771 E.07867
G1 X65.807 Y216.5 E.064
G1 X65.635 Y215.516 E.04761
G1 X65.586 Y214.691 E.03941
G1 X65.592 Y128.267 E4.12036
G1 X65.807 Y126.633 E.07859
G1 X66.107 Y125.68 E.0476
G1 X66.528 Y124.775 E.04761
G1 X67.064 Y123.932 E.0476
G1 X67.705 Y123.167 E.04761
G1 X68.441 Y122.492 E.0476
G1 X69.184 Y121.97 E.04331
; printing object Body1 id:0 copy 0
EXCLUDE_OBJECT_START NAME=Body1_id_0_copy_0
G1 E-.4 F4200
G1 X71.936 Y125.436 F36000
G1 E.4 F4200
;TYPE:Inner wall
;WIDTH:0.679999
G1 F7200
G1 X72.32 Y125.289 E.01961
G1 X73.336 Y125.155 E.04882
G1 X273.117 Y125.156 E9.5248
G1 X274.126 Y125.289 E.04851
G1 X274.697 Y125.516 E.0293
G1 X275.221 Y125.837 E.0293
G1 X275.692 Y126.29 E.03115
G1 X276.066 Y126.8 E.03014
G1 X276.326 Y127.392 E.03081
G1 X276.477 Y128.013 E.03048
G1 X276.509 Y128.61 E.02849
G1 X276.509 Y214.118 E4.07671
G3 X276.435 Y215.333 I-5.994 J.243 E.05814
G1 X276.256 Y215.947 E.03048
G1 X275.942 Y216.517 E.03099
G1 X275.544 Y217.012 E.0303
G1 X275.056 Y217.406 E.02989
G3 X274.126 Y217.843 I-1.888 J-2.804 E.04919
G1 X273.111 Y217.977 E.04882
G1 X73.336 Y217.977 E9.52449
G1 X72.32 Y217.843 E.04882
G3 X70.497 Y216.506 I.94 J-3.193 E.10998
G1 X70.191 Y215.947 E.03039
G1 X70.011 Y215.327 E.03078
G1 X69.937 Y214.635 E.03319
G1 X69.937 Y129.014 E4.08207
G3 X70.012 Y127.799 I5.994 J-.243 E.05814
G1 X70.191 Y127.185 E.03048
G1 X70.504 Y126.616 E.03099
G1 X70.902 Y126.12 E.0303
G1 X71.39 Y125.727 E.02989
G3 X71.834 Y125.475 I1.888 J2.804 E.02433
G1 X71.925 Y125.44 E.00465
G1 X71.71 Y124.843 F36000
G1 F7200
G1 X72.175 Y124.666 E.02374
G1 X73.294 Y124.518 E.05381
G1 X273.159 Y124.519 E9.52878
G1 X274.272 Y124.666 E.05349
G3 X277.11 Y127.929 I-1.082 J3.807 E.21818
G1 X277.146 Y128.61 E.03247
G1 X277.146 Y214.34 E4.08731
G3 X276.73 Y216.426 I-4.641 J.158 E.10232
G3 X274.895 Y218.229 I-3.623 J-1.852 E.12477
G1 X274.272 Y218.467 E.0318
G1 X273.153 Y218.614 E.05381
G1 X73.294 Y218.614 E9.52847
G1 X72.175 Y218.467 E.05381
G3 X69.3 Y214.656 I1.067 J-3.795 E.24445
G1 X69.3 Y128.792 E4.09365
G3 X69.717 Y126.706 I4.641 J-.158 E.10232
G3 X71.552 Y124.903 I3.623 J1.852 E.12477
G1 X71.699 Y124.847 E.00749
G1 X71.479 Y124.231 F36000
;TYPE:Outer wall
G1 F7200
G3 X72.03 Y124.042 I1.754 J4.22 E.02775
G1 X73.252 Y123.881 E.05879
G1 X273.201 Y123.882 E9.53276
G1 X274.417 Y124.042 E.05848
G3 X277.743 Y127.846 I-1.236 J4.437 E.255
G1 X277.783 Y128.61 E.03645
G1 X277.783 Y214.677 E4.10333
G3 X274.417 Y219.09 I-4.57 J.005 E.28441
G1 X273.194 Y219.251 E.05879
G1 X73.252 Y219.251 E9.53245
G1 X72.03 Y219.09 E.05879
G3 X68.663 Y214.677 I1.201 J-4.407 E.28443
G1 X68.663 Y128.456 E4.11067
G3 X71.468 Y124.235 I4.57 J-.005 E.25609
G1 X71.572 Y124.301
G1 E-.4 F4200
G1 X270.012 Y132.152 F36000
G1 E.4 F4200
;TYPE:Inner wall
G1 F7200
G1 X270.724 Y132.382 E.03565
G1 X271.526 Y132.762 E.04232
G1 X272.272 Y133.244 E.04233
G1 X272.948 Y133.819 E.04232
G1 X273.544 Y134.477 E.04233
G1 X274.048 Y135.208 E.04233
G1 X274.453 Y135.998 E.04232
G1 X274.751 Y136.834 E.04233
G3 X275.012 Y138.685 I-7.964 J2.068 E.08929
G1 X275.012 Y204.448 E3.13531
G1 X274.965 Y205.224 E.03707
G1 X274.805 Y206.097 E.04233
G1 X274.533 Y206.942 E.04232
G1 X274.152 Y207.744 E.04233
G1 X273.67 Y208.49 E.04233
G1 X273.095 Y209.166 E.04232
G1 X272.437 Y209.762 E.04233
G1 X271.707 Y210.266 E.04233
G1 X270.944 Y210.657 E.04088
G1 X270.08 Y210.969 E.04376
G3 X268.23 Y211.23 I-2.068 J-7.963 E.0893
G1 X78.217 Y211.23 E9.05905
G1 X77.441 Y211.183 E.03707
G1 X76.567 Y211.023 E.04233
G1 X75.723 Y210.751 E.04233
G1 X74.92 Y210.37 E.04232
G1 X74.175 Y209.888 E.04233
G1 X73.498 Y209.313 E.04232
G1 X72.903 Y208.655 E.04233
G1 X72.398 Y207.924 E.04233
G1 X71.994 Y207.134 E.04232
G1 X71.695 Y206.298 E.04233
G3 X71.434 Y204.448 I7.963 J-2.068 E.08929
G1 X71.434 Y138.685 E3.13531
G1 X71.482 Y137.909 E.03707
G1 X71.641 Y137.035 E.04233
G1 X71.914 Y136.19 E.04232
G1 X72.294 Y135.388 E.04233
G1 X72.776 Y134.643 E.04233
G1 X73.351 Y133.966 E.04232
G1 X74.009 Y133.371 E.04233
G1 X74.74 Y132.866 E.04233
G1 X75.503 Y132.475 E.04088
G1 X76.366 Y132.163 E.04376
G3 X78.217 Y131.902 I2.068 J7.963 E.0893
G1 X268.23 Y131.902 E9.05905
G1 X269.006 Y131.949 E.03707
G1 X269.879 Y132.109 E.04233
G1 X270.001 Y132.149 E.0061
G1 X269.824 Y132.757 F36000
G1 F7200
G1 X270.519 Y132.985 E.03489
G1 X271.244 Y133.333 E.03836
G1 X271.918 Y133.774 E.03836
G1 X272.528 Y134.298 E.03835
G1 X273.065 Y134.897 E.03836
G1 X273.518 Y135.562 E.03836
G1 X273.882 Y136.28 E.03836
G1 X274.148 Y137.039 E.03836
G3 X274.375 Y138.685 I-7.431 J1.865 E.07937
G1 X274.375 Y204.448 E3.13531
G1 X274.329 Y205.182 E.03508
G1 X274.18 Y205.973 E.03836
G1 X273.929 Y206.737 E.03836
G1 X273.581 Y207.462 E.03836
G1 X273.141 Y208.136 E.03836
G1 X272.616 Y208.746 E.03835
G1 X272.017 Y209.283 E.03836
G1 X271.353 Y209.736 E.03836
G1 X270.662 Y210.086 E.03691
G1 X269.875 Y210.366 E.0398
G3 X268.23 Y210.593 I-1.865 J-7.43 E.07937
G1 X78.217 Y210.593 E9.05905
G1 X77.482 Y210.547 E.03508
G1 X76.692 Y210.398 E.03836
G1 X75.927 Y210.147 E.03836
G1 X75.202 Y209.799 E.03836
G1 X74.529 Y209.359 E.03836
G1 X73.918 Y208.834 E.03835
G1 X73.382 Y208.235 E.03836
G1 X72.928 Y207.571 E.03836
G1 X72.565 Y206.853 E.03836
G1 X72.299 Y206.093 E.03836
G3 X72.071 Y204.448 I7.43 J-1.865 E.07937
G1 X72.071 Y138.685 E3.13531
G1 X72.117 Y137.95 E.03508
G1 X72.266 Y137.16 E.03836
G1 X72.517 Y136.395 E.03836
G1 X72.866 Y135.67 E.03836
G1 X73.306 Y134.997 E.03836
G1 X73.83 Y134.386 E.03835
G1 X74.43 Y133.85 E.03836
G1 X75.094 Y133.396 E.03836
G1 X75.785 Y133.046 E.03691
G1 X76.571 Y132.766 E.0398
G3 X78.217 Y132.539 I1.865 J7.43 E.07937
G1 X268.23 Y132.539 E9.05905
G1 X268.964 Y132.585 E.03508
G1 X269.755 Y132.734 E.03836
G1 X269.812 Y132.753 E.00289
G1 X269.638 Y133.362 F36000
;TYPE:Outer wall
G1 F7200
G1 X270.311 Y133.596 E.03398
G3 X273.738 Y138.685 I-2.117 J5.124 E.30994
G1 X273.738 Y204.448 E3.13531
G3 X270.999 Y209.207 I-5.518 J-.008 E.27402
G1 X270.38 Y209.515 E.03294
G1 X269.671 Y209.763 E.03583
G3 X268.23 Y209.956 I-1.663 J-6.921 E.06944
G1 X78.217 Y209.956 E9.05905
G3 X74.338 Y208.355 I.008 J-5.519 E.20519
G3 X72.708 Y204.448 I3.889 J-3.916 E.20718
G1 X72.708 Y138.685 E3.13531
G3 X75.448 Y133.926 I5.518 J.008 E.27402
G1 X76.066 Y133.618 E.03294
G1 X76.776 Y133.37 E.03583
G3 X78.217 Y133.176 I1.663 J6.921 E.06944
G1 X268.23 Y133.176 E9.05905
G3 X269.627 Y133.364 I-.036 J5.545 E.0674
G1 X269.724 Y133.277
G1 E-.4 F4200
G1 X276.316 Y128.472 F36000
G1 E.4 F4200
;TYPE:Bottom surface
;WIDTH:0.681006
G1 F7200
G1 X273.538 Y125.693 E.18761
G2 X272.576 Y125.634 I-.707 J3.623 E.04615
G1 X276.031 Y129.089 E.23334
G1 X276.031 Y129.992 E.04309
G1 X271.674 Y125.634 E.29428
G1 X270.771 Y125.634 E.04309
G1 X276.031 Y130.894 E.35522
G1 X276.031 Y131.797 E.04309
G1 X269.869 Y125.634 E.41616
G1 X268.966 Y125.634 E.04309
G1 X276.031 Y132.699 E.4771
G1 X276.031 Y133.601 E.04309
G1 X268.064 Y125.634 E.53804
G1 X267.162 Y125.634 E.04309
G1 X276.031 Y134.504 E.59898
G1 X276.031 Y135.406 E.04309
G1 X266.259 Y125.634 E.65992
G1 X265.357 Y125.634 E.04309
G1 X276.318 Y136.595 E.74022
G1 E-.4 F4200
G1 X274.502 Y135.681 F36000
G1 E.4 F4200
G1 F7200
G1 X276.031 Y137.211 E.1033
G1 X276.031 Y138.113 E.04309
G1 X275.376 Y137.458 E.04422
G1 X275.408 Y137.618 E.00776
G1 X275.479 Y138.463 E.0405
G1 X276.031 Y139.016 E.03732
G1 X276.031 Y139.918 E.04309
G1 X275.486 Y139.373 E.03681
G1 X275.486 Y140.275 E.04309
G1 X276.031 Y140.82 E.03681
G1 X276.031 Y141.723 E.04309
G1 X275.486 Y141.178 E.03681
G1 X275.486 Y142.08 E.04309
G1 X276.031 Y142.625 E.0368
G1 X276.031 Y143.528 E.04309
G1 X275.486 Y142.983 E.0368
G1 X275.486 Y143.885 E.04309
G1 X276.031 Y144.43 E.03679
G1 X276.031 Y145.332 E.04309
G1 X275.487 Y144.788 E.03679
G1 X275.487 Y145.69 E.04309
G1 X276.031 Y146.235 E.03679
G1 X276.031 Y147.137 E.04309
G1 X275.487 Y146.592 E.03678
G1 X275.487 Y147.495 E.04309
G1 X276.031 Y148.04 E.03678
G1 X276.031 Y148.942 E.04309
G1 X275.487 Y148.397 E.03677
G1 X275.487 Y149.3 E.04309
G1 X276.031 Y149.844 E.03677
G1 X276.031 Y150.747 E.04309
G1 X275.487 Y150.202 E.03677
G1 X275.487 Y151.105 E.04309
G1 X276.031 Y151.649 E.03676
G1 X276.031 Y152.551 E.04309
G1 X275.487 Y152.007 E.03676
G1 X275.487 Y152.91 E.04309
G1 X276.031 Y153.454 E.03676
G1 X276.031 Y154.356 E.04309
G1 X275.487 Y153.812 E.03675
G1 X275.487 Y154.714 E.04309
G1 X276.031 Y155.259 E.03675
G1 X276.031 Y156.161 E.04309
G1 X275.487 Y155.617 E.03674
G1 X275.487 Y156.519 E.04309
G1 X276.031 Y157.063 E.03674
G1 X276.031 Y157.966 E.04309
G1 X275.487 Y157.422 E.03674
G1 X275.487 Y158.324 E.04309
G1 X276.031 Y158.868 E.03673
G1 X276.031 Y159.771 E.04309
G1 X275.487 Y159.227 E.03673
G1 X275.487 Y160.129 E.04309
G1 X276.031 Y160.673 E.03673
G1 X276.031 Y161.575 E.04309
G1 X275.488 Y161.032 E.03672
G1 X275.488 Y161.934 E.04309
G1 X276.031 Y162.478 E.03672
G1 X276.031 Y163.38 E.04309
G1 X275.488 Y162.836 E.03671
G1 X275.488 Y163.739 E.04309
G1 X276.031 Y164.283 E.03671
G1 X276.031 Y165.185 E.04309
G1 X275.488 Y164.641 E.03671
G1 X275.488 Y165.544 E.04309
G1 X276.031 Y166.087 E.0367
G1 X276.031 Y166.99 E.04309
G1 X275.488 Y166.446 E.0367
G1 X275.488 Y167.349 E.04309
G1 X276.031 Y167.892 E.0367
G1 X276.031 Y168.794 E.04309
G1 X275.488 Y168.251 E.03669
G1 X275.488 Y169.154 E.04309
G1 X276.031 Y169.697 E.03669
G1 X276.031 Y170.599 E.04309
G1 X275.488 Y170.056 E.03668
G1 X275.488 Y170.958 E.04309
G1 X276.031 Y171.502 E.03668
G1 X276.031 Y172.404 E.04309
G1 X275.488 Y171.861 E.03668
G1 X275.488 Y172.763 E.04309
G1 X276.031 Y173.306 E.03667
G1 X276.031 Y174.209 E.04309
G1 X275.488 Y173.666 E.03667
G1 X275.488 Y174.568 E.04309
G1 X276.031 Y175.111 E.03667
G1 X276.031 Y176.014 E.04309
G1 X275.488 Y175.471 E.03666
G1 X275.488 Y176.373 E.04309
G1 X276.031 Y176.916 E.03666
G1 X276.031 Y177.818 E.04309
G1 X275.489 Y177.276 E.03665
G1 X275.489 Y178.178 E.04309
G1 X276.031 Y178.721 E.03665
G1 X276.031 Y179.623 E.04309
G1 X275.489 Y179.081 E.03665
G1 X275.489 Y179.983 E.04309
G1 X276.031 Y180.526 E.03664
G1 X276.031 Y181.428 E.04309
G1 X275.489 Y180.885 E.03664
G1 X275.489 Y181.788 E.04309
G1 X276.031 Y182.33 E.03663
G1 X276.031 Y183.233 E.04309
G1 X275.489 Y182.69 E.03663
G1 X275.489 Y183.593 E.04309
G1 X276.031 Y184.135 E.03663
G1 X276.031 Y185.038 E.04309
G1 X275.489 Y184.495 E.03662
G1 X275.489 Y185.398 E.04309
G1 X276.031 Y185.94 E.03662
G1 X276.031 Y186.842 E.04309
G1 X275.489 Y186.3 E.03662
G1 X275.489 Y187.203 E.04309
G1 X276.031 Y187.745 E.03661
G1 X276.031 Y188.647 E.04309
G1 X275.489 Y188.105 E.03661
G1 X275.489 Y189.007 E.04309
G1 X276.031 Y189.549 E.0366
G1 X276.031 Y190.452 E.04309
G1 X275.489 Y189.91 E.0366
G1 X275.489 Y190.812 E.04309
G1 X276.031 Y191.354 E.0366
G1 X276.031 Y192.257 E.04309
G1 X275.489 Y191.715 E.03659
G1 X275.489 Y192.617 E.04309
G1 X276.031 Y193.159 E.03659
G1 X276.031 Y194.061 E.04309
G1 X275.49 Y193.52 E.03659
G1 X275.49 Y194.422 E.04309
G1 X276.031 Y194.964 E.03658
G1 X276.031 Y195.866 E.04309
G1 X275.49 Y195.325 E.03658
G1 X275.49 Y196.227 E.04309
G1 X276.031 Y196.769 E.03657
G1 X276.031 Y197.671 E.04309
G1 X275.49 Y197.129 E.03657
G1 X275.49 Y198.032 E.04309
G1 X276.031 Y198.573 E.03657
G1 X276.031 Y199.476 E.04309
G1 X275.49 Y198.934 E.03656
G1 X275.49 Y199.837 E.04309
G1 X276.031 Y200.378 E.03656
G1 X276.031 Y201.281 E.04309
G1 X275.49 Y200.739 E.03656
G1 X275.49 Y201.642 E.04309
G1 X276.031 Y202.183 E.03655
G1 X276.031 Y203.085 E.04309
G1 X275.49 Y202.544 E.03655
G1 X275.49 Y203.447 E.04309
G1 X276.031 Y203.988 E.03654
G1 X276.031 Y204.89 E.04309
G1 X275.49 Y204.349 E.03654
G3 X275.445 Y205.206 I-7.109 J.052 E.041
G1 X276.031 Y205.792 E.03961
G1 X276.031 Y206.695 E.04309
G1 X275.309 Y205.972 E.04879
G3 X275.123 Y206.689 I-3.242 J-.458 E.03543
G1 X276.031 Y207.597 E.06133
G1 X276.031 Y208.5 E.04309
G1 X274.871 Y207.34 E.07834
G1 X274.582 Y207.953 E.03238
G1 X276.031 Y209.402 E.09787
G1 X276.031 Y210.304 E.04309
G1 X274.23 Y208.503 E.12165
G3 X273.845 Y209.02 I-2.157 J-1.204 E.03088
G1 X276.031 Y211.207 E.14766
G1 X276.031 Y212.109 E.04309
G1 X273.428 Y209.506 E.17577
G1 X272.956 Y209.936 E.0305
G1 X276.031 Y213.012 E.2077
G1 X276.031 Y213.914 E.04309
G1 X272.456 Y210.338 E.24147
