; HEADER_BLOCK_START
; generated by OrcaSlicer 1.6.3 on 2023-11-09 at 15:32:56
; total layer number: 155
; HEADER_BLOCK_END

; THUMBNAIL_BLOCK_START
; THUMBNAIL_BLOCK_END

; external perimeters extrusion width = 0.62mm
; perimeters extrusion width = 0.62mm
; infill extrusion width = 0.65mm
; solid infill extrusion width = 0.65mm
; top infill extrusion width = 0.65mm
; first layer extrusion width = 0.68mm

; external perimeters extrusion width = 0.62mm
; perimeters extrusion width = 0.62mm
; infill extrusion width = 0.65mm
; solid infill extrusion width = 0.65mm
; top infill extrusion width = 0.65mm
; first layer extrusion width = 0.68mm

; EXECUTABLE_BLOCK_START
EXCLUDE_OBJECT_DEFINE NAME=Clip_v3.5.stl_id_0_copy_0 CENTER=160,170 POLYGON=[[142.15,164.35],[146.85,153.5],[177.85,153.5],[177.85,167.85],[175.425,186.5],[149.275,186.5],[142.15,178.2],[142.15,164.35]]
EXCLUDE_OBJECT_DEFINE NAME=Nozzle_fan_v3.5.stl_id_1_copy_0 CENTER=203.764,167.576 POLYGON=[[182.411,160.676],[185.449,154.159],[193.411,138.476],[198.411,138.476],[221.904,146.676],[225.118,150.506],[225.118,192.845],[221.904,196.676],[198.411,196.676],[185.449,189.192],[182.411,182.676],[182.411,160.676]]
M73 P0 R30
;TYPE:Custom
M104 S0
M140 S0
START_PRINT BED=110 HOTEND=290
G90
G21
M83 ; use relative distances for extrusion
; filament start gcode
SET_PRESSURE_ADVANCE ADVANCE=0.04; Override pressure advance value
M106 S0
;LAYER_CHANGE
;Z:0.2
;HEIGHT:0.2
;BEFORE_LAYER_CHANGE
;0.2
G92 E0

;DSLR_SNAPSHOT
TIMELAPSE_TAKE_FRAME
M204 S5000
G1 E-.4 F4200
G1 X143.903 Y147.352 F48000
G1 Z.2
G1 E.4 F4200
;TYPE:Skirt
;WIDTH:0.68
G1 F7200
G1 X145.12 Y146.563 E.07527
G1 X146.726 Y145.941 E.08941
G1 X147.477 Y145.777 E.0399
G1 X148.583 Y145.672 E.05771
G1 X193.244 Y142.842 E2.32316
G1 X198.545 Y142.84 E.27522
G1 X222.038 Y144.042 E1.22122
G1 X223.924 Y144.98 E.10933
G1 X227.138 Y148.811 E.25957
G1 X227.755 Y150.506 E.09365
G1 X227.755 Y192.845 E2.19801
G1 X227.138 Y194.54 E.09365
G1 X223.924 Y198.371 E.25957
G1 X222.734 Y199.179 E.07469
G1 X221.904 Y199.313 E.04364
G1 X198.411 Y199.313 E1.21962
M73 P0 R29
G1 X197.092 Y198.959 E.07087
G1 X183.92 Y191.341 E.78994
G1 X144.43 Y163.234 E2.51634
G1 X143.489 Y162.475 E.06276
G1 X142.675 Y161.588 E.06247
G1 X142.166 Y160.881 E.04526
G1 X141.455 Y159.464 E.08229
G1 X141.115 Y158.371 E.05946
G1 X140.916 Y156.649 E.08998
G1 X140.923 Y153.315 E.17305
G1 X141.173 Y151.54 E.09306
G1 X141.647 Y150.225 E.07259
G1 X142.025 Y149.513 E.04185
G1 X142.635 Y148.619 E.05617
G1 X143.839 Y147.416 E.08839
; printing object Clip_v3.5.stl id:0 copy 0
EXCLUDE_OBJECT_START NAME=Clip_v3.5.stl_id_0_copy_0
G1 E-.4 F4200
G1 X145.773 Y149.642 F48000
G1 E.4 F4200
;TYPE:Brim
G1 F7200
G1 X145.824 Y149.598 E.0035
G1 X146.385 Y149.234 E.03472
G1 X146.996 Y148.951 E.03495
G1 X147.373 Y148.825 E.02063
G1 X148.085 Y148.669 E.03781
G1 X148.761 Y148.622 E.03521
G1 X175.939 Y148.622 E1.4109
G1 X176.617 Y148.67 E.0353
G1 X177.271 Y148.809 E.03472
G1 X177.903 Y149.04 E.03495
G1 X178.26 Y149.218 E.0207
G1 X178.91 Y149.632 E.03996
G1 X179.413 Y150.069 E.03465
G1 X179.852 Y150.574 E.03472
G1 X180.216 Y151.135 E.03472
G1 X180.499 Y151.745 E.03491
G1 X180.64 Y152.175 E.02346
G1 X180.781 Y152.834 E.03499
G1 X180.828 Y153.511 E.03525
G1 X180.828 Y156.638 E.16231
G1 X180.781 Y157.311 E.03505
G1 X180.55 Y158.251 E.05026
G1 X180.264 Y158.918 E.03768
G1 X179.733 Y159.727 E.05026
G1 X179.179 Y160.335 E.04269
G1 X178.661 Y160.753 E.03451
G1 X177.979 Y161.149 E.04097
G1 X177.281 Y161.43 E.03907
G1 X176.633 Y161.585 E.03455
G1 X175.837 Y161.65 E.04149
G1 X148.861 Y161.65 E1.40042
G1 X148.183 Y161.603 E.0353
G1 X147.531 Y161.463 E.03462
G1 X146.793 Y161.184 E.04097
G1 X146.135 Y160.818 E.03907
G1 X145.607 Y160.413 E.03455
G1 X145.06 Y159.842 E.04101
G1 X144.581 Y159.178 E.04254
G1 X144.147 Y158.242 E.05355
G1 X143.97 Y157.606 E.03427
G1 X143.872 Y156.633 E.05079
G1 X143.872 Y153.511 E.16206
G1 X143.92 Y152.833 E.0353
G1 X144.059 Y152.179 E.03472
G1 X144.29 Y151.548 E.03488
G1 X144.514 Y151.107 E.02566
G1 X144.881 Y150.541 E.03501
G1 X145.319 Y150.037 E.03472
G1 X145.705 Y149.701 E.02655
G1 X146.123 Y150.182 F48000
G1 F7200
G1 X146.198 Y150.117 E.00516
G1 X146.683 Y149.801 E.03007
G1 X147.222 Y149.548 E.0309
G1 X147.552 Y149.438 E.01808
G1 X148.162 Y149.305 E.03238
G1 X148.79 Y149.259 E.03271
G1 X175.923 Y149.259 E1.40859
G1 X176.541 Y149.305 E.03216
G1 X177.107 Y149.427 E.03007
G1 X177.641 Y149.622 E.02951
G1 X177.955 Y149.779 E.01818
G1 X178.515 Y150.136 E.03452
G1 X178.952 Y150.512 E.0299
G1 X179.333 Y150.948 E.03007
G1 X179.662 Y151.457 E.03146
G1 X179.909 Y151.99 E.03053
G1 X180.026 Y152.351 E.01968
G1 X180.149 Y152.936 E.03104
G1 X180.191 Y153.54 E.03143
G1 X180.191 Y156.622 E.15999
G1 X180.145 Y157.228 E.03155
G1 X179.938 Y158.063 E.04466
G1 X179.692 Y158.63 E.03207
G1 X179.236 Y159.323 E.04306
G1 X178.751 Y159.859 E.03756
G1 X178.287 Y160.234 E.03096
G1 X177.711 Y160.568 E.03457
G1 X177.073 Y160.824 E.03567
G1 X176.518 Y160.955 E.0296
G1 X175.803 Y161.013 E.03726
G1 X148.89 Y161.013 E1.39714
G1 X148.285 Y160.971 E.03147
G1 X147.698 Y160.845 E.03121
G1 X147.075 Y160.609 E.03458
G1 X146.498 Y160.291 E.03421
G1 X146.023 Y159.927 E.03106
G1 X145.543 Y159.423 E.03611
G1 X145.144 Y158.869 E.03545
G1 X144.753 Y158.035 E.0478
G1 X144.603 Y157.504 E.02868
G1 X144.509 Y156.591 E.04763
G1 X144.509 Y153.527 E.15908
G1 X144.555 Y152.909 E.03216
G1 X144.677 Y152.343 E.03007
G1 X144.871 Y151.813 E.02928
G1 X145.072 Y151.417 E.02304
G1 X145.384 Y150.937 E.02974
G1 X145.781 Y150.48 E.03146
G1 X146.055 Y150.241 E.01886
G1 X146.475 Y150.721 F48000
G1 F7200
G1 X146.573 Y150.635 E.00675
G1 X146.983 Y150.366 E.02546
G1 X147.449 Y150.145 E.02678
G1 X147.732 Y150.051 E.01549
G1 X148.267 Y149.936 E.02839
G1 X148.82 Y149.896 E.0288
G1 X175.893 Y149.897 E1.40546
G1 X176.463 Y149.94 E.02968
G1 X176.942 Y150.045 E.02546
G1 X177.379 Y150.205 E.02415
G1 X177.649 Y150.339 E.01567
G1 X178.123 Y150.641 E.02915
G1 X178.491 Y150.956 E.02519
G1 X178.831 Y151.345 E.02676
G1 X179.109 Y151.777 E.02671
G1 X179.31 Y152.213 E.02492
G1 X179.407 Y152.506 E.01599
G1 X179.518 Y153.037 E.02819
G1 X179.554 Y153.569 E.02766
G1 X179.553 Y156.605 E.15764
G1 X179.51 Y157.142 E.02798
G1 X179.326 Y157.873 E.03909
G1 X179.12 Y158.339 E.02649
G1 X178.739 Y158.919 E.03604
G1 X178.322 Y159.384 E.03239
G1 X177.912 Y159.715 E.02736
G1 X177.443 Y159.987 E.02818
G1 X176.867 Y160.219 E.03222
G1 X176.405 Y160.325 E.0246
G1 X175.769 Y160.376 E.0331
G1 X148.919 Y160.376 E1.39391
G1 X148.388 Y160.34 E.02762
G1 X147.865 Y160.227 E.0278
G1 X147.356 Y160.034 E.02826
G1 X146.86 Y159.763 E.02931
G1 X146.44 Y159.441 E.0275
G1 X146.044 Y159.025 E.02983
G1 X145.706 Y158.559 E.02986
G1 X145.359 Y157.826 E.04211
G1 X145.235 Y157.4 E.02304
G1 X145.146 Y156.549 E.04442
G1 X145.147 Y153.557 E.15531
G1 X145.186 Y153.014 E.02829
G1 X145.295 Y152.508 E.02684
G1 X145.452 Y152.078 E.02375
G1 X145.63 Y151.727 E.02042
G1 X145.902 Y151.311 E.02584
G1 X146.224 Y150.941 E.02542
G1 X146.408 Y150.78 E.01269
G1 X146.83 Y151.258 F48000
G1 F7200
G1 X146.95 Y151.152 E.00831
G1 X147.284 Y150.93 E.02084
G1 X147.677 Y150.742 E.0226
G1 X147.911 Y150.664 E.01281
G1 X148.37 Y150.567 E.02436
G1 X148.85 Y150.533 E.02496
G1 X175.862 Y150.534 E1.4023
G1 X176.383 Y150.574 E.02716
G1 X176.751 Y150.655 E.01954
G1 X177.117 Y150.787 E.0202
G1 X177.344 Y150.9 E.01315
G1 X177.731 Y151.147 E.02386
G1 X178.051 Y151.421 E.02187
G1 X178.328 Y151.74 E.02193
G1 X178.542 Y152.074 E.02056
G1 X178.712 Y152.438 E.02086
G1 X178.793 Y152.682 E.01335
G1 X178.882 Y153.112 E.02279
G1 X178.916 Y153.584 E.02459
G1 X178.915 Y156.587 E.15592
G1 X178.875 Y157.054 E.02432
G1 X178.715 Y157.679 E.03352
G1 X178.55 Y158.047 E.02092
G1 X178.241 Y158.517 E.02921
G1 X177.87 Y158.929 E.02878
G1 X177.537 Y159.196 E.02215
G1 X177.174 Y159.407 E.02177
G1 X176.689 Y159.603 E.02718
G1 X176.321 Y159.69 E.01965
G1 X175.736 Y159.739 E.03047
G1 X148.947 Y159.739 E1.39071
G1 X148.491 Y159.708 E.02375
G1 X148.032 Y159.609 E.02437
G1 X147.611 Y159.448 E.02339
G1 X147.198 Y159.219 E.02453
G1 X146.857 Y158.955 E.02237
G1 X146.543 Y158.625 E.02363
G1 X146.267 Y158.247 E.02432
G1 X145.963 Y157.614 E.03647
G1 X145.868 Y157.293 E.01735
G1 X145.783 Y156.506 E.04114
G1 X145.784 Y153.587 E.15151
G1 X145.817 Y153.118 E.02442
G1 X145.913 Y152.673 E.02361
G1 X146.034 Y152.343 E.01825
G1 X146.188 Y152.038 E.01776
G1 X146.405 Y151.707 E.02053
G1 X146.668 Y151.402 E.02091
G1 X146.763 Y151.318 E.00659
G1 X147.183 Y151.81 F48000
G1 F7200
G1 X147.566 Y151.526 E.02475
G1 X147.946 Y151.336 E.02208
G1 X148.363 Y151.216 E.02252
G1 X148.785 Y151.17 E.02206
G1 X175.916 Y151.17 E1.40847
G1 X176.379 Y151.228 E.02423
G1 X176.927 Y151.408 E.02992
G1 X177.24 Y151.59 E.0188
G1 X177.463 Y151.766 E.01476
G1 X177.864 Y152.213 E.03118
G1 X177.989 Y152.426 E.01282
G1 X178.154 Y152.802 E.02129
G1 X178.234 Y153.11 E.01655
G1 X178.28 Y153.535 E.02219
G1 X178.28 Y156.614 E.15982
G1 X178.21 Y157.154 E.02824
G1 X178.093 Y157.515 E.01972
G1 X177.93 Y157.845 E.0191
G1 X177.677 Y158.207 E.02292
G1 X177.405 Y158.491 E.02045
G1 X177.137 Y158.694 E.01743
G1 X176.712 Y158.912 E.02483
G1 X176.327 Y159.034 E.02095
G1 X175.913 Y159.095 E.02174
G1 X148.887 Y159.102 E1.40301
G1 X148.487 Y159.057 E.02091
G1 X148.356 Y159.028 E.00699
G1 X147.836 Y158.847 E.02855
G1 X147.652 Y158.749 E.01083
G1 X147.394 Y158.575 E.01614
G1 X147.288 Y158.483 E.00728
G1 X146.926 Y158.082 E.02806
G1 X146.747 Y157.805 E.01714
G1 X146.599 Y157.499 E.01762
G1 X146.49 Y157.136 E.01967
G1 X146.42 Y156.606 E.0278
G1 X146.42 Y153.545 E.15889
G1 X146.494 Y153.004 E.02833
G1 X146.621 Y152.599 E.02207
G1 X146.832 Y152.221 E.02247
G1 X147.021 Y151.981 E.01585
G1 X147.121 Y151.875 E.00755
G1 X147.572 Y152.323 F48000
G1 F7200
G1 X147.644 Y152.25 E.00531
G1 X147.942 Y152.04 E.01895
G1 X148.224 Y151.909 E.01614
G1 X148.425 Y151.85 E.01089
G1 X148.775 Y151.807 E.01829
G1 X175.928 Y151.807 E1.40961
G1 X176.181 Y151.833 E.01319
G1 X176.618 Y151.965 E.0237
G1 X176.835 Y152.082 E.01281
G1 X177.08 Y152.275 E.0162
G1 X177.319 Y152.542 E.0186
G1 X177.408 Y152.687 E.00881
G1 X177.541 Y152.974 E.01644
G1 X177.6 Y153.175 E.01089
G1 X177.643 Y153.525 E.01829
G1 X177.643 Y156.626 E.16099
G1 X177.603 Y156.963 E.01762
G1 X177.528 Y157.221 E.01391
G1 X177.352 Y157.576 E.02056
G1 X177.16 Y157.835 E.01676
G1 X176.947 Y158.049 E.01569
G1 X176.762 Y158.18 E.01174
G1 X176.422 Y158.346 E.01964
G1 X176.144 Y158.424 E.01497
G1 X175.823 Y158.465 E.0168
G1 X148.877 Y158.465 E1.39891
G1 X148.559 Y158.425 E.01661
G1 X148.147 Y158.291 E.0225
G1 X147.941 Y158.181 E.01212
G1 X147.755 Y158.051 E.01177
G1 X147.469 Y157.748 E.02161
G1 X147.275 Y157.448 E.01855
G1 X147.175 Y157.228 E.01256
G1 X147.122 Y157.055 E.00938
G1 X147.057 Y156.618 E.02295
G1 X147.057 Y153.532 E.16021
G1 X147.126 Y153.089 E.02328
G1 X147.225 Y152.8 E.01586
G1 X147.327 Y152.623 E.0106
G1 X147.511 Y152.389 E.01546
G1 X148.012 Y152.782 F48000
G1 F7200
G1 X148.036 Y152.751 E.00202
G1 X148.194 Y152.625 E.01049
G1 X148.504 Y152.482 E.01776
G1 X148.764 Y152.444 E.0136
G1 X175.938 Y152.444 E1.41072
G1 X176.114 Y152.467 E.00922
G1 X176.428 Y152.572 E.01718
G1 X176.699 Y152.786 E.01792
G1 X176.825 Y152.944 E.01049
G1 X176.968 Y153.254 E.01776
G1 X177.006 Y153.514 E.0136
G1 X177.006 Y156.638 E.16217
G1 X176.985 Y156.808 E.00893
G1 X176.952 Y156.949 E.00753
G1 X176.839 Y157.199 E.01424
G1 X176.704 Y157.391 E.01214
G1 X176.558 Y157.545 E.01103
G1 X176.472 Y157.613 E.00567
G1 X176.24 Y157.735 E.01361
G1 X176.056 Y157.793 E.01003
G1 X175.835 Y157.828 E.01161
G1 X148.865 Y157.828 E1.40015
G1 X148.644 Y157.793 E.01161
G1 X148.46 Y157.735 E.01003
G1 X148.228 Y157.613 E.01361
G1 X148.142 Y157.545 E.00567
G1 X147.996 Y157.391 E.01103
G1 X147.861 Y157.199 E.01214
G1 X147.751 Y156.955 E.01393
G1 X147.694 Y156.632 E.01701
G1 X147.694 Y153.517 E.1617
G1 X147.754 Y153.192 E.01718
G1 X147.82 Y153.027 E.00922
G1 X147.956 Y152.853 E.0115
G1 X148.418 Y153.261 F48000
G1 F7200
G1 X148.609 Y153.109 E.01266
G1 X148.75 Y153.081 E.00747
G1 X175.95 Y153.081 E1.41206
G1 X176.104 Y153.121 E.00827
G1 X176.189 Y153.168 E.00503
G1 X176.341 Y153.359 E.01266
G1 X176.369 Y153.5 E.00747
G1 X176.369 Y156.649 E.16347
G1 X176.328 Y156.818 E.00905
G1 X176.175 Y157.036 E.0138
G1 X176.065 Y157.123 E.00729
G1 X175.85 Y157.191 E.01169
G1 X148.85 Y157.191 E1.40168
G1 X148.635 Y157.123 E.01169
G1 X148.525 Y157.036 E.00729
G1 X148.372 Y156.818 E.0138
G1 X148.331 Y156.649 E.00905
G1 X148.331 Y153.5 E.16347
G1 X148.371 Y153.346 E.00827
G1 X148.375 Y153.34 E.00035
G1 E-.4 F4200
G1 X149.827 Y154.577 F48000
G1 E.4 F4200
;TYPE:Inner wall
;WIDTH:0.679999
G1 F7200
G1 X174.873 Y154.577 E1.30023
G1 X174.873 Y155.136 E.02902
G1 X174.873 Y155.695 E.02902
G1 X149.827 Y155.695 E1.30023
G1 X149.827 Y154.589 E.05741
G1 E-.4 F4200
G1 X149.19 Y156.332 F48000
G1 E.4 F4200
;TYPE:Outer wall
G1 F7200
G1 X149.19 Y153.94 E.12418
G1 X175.51 Y153.94 E1.36637
G1 X175.51 Y155.136 E.06209
G1 X175.51 Y156.332 E.06209
G1 X149.202 Y156.332 E1.36575
G1 X149.248 Y156.227
G1 E-.4 F4200
G1 X150.386 Y155.136 F48000
G1 E.4 F4200
;TYPE:Inner wall
;WIDTH:0.523684
G1 F7200
G1 X174.314 Y155.136 E.93741
; stop printing object Clip_v3.5.stl id:0 copy 0
EXCLUDE_OBJECT_END NAME=Clip_v3.5.stl_id_0_copy_0
; printing object Nozzle_fan_v3.5.stl id:1 copy 0
EXCLUDE_OBJECT_START NAME=Nozzle_fan_v3.5.stl_id_1_copy_0
G1 E-.4 F4200
G1 X202.567 Y169.189 F48000
G1 E.4 F4200
;WIDTH:0.679999
G1 F7200
G1 X202.818 Y169.315 E.0146
G1 X203.126 Y169.377 E.01629
G1 X203.518 Y169.369 E.02039
G2 X205.227 Y169.11 I-3.44 J-28.432 E.08971
G1 X205.202 Y169.444 E.01739
G2 X205.224 Y174.243 I148.077 J1.729 E.24912
G2 X203.515 Y173.981 I-6.049 J33.825 E.08975
G2 X202.559 Y174.142 I-.195 J1.758 E.05097
G1 X202.205 Y174.391 E.02243
G1 X201.951 Y174.694 E.02052
G1 X201.766 Y175.092 E.02279
G1 X201.696 Y175.558 E.02447
G1 X201.696 Y177.025 E.07617
G1 X201.72 Y177.3 E.01434
G1 X201.871 Y177.749 E.02459
G1 X204.663 Y183.218 E.31876
G3 X205.364 Y184.385 I-33.121 J20.684 E.07066
G1 X205.614 Y184.77 E.02388
G1 X205.994 Y185.825 E.05819
G1 X206.243 Y186.317 E.02863
G1 X206.576 Y186.703 E.02645
G1 X213.146 Y192.217 E.44527
G2 X214.169 Y192.59 I1.094 J-1.412 E.05748
G2 X215.166 Y192.514 I.256 J-3.235 E.0521
G1 X215.587 Y192.308 E.02432
G1 X215.904 Y192.018 E.02229
G2 X217.579 Y189.995 I-53.322 J-45.874 E.13635
G2 X217.969 Y190.383 I13.613 J-13.308 E.02851
G2 X221.324 Y193.204 I128.667 J-149.602 E.22759
G1 X222.08 Y193.807 E.05019
G2 X221.106 Y194.961 I97.625 J83.342 E.07841
G1 X198.87 Y194.961 E1.15435
G1 X186.775 Y187.978 E.72505
G1 X184.125 Y182.296 E.32551
G1 X184.125 Y161.056 E1.10265
G1 X186.775 Y155.373 E.32551
G1 X194.328 Y151.012 E.45281
G1 X194.537 Y150.868 E.01315
G1 X194.83 Y150.556 E.02222
G1 X195.048 Y150.121 E.02525
G1 X195.125 Y149.632 E.02568
G1 X195.125 Y147.188 E.12692
G1 X196.809 Y147.188 E.08745
G1 X196.942 Y147.647 E.02482
G1 X197.218 Y147.976 E.02229
G2 X197.789 Y148.309 I1.071 J-1.179 E.03458
G1 X198.289 Y148.39 E.02629
G1 X221.107 Y148.39 E1.18455
G2 X222.078 Y149.54 I404.632 J-340.902 E.07816
G1 X221.894 Y149.675 E.01186
G1 X219.12 Y151.996 E.18779
G2 X217.932 Y152.999 I71.285 J85.644 E.0807
G1 X217.577 Y153.353 E.02602
G1 X215.904 Y151.333 E.13619
G1 X215.587 Y151.044 E.02229
G1 X215.166 Y150.837 E.02432
G1 X214.681 Y150.761 E.02547
G1 X213.894 Y150.785 E.04088
G1 X213.439 Y150.939 E.02492
G1 X213.146 Y151.134 E.01832
M73 P1 R29
G1 X206.437 Y156.78 E.45517
G1 X206.151 Y157.206 E.02664
G1 X205.803 Y157.971 E.04366
G1 X205.638 Y158.49 E.02825
G3 X204.663 Y160.133 I-33.931 J-19.023 E.09921
G1 X201.871 Y165.602 E.31876
G1 X201.773 Y165.837 E.01322
G1 X201.696 Y166.326 E.0257
G1 X201.701 Y167.912 E.08235
G1 X201.804 Y168.369 E.0243
G1 X202.012 Y168.745 E.02232
G1 X202.357 Y169.084 E.02509
G1 X202.556 Y169.184 E.01156
G1 X202.856 Y168.631 F48000
G1 F7200
G1 X203.007 Y168.706 E.00875
G1 X203.427 Y168.739 E.02188
G2 X205.933 Y168.302 I-2.322 J-20.752 E.13218
G1 X205.839 Y169.445 E.05953
G2 X205.84 Y173.598 I371.553 J2.015 E.21561
G2 X205.933 Y175.038 I9.567 J.099 E.07495
