; HEADER_BLOCK_START
; generated by OrcaSlicer 1.8.1 on 2024-01-25 at 14:27:03
; total layer number: 37
; HEADER_BLOCK_END

; THUMBNAIL_BLOCK_START

;
; THUMBNAIL_BLOCK_END

; external perimeters extrusion width = 0.52mm
; perimeters extrusion width = 0.52mm
; infill extrusion width = 0.55mm
; solid infill extrusion width = 0.55mm
; top infill extrusion width = 0.55mm
; first layer extrusion width = 0.58mm

; EXECUTABLE_BLOCK_START
EXCLUDE_OBJECT_DEFINE NAME=cover_x1_rev2_1_.STL_id_0_copy_0 CENTER=165,165 POLYGON=[[149,163.066],[149,163.058],[149.001,163.024],[149.001,163.02],[149.004,162.982],[149.008,162.945],[149.009,162.941],[149.014,162.908],[149.015,162.901],[149.021,162.871],[149.023,162.862],[149.03,162.835],[149.033,162.823],[149.04,162.8],[149.045,162.786],[149.052,162.765],[149.065,162.731],[149.074,162.709],[149.078,162.701],[149.079,162.699],[149.093,162.67],[149.095,162.667],[149.11,162.641],[149.112,162.636],[149.127,162.612],[149.131,162.607],[149.145,162.585],[149.15,162.578],[149.164,162.56],[149.176,162.545],[149.568,162.076],[149.824,161.775],[149.844,161.753],[149.852,161.745],[149.864,161.732],[149.875,161.722],[149.885,161.713],[149.899,161.7],[149.906,161.695],[149.925,161.68],[149.928,161.678],[149.95,161.662],[149.975,161.647],[149.977,161.645],[149.998,161.634],[150.005,161.63],[162.873,154.913],[162.897,154.902],[162.921,154.892],[162.946,154.883],[162.971,154.876],[162.996,154.87],[163.022,154.865],[165.488,154.486],[165.548,154.478],[165.608,154.471],[165.668,154.465],[165.729,154.462],[165.789,154.459],[165.85,154.459],[172.35,154.459],[172.411,154.459],[172.471,154.462],[172.532,154.465],[172.592,154.471],[172.653,154.478],[172.713,154.486],[175.178,154.865],[175.204,154.87],[175.23,154.876],[175.255,154.883],[175.279,154.892],[175.303,154.902],[175.327,154.913],[175.35,154.926],[175.372,154.939],[175.394,154.954],[175.415,154.97],[175.435,154.987],[175.454,155.005],[175.472,155.024],[175.489,155.044],[175.505,155.065],[175.519,155.086],[175.533,155.109],[175.546,155.132],[175.557,155.155],[180.563,166.612],[180.609,166.723],[180.654,166.836],[180.694,166.943],[180.733,167.051],[180.768,167.155],[180.8,167.26],[180.829,167.361],[180.857,167.462],[180.881,167.561],[180.903,167.66],[180.923,167.756],[180.94,167.853],[180.955,167.948],[180.968,168.044],[180.979,168.138],[180.987,168.232],[180.994,168.326],[180.998,168.42],[181,168.513],[181,168.606],[180.998,168.7],[180.993,168.793],[180.987,168.887],[180.978,168.981],[180.967,169.076],[180.954,169.17],[180.939,169.267],[180.921,169.363],[180.901,169.461],[180.879,169.558],[180.854,169.658],[180.827,169.758],[180.797,169.861],[180.765,169.964],[180.729,170.07],[180.692,170.176],[180.65,170.286],[180.606,170.395],[180.558,170.51],[180.508,170.624],[180.452,170.745],[180.395,170.864],[180.332,170.991],[180.266,171.116],[180.194,171.25],[180.12,171.383],[180.037,171.526],[179.953,171.668],[179.859,171.821],[179.763,171.973],[179.656,172.138],[179.547,172.301],[179.424,172.481],[179.3,172.659],[179.159,172.855],[179.016,173.05],[178.854,173.267],[178.69,173.483],[178.502,173.725],[178.312,173.965],[178.093,174.239],[177.871,174.51],[177.612,174.821],[177.293,175.2],[177.261,175.236],[177.248,175.25],[177.227,175.27],[177.209,175.288],[177.193,175.302],[177.168,175.324],[177.158,175.332],[177.121,175.361],[177.084,175.387],[177.044,175.412],[177.038,175.416],[177.006,175.434],[176.992,175.441],[176.967,175.454],[176.945,175.464],[176.929,175.471],[176.897,175.484],[176.89,175.487],[176.85,175.5],[176.81,175.512],[176.799,175.515],[176.77,175.521],[176.749,175.526],[176.736,175.528],[176.699,175.534],[176.695,175.534],[176.655,175.539],[176.648,175.539],[176.614,175.541],[176.586,175.541],[150.249,175.541],[150.223,175.541],[150.211,175.54],[150.198,175.539],[150.181,175.537],[150.173,175.536],[150.151,175.532],[150.149,175.532],[150.124,175.526],[150.121,175.525],[150.1,175.52],[150.091,175.517],[150.076,175.512],[150.071,175.51],[150.062,175.507],[150.045,175.5],[150.033,175.495],[150.02,175.489],[150.005,175.481],[149.996,175.477],[149.977,175.466],[149.972,175.463],[149.951,175.449],[149.926,175.432],[149.925,175.431],[149.913,175.422],[149.899,175.411],[149.89,175.403],[149.875,175.39],[149.868,175.383],[149.852,175.367],[149.847,175.362],[149.824,175.337],[149.568,175.036],[149.176,174.566],[149.156,174.541],[149.15,174.533],[149.135,174.512],[149.131,174.505],[149.116,174.481],[149.112,174.475],[149.098,174.449],[149.095,174.445],[149.081,174.417],[149.075,174.402],[149.066,174.382],[149.065,174.38],[149.051,174.345],[149.04,174.312],[149.038,174.305],[149.03,174.276],[149.027,174.265],[149.021,174.24],[149.018,174.224],[149.014,174.204],[149.01,174.182],[149.008,174.167],[149.005,174.139],[149.004,174.129],[149.002,174.098],[149.001,174.092],[149,174.054],[149,174.045],[149,163.066]]
M73 P0 R1
;TYPE:Custom
M104 S0
M140 S0
START_PRINT BED=75 HOTEND=200
G90
G21
M83 ; use relative distances for extrusion
; filament start gcode
SET_PRESSURE_ADVANCE ADVANCE=0.056; Override pressure advance value
T0
M106 S0
;LAYER_CHANGE
;Z:0.2
;HEIGHT:0.2
;BEFORE_LAYER_CHANGE
;0.2
G92 E0

;DSLR_SNAPSHOT
TIMELAPSE_TAKE_FRAME
;_SET_FAN_SPEED_CHANGING_LAYER
SET_VELOCITY_LIMIT ACCEL=10000 ACCEL_TO_DECEL=5000
SET_VELOCITY_LIMIT SQUARE_CORNER_VELOCITY=10
G1 E-.4 F4200
G1 X147.327 Y159.815 F48000
G1 Z.2
G1 E.4 F4200
;TYPE:Skirt
;WIDTH:0.58
G1 F3000
G1 X147.877 Y159.415 E.03037
G1 X160.78 Y151.563 E.67456
G1 X161.222 Y151.329 E.02231
G1 X162.252 Y150.994 E.04836
G1 X163.082 Y150.911 E.03726
G1 X175.426 Y150.923 E.55126
G1 X176.281 Y151.072 E.03879
G1 X177.091 Y151.382 E.03873
G1 X177.874 Y151.883 E.04152
G1 X178.497 Y152.488 E.03879
G1 X178.88 Y153.015 E.02907
G1 X179.2 Y153.635 E.03116
G1 X182.941 Y165.37 E.55005
M73 P1 R1
G1 X183.319 Y166.953 E.07269
G1 X183.439 Y168.133 E.05297
G1 X183.412 Y169.409 E.05701
G1 X183.237 Y170.607 E.05404
G1 X182.872 Y171.95 E.06216
G1 X182.237 Y173.466 E.07339
G1 X181.361 Y175.045 E.08066
G1 X180.375 Y176.523 E.07934
G1 X179.672 Y177.248 E.04509
G1 X178.912 Y177.765 E.04107
G1 X178.279 Y178.052 E.031
G1 X177.638 Y178.241 E.02984
G1 X176.586 Y178.358 E.04729
G1 X150.249 Y178.358 E1.17618
G1 X149.46 Y178.289 E.03536
G1 X148.266 Y177.906 E.05598
G1 X147.316 Y177.287 E.05063
G1 X146.72 Y176.669 E.03835
M73 P2 R1
G1 X145.742 Y175.21 E.07845
G1 X145.192 Y173.921 E.06257
G1 X145.083 Y173.342 E.02631
G1 X145.044 Y164.225 E.40718
G1 X145.176 Y163.258 E.04358
G1 X145.742 Y161.902 E.06561
G1 X146.809 Y160.333 E.08473
G1 X147.291 Y159.85 E.03046
G1 X147.672 Y160.226 F48000
G1 F3000
G1 X161.059 Y152.022 E.70121
G1 X161.453 Y151.814 E.01988
G1 X162.349 Y151.522 E.0421
G1 X163.082 Y151.448 E.03288
G1 X175.383 Y151.458 E.54936
G1 X176.142 Y151.59 E.0344
G1 X176.847 Y151.861 E.03372
G1 X177.536 Y152.301 E.0365
G1 X178.089 Y152.837 E.0344
G1 X178.704 Y153.84 E.05256
G1 X182.428 Y165.528 E.5478
M73 P3 R1
G1 X182.79 Y167.043 E.06956
G1 X182.903 Y168.163 E.05028
G1 X182.876 Y169.368 E.05384
G1 X182.71 Y170.503 E.05122
G1 X182.366 Y171.768 E.05855
G1 X181.839 Y173.055 E.0621
G1 X181.123 Y174.399 E.06799
G1 X179.958 Y176.184 E.09522
G1 X179.33 Y176.834 E.04035
G1 X178.661 Y177.29 E.03617
G1 X178.088 Y177.55 E.02809
G1 X177.516 Y177.718 E.0266
G1 X176.586 Y177.821 E.0418
G1 X150.249 Y177.821 E1.17618
G1 X149.549 Y177.759 E.03136
G1 X148.495 Y177.42 E.04945
G1 X147.668 Y176.881 E.04407
G1 X147.143 Y176.338 E.03374
G1 X146.194 Y174.918 E.07628
G1 X145.714 Y173.797 E.05447
M73 P4 R1
G1 X145.615 Y173.269 E.02396
G1 X145.579 Y164.311 E.40006
G1 X145.701 Y163.373 E.04223
G1 X146.194 Y162.193 E.05712
G1 X146.949 Y161.037 E.06169
G1 X147.638 Y160.264 E.04625
G1 X148.017 Y160.638 F48000
G1 F3000
G1 X161.339 Y152.481 E.6976
G1 X162.447 Y152.051 E.05311
G1 X163.082 Y151.985 E.02851
G1 X175.341 Y151.994 E.54747
G1 X176.003 Y152.109 E.03001
G1 X176.603 Y152.339 E.0287
G1 X177.198 Y152.718 E.03149
G1 X177.681 Y153.186 E.03001
G1 X178.208 Y154.046 E.04505
G1 X181.914 Y165.686 E.54555
M73 P5 R1
G1 X182.274 Y167.22 E.07038
G1 X182.371 Y168.311 E.0489
G1 X182.332 Y169.421 E.04959
G1 X182.183 Y170.4 E.04422
G1 X181.861 Y171.587 E.05494
G1 X181.355 Y172.822 E.05961
G1 X180.663 Y174.121 E.06573
G1 X179.723 Y175.598 E.07818
G1 X178.988 Y176.42 E.04927
G1 X178.41 Y176.815 E.03127
G1 X177.896 Y177.049 E.02518
G1 X177.394 Y177.195 E.02336
G1 X176.586 Y177.284 E.0363
G1 X150.249 Y177.284 E1.17618
G1 X149.638 Y177.229 E.02736
G1 X148.724 Y176.934 E.04292
G1 X148.02 Y176.475 E.03752
G1 X147.566 Y176.007 E.02913
G1 X146.645 Y174.627 E.07411
G1 X146.237 Y173.672 E.04637
G1 X146.147 Y173.197 E.0216
G1 X146.116 Y164.329 E.396
M73 P6 R1
G1 X146.225 Y163.489 E.03784
G1 X146.645 Y162.485 E.04862
G1 X147.397 Y161.333 E.06141
G1 X147.984 Y160.675 E.03937
G1 X148.362 Y161.049 F48000
G1 F3000
G1 X161.618 Y152.94 E.69398
G1 X162.545 Y152.579 E.04444
G1 X163.083 Y152.522 E.02414
G1 X175.299 Y152.529 E.54557
G1 X175.864 Y152.628 E.02562
G1 X176.359 Y152.818 E.02369
G1 X176.86 Y153.135 E.02647
G1 X177.272 Y153.535 E.02562
G1 X177.711 Y154.252 E.03755
G1 X181.401 Y165.844 E.5433
G1 X181.742 Y167.295 E.06655
G1 X181.834 Y168.32 E.04598
G1 X181.798 Y169.363 E.04661
M73 P7 R1
G1 X181.656 Y170.296 E.04213
G1 X181.355 Y171.405 E.05133
G1 X180.871 Y172.589 E.05711
G1 X180.204 Y173.844 E.06347
G1 X179.274 Y175.302 E.07724
G1 X178.645 Y176.007 E.04216
G1 X177.704 Y176.547 E.04846
G1 X176.586 Y176.747 E.05074
G1 X150.249 Y176.747 E1.17618
G1 X149.728 Y176.7 E.02336
G1 X148.953 Y176.448 E.03639
G1 X148.257 Y175.969 E.03769
G1 X147.989 Y175.676 E.01776
G1 X147.096 Y174.335 E.07193
G1 X146.759 Y173.547 E.03827
G1 X146.679 Y173.124 E.01925
G1 X146.652 Y164.348 E.39193
G1 X146.75 Y163.605 E.03345
G1 X147.096 Y162.776 E.04013
G1 X147.845 Y161.63 E.06113
G1 X148.329 Y161.087 E.0325
; printing object cover_x1_rev2 (1).STL id:0 copy 0
G1 E-.4 F4200
EXCLUDE_OBJECT_START NAME=cover_x1_rev2_1_.STL_id_0_copy_0
G1 X152.007 Y164.496 F48000
M73 P8 R1
G1 E.4 F4200
;TYPE:Inner wall
;WIDTH:0.840593
G1 F7200
G1 X151.549 Y165.076 E.04905
G1 X151.496 Y165.249 E.01198
;WIDTH:0.801618
G1 X151.443 Y165.422 E.01139
;WIDTH:0.762643
G1 X151.39 Y165.594 E.01081
;WIDTH:0.723668
G1 X151.346 Y165.949 E.02024
;WIDTH:0.685485
G1 X151.302 Y166.304 E.0191
;WIDTH:0.649674
G1 X151.306 Y170.897 E.23174
;WIDTH:0.693054
G1 X151.355 Y171.334 E.02376
;WIDTH:0.741975
G1 X151.415 Y171.561 E.01368
;WIDTH:0.790896
G1 X151.476 Y171.789 E.01464
;WIDTH:0.839817
G2 X151.62 Y172.143 I.607 J-.04 E.0258
G1 X152.007 Y172.616 E.04046
G1 X150.909 Y172.616 E.07273
G1 X150.794 Y172.441 E.01386
G2 X150.77 Y171.957 I-2.591 J-.112 E.03217
;WIDTH:0.790896
G1 X150.745 Y171.696 E.01628
;WIDTH:0.741975
G1 X150.721 Y171.436 E.01521
;WIDTH:0.693054
G1 X150.699 Y170.897 E.02913
;WIDTH:0.649674
G1 X150.698 Y166.304 E.23174
;WIDTH:0.659749
G1 X150.704 Y165.971 E.01709
;WIDTH:0.691709
G1 X150.72 Y165.717 E.01374
;WIDTH:0.723668
G1 X150.736 Y165.463 E.01441
;WIDTH:0.762643
G1 X150.756 Y165.197 E.01597
;WIDTH:0.801618
G1 X150.775 Y164.93 E.01683
;WIDTH:0.840593
G1 X150.795 Y164.664 E.0177
G1 X150.905 Y164.496 E.01334
G1 X151.997 Y164.496 E.07247
G1 E-.4 F4200
G1 X155.32 Y163.782 F48000
G1 E.4 F4200
;WIDTH:0.486038
G1 F7200
G1 X155.319 Y164.225 E.01632
G1 X155.098 Y164.225 E.00815
;WIDTH:0.493039
G1 X154.233 Y164.232 E.03239
;WIDTH:0.522378
G1 X153.915 Y164.277 E.01279
;WIDTH:0.551717
G1 X153.598 Y164.322 E.01357
;WIDTH:0.579999
G1 X153.067 Y164.522 E.02531
G1 X152.575 Y164.864 E.02676
G1 X152.143 Y165.379 E.03003
G1 X151.952 Y165.83 E.02184
G1 X151.873 Y166.302 E.0214
G1 X151.878 Y170.896 E.20517
G1 X151.89 Y171.035 E.0062
G1 X152.043 Y171.525 E.02294
G1 X152.158 Y171.749 E.01124
G1 X152.553 Y172.23 E.02782
G1 X153.082 Y172.595 E.02869
G1 X153.721 Y172.814 E.03018
;WIDTH:0.536533
G1 X154.039 Y172.85 E.01312
;WIDTH:0.511504
G1 X154.357 Y172.886 E.01246
;WIDTH:0.486475
G1 X155.319 Y172.887 E.0355
;WIDTH:0.486086
G1 X155.32 Y173.33 E.01632
G1 X155.098 Y173.33 E.00817
;WIDTH:0.493417
G1 X154.192 Y173.326 E.03392
;WIDTH:0.525198
G1 X153.82 Y173.31 E.01496
;WIDTH:0.556979
G1 X153.447 Y173.294 E.01594
;WIDTH:0.579999
G2 X150.55 Y173.283 I-1.699 J63.094 E.12941
G1 X150.148 Y172.673 E.03262
G1 X150.127 Y172.508 E.00739
G1 X150.126 Y164.469 E.35903
G3 X150.552 Y163.829 I15.343 J9.75 E.03435
G1 X153.099 Y163.829 E.11371
G1 X153.707 Y163.805 E.02719
;WIDTH:0.533119
G1 X154.356 Y163.782 E.02646
;WIDTH:0.486455
G1 X155.31 Y163.782 E.03518
G1 X155.81 Y163.292 F48000
;TYPE:Outer wall
;WIDTH:0.579999
G1 F7200
G1 X155.809 Y164.714 E.06353
G1 X154.357 Y164.716 E.06486
G1 X153.831 Y164.799 E.02378
G2 X153.028 Y165.179 I.546 J2.19 E.03994
G1 X152.662 Y165.564 E.0237
G1 X152.447 Y166.037 E.0232
G1 X152.41 Y166.302 E.01196
G1 X152.415 Y170.896 E.20514
G1 X152.553 Y171.357 E.02149
G1 X152.876 Y171.801 E.02453
G1 X153.286 Y172.099 E.02264
G1 X153.807 Y172.306 E.02504
G1 X154.357 Y172.396 E.02488
G1 X155.809 Y172.397 E.06484
G1 X155.81 Y173.82 E.06353
G1 X151.044 Y173.82 E.21287
G1 X150.25 Y173.805 E.03544
G1 X149.6 Y172.817 E.05281
G1 X149.6 Y164.294 E.3806
G3 X150.287 Y163.292 I10.904 J6.74 E.05433
G1 X155.8 Y163.292 E.24619
M73 P9 R1
G1 E-.4 F4200
G1 X164.262 Y160.582 F48000
G1 E.4 F4200
;TYPE:Inner wall
G1 F7200
G1 X164.465 Y160.673 E.00994
G2 X165.568 Y160.908 I1.643 J-5.008 E.05048
G1 X166.409 Y160.879 E.03755
G1 X167.225 Y160.678 E.03755
G1 X167.983 Y160.313 E.03755
G2 X169.103 Y159.282 I-2.408 J-3.742 E.06835
G1 X169.512 Y159.754 E.02792
G1 X170.097 Y160.235 E.03382
G1 X170.841 Y160.627 E.03755
G1 X171.65 Y160.857 E.03755
G2 X172.539 Y160.91 I.666 J-3.673 E.03983
G1 X173.323 Y160.8 E.03537
G1 X173.936 Y160.594 E.02888
G1 X173.936 Y161.387 E.03538
G1 X174.029 Y162.037 E.02936
G1 X174.162 Y162.509 E.02188
G2 X174.907 Y163.641 I3.043 J-1.19 E.06099
G1 X163.287 Y163.638 E.51895
G1 X163.466 Y163.463 E.01119
G2 X163.951 Y162.716 I-2.367 J-2.07 E.03991
G1 X164.204 Y161.935 E.03664
G1 X164.264 Y161.382 E.02485
G1 X164.262 Y160.592 E.03531
G1 E-.4 F4200
G1 X163.695 Y159.604 F48000
G1 E.4 F4200
G1 F7200
G1 X164.172 Y159.952 E.02635
G1 X164.85 Y160.237 E.03287
G1 X165.568 Y160.371 E.03261
G1 X166.298 Y160.354 E.0326
G1 X167.009 Y160.187 E.0326
G1 X167.669 Y159.876 E.0326
G1 X168.127 Y159.548 E.02518
G2 X169.106 Y158.206 I-2.733 J-3.02 E.07468
G2 X169.869 Y159.353 I3.707 J-1.64 E.06183
G1 X170.364 Y159.769 E.02887
G1 X171.006 Y160.116 E.0326
G1 X171.706 Y160.323 E.0326
G1 X172.483 Y160.376 E.03478
G1 X173.158 Y160.288 E.0304
G1 X173.866 Y160.037 E.03355
G1 X174.495 Y159.628 E.03351
G2 X174.485 Y161.525 I38.688 J1.159 E.08471
G1 X174.646 Y162.276 E.03431
G1 X174.883 Y162.769 E.0244
G1 X175.323 Y163.3 E.03079
G1 X175.531 Y163.463 E.01182
G1 X175.939 Y163.672 E.02049
;WIDTH:0.558343
G1 X176.475 Y163.796 E.02357
;WIDTH:0.511991
G3 X176.88 Y164.413 I-74.527 J49.248 E.02879
G1 X176.721 Y164.347 E.00668
;WIDTH:0.53578
G1 X176.003 Y164.201 E.03003
;WIDTH:0.579999
G1 X175.349 Y164.178 E.02925
G1 X162.389 Y164.175 E.57877
G1 X162.04 Y164.198 E.01559
;WIDTH:0.533514
G1 X161.692 Y164.221 E.01424
;WIDTH:0.487028
G1 X159.301 Y164.222 E.08831
;WIDTH:0.485016
G1 X159.08 Y164.222 E.00812
G1 X159.08 Y163.78 E.01624
G1 X159.301 Y163.78 E.00812
;WIDTH:0.487028
G1 X161.692 Y163.777 E.08831
;WIDTH:0.533514
G1 X161.999 Y163.72 E.01275
;WIDTH:0.579999
G1 X162.307 Y163.664 E.01396
G1 X162.851 Y163.323 E.02868
G1 X163.034 Y163.144 E.01145
G1 X163.447 Y162.531 E.03301
G1 X163.663 Y161.913 E.02922
G1 X163.727 Y161.384 E.0238
G2 X163.696 Y159.614 I-21.463 J-.508 E.07909
G1 E-.4 F4200
G1 X163.09 Y172.886 F48000
G1 E.4 F4200
;WIDTH:0.487207
G1 F7200
G1 X176.068 Y172.885 E.47944
;WIDTH:0.50553
M73 P10 R1
G1 X176.554 Y172.808 E.01894
G1 X176.888 Y172.687 E.01365
G3 X176.468 Y173.32 I-21.276 J-13.697 E.02922
G1 X176.068 Y173.329 E.01537
;WIDTH:0.487207
G1 X159.305 Y173.33 E.61926
;WIDTH:0.486481
G1 X159.083 Y173.33 E.00821
G1 X159.084 Y172.886 E.01636
G1 X159.305 Y172.886 E.00815
;WIDTH:0.487207
G1 X163.08 Y172.886 E.13945
G1 E-.4 F4200
G1 X163.089 Y157.661 F48000
G1 E.4 F4200
;TYPE:Outer wall
;WIDTH:0.579999
