; HEADER_BLOCK_START
; generated by OrcaSlicer 1.6.3 on 2023-12-12 at 13:13:51
; total layer number: 24
; HEADER_BLOCK_END

; THUMBNAIL_BLOCK_START
; THUMBNAIL_BLOCK_END

; external perimeters extrusion width = 0.52mm
; perimeters extrusion width = 0.52mm
; infill extrusion width = 0.55mm
; solid infill extrusion width = 0.55mm
; top infill extrusion width = 0.55mm
; first layer extrusion width = 0.58mm

; EXECUTABLE_BLOCK_START
EXCLUDE_OBJECT_DEFINE NAME=Cube_id_0_copy_0 CENTER=170.577,166.54 POLYGON=[[85.5281,81.4905],[255.626,81.4905],[255.626,251.589],[85.5281,251.589],[85.5281,81.4905]]
M73 P0 R49
;TYPE:Custom
M104 S0
M140 S0
START_PRINT BED=75 HOTEND=215
G90
G21
M83 ; use relative distances for extrusion
; filament start gcode
SET_PRESSURE_ADVANCE ADVANCE=0.032; Override pressure advance value
M106 S0
;LAYER_CHANGE
;Z:0.2
;HEIGHT:0.2
;BEFORE_LAYER_CHANGE
;0.2
G92 E0

;DSLR_SNAPSHOT
TIMELAPSE_TAKE_FRAME
M204 S5000
G1 E-.4 F4200
G1 X83.383 Y80.136 F48000
G1 Z.2
G1 E.4 F4200
;TYPE:Skirt
;WIDTH:0.58
G1 F7200
G1 X84.438 Y79.199 E.05669
G1 X85.528 Y78.953 E.0449
G1 X255.626 Y78.953 E6.83668
G1 X256.981 Y79.346 E.05669
G1 X257.917 Y80.401 E.05669
G1 X258.163 Y81.49 E.0449
G1 X258.163 Y251.589 E6.83668
G1 X257.771 Y252.944 E.05669
G1 X256.716 Y253.88 E.05669
G1 X255.626 Y254.126 E.0449
G1 X85.528 Y254.126 E6.83668
G1 X84.173 Y253.734 E.05669
G1 X83.237 Y252.679 E.05669
G1 X82.991 Y251.589 E.0449
G1 X82.991 Y81.49 E6.83668
G1 X83.362 Y80.208 E.05368
; printing object Cube id:0 copy 0
EXCLUDE_OBJECT_START NAME=Cube_id_0_copy_0
G1 E-.4 F4200
G1 X86.992 Y82.955 F48000
G1 E.4 F4200
;TYPE:Inner wall
;WIDTH:0.579999
G1 F7200
G1 X254.162 Y82.955 E6.71897
G1 X254.162 Y166.54 E3.35949
G1 X254.162 Y250.125 E3.35949
G1 X86.992 Y250.125 E6.71897
G1 X86.992 Y82.965 E6.71857
G1 X86.455 Y82.418 F48000
G1 F7200
G1 X254.699 Y82.418 E6.76215
G1 X254.699 Y166.54 E3.38107
G1 X254.699 Y250.662 E3.38107
G1 X86.455 Y250.662 E6.76215
G1 X86.455 Y82.428 E6.76174
G1 X85.918 Y81.88 F48000
;TYPE:Outer wall
G1 F7200
G1 X255.236 Y81.88 E6.80532
G1 X255.236 Y166.54 E3.40266
G1 X255.236 Y251.199 E3.40266
G1 X85.918 Y251.199 E6.80532
G1 X85.918 Y81.89 E6.80492
G1 X86.015 Y81.906
G1 E-.4 F4200
G1 X252.914 Y83.116 F48000
G1 E.4 F4200
;TYPE:Bottom surface
;WIDTH:0.580583
G1 F7200
G1 X253.759 Y83.961 E.0481
G1 X253.759 Y84.721 E.03059
G1 X252.395 Y83.357 E.07761
G1 X251.635 Y83.357 E.03059
G1 X253.759 Y85.482 E.12088
G1 X253.759 Y86.242 E.03059
G1 X250.875 Y83.357 E.16414
G1 X250.114 Y83.357 E.03059
G1 X253.759 Y87.002 E.20741
G1 X253.759 Y87.763 E.03059
G1 X249.354 Y83.357 E.25068
G1 X248.594 Y83.357 E.03059
G1 X253.759 Y88.523 E.29395
G1 X253.759 Y89.284 E.03059
G1 X247.833 Y83.357 E.33721
G1 X247.073 Y83.357 E.03059
G1 X253.759 Y90.044 E.38048
G1 X253.759 Y90.804 E.03059
G1 X246.312 Y83.357 E.42375
G1 X245.552 Y83.357 E.03059
G1 X253.759 Y91.565 E.46701
G1 X253.759 Y92.325 E.03059
G1 X244.792 Y83.357 E.51028
G1 X244.031 Y83.357 E.03059
G1 X253.759 Y93.085 E.55355
G1 X253.759 Y93.846 E.03059
G1 X243.271 Y83.357 E.59681
G1 X242.511 Y83.357 E.03059
G1 X253.759 Y94.606 E.64008
G1 X253.759 Y95.367 E.03059
G1 X241.75 Y83.357 E.68335
G1 X240.99 Y83.357 E.03059
G1 X253.759 Y96.127 E.72662
G1 X253.759 Y96.887 E.03059
G1 X240.23 Y83.357 E.76988
G1 X239.469 Y83.357 E.03059
G1 X253.759 Y97.648 E.81315
G1 X253.759 Y98.408 E.03059
G1 X238.709 Y83.357 E.85642
G1 X237.948 Y83.357 E.03059
G1 X253.759 Y99.168 E.89968
G1 X253.759 Y99.929 E.03059
G1 X237.188 Y83.357 E.94295
G1 X236.428 Y83.357 E.03059
G1 X253.759 Y100.689 E.98622
G1 X253.759 Y101.449 E.03059
G1 X235.667 Y83.357 E1.02948
G1 X234.907 Y83.357 E.03059
G1 X253.759 Y102.21 E1.07275
G1 X253.759 Y102.97 E.03059
G1 X234.147 Y83.357 E1.11602
G1 X233.386 Y83.357 E.03059
G1 X253.759 Y103.731 E1.15929
G1 X253.759 Y104.491 E.03059
G1 X232.626 Y83.357 E1.20255
G1 X231.865 Y83.357 E.03059
G1 X253.759 Y105.251 E1.24582
G1 X253.759 Y106.012 E.03059
G1 X231.105 Y83.357 E1.28909
M73 P1 R49
G1 X230.345 Y83.357 E.03059
G1 X253.759 Y106.772 E1.33235
G1 X253.759 Y107.532 E.03059
G1 X229.584 Y83.357 E1.37562
G1 X228.824 Y83.357 E.03059
G1 X253.759 Y108.293 E1.41889
G1 X253.759 Y109.053 E.03059
G1 X228.064 Y83.357 E1.46215
G1 X227.303 Y83.357 E.03059
G1 X253.759 Y109.814 E1.50542
G1 X253.759 Y110.574 E.03059
G1 X226.543 Y83.357 E1.54869
G1 X225.782 Y83.357 E.03059
G1 X253.759 Y111.334 E1.59196
G1 X253.759 Y112.095 E.03059
G1 X225.022 Y83.357 E1.63522
G1 X224.262 Y83.357 E.03059
G1 X253.759 Y112.855 E1.67849
G1 X253.759 Y113.615 E.03059
G1 X223.501 Y83.357 E1.72176
G1 X222.741 Y83.357 E.03059
G1 X253.759 Y114.376 E1.76502
G1 X253.759 Y115.136 E.03059
G1 X221.981 Y83.357 E1.80829
G1 X221.22 Y83.357 E.03059
G1 X253.759 Y115.897 E1.85156
G1 X253.759 Y116.657 E.03059
G1 X220.46 Y83.357 E1.89482
G1 X219.7 Y83.357 E.03059
G1 X253.759 Y117.417 E1.93809
G1 X253.759 Y118.178 E.03059
G1 X218.939 Y83.357 E1.98136
G1 X218.179 Y83.357 E.03059
G1 X253.759 Y118.938 E2.02463
G1 X253.759 Y119.698 E.03059
G1 X217.418 Y83.357 E2.06789
G1 X216.658 Y83.357 E.03059
G1 X253.759 Y120.459 E2.11116
M73 P1 R48
G1 X253.759 Y121.219 E.03059
G1 X215.898 Y83.357 E2.15443
G1 X215.137 Y83.357 E.03059
G1 X253.759 Y121.979 E2.19769
G1 X253.759 Y122.74 E.03059
G1 X214.377 Y83.357 E2.24096
G1 X213.617 Y83.357 E.03059
G1 X253.759 Y123.5 E2.28423
G1 X253.759 Y124.261 E.03059
G1 X212.856 Y83.357 E2.32749
G1 X212.096 Y83.357 E.03059
G1 X253.759 Y125.021 E2.37076
G1 X253.759 Y125.781 E.03059
G1 X211.335 Y83.357 E2.41403
G1 X210.575 Y83.357 E.03059
G1 X253.759 Y126.542 E2.4573
G1 X253.759 Y127.302 E.03059
G1 X209.815 Y83.357 E2.50056
G1 X209.054 Y83.357 E.03059
G1 X253.759 Y128.062 E2.54383
G1 X253.759 Y128.823 E.03059
G1 X208.294 Y83.357 E2.5871
G1 X207.534 Y83.357 E.03059
G1 X253.759 Y129.583 E2.63036
G1 X253.759 Y130.344 E.03059
G1 X206.773 Y83.357 E2.67363
G1 X206.013 Y83.357 E.03059
G1 X253.759 Y131.104 E2.7169
G1 X253.759 Y131.864 E.03059
G1 X205.252 Y83.357 E2.76016
G1 X204.492 Y83.357 E.03059
G1 X253.759 Y132.625 E2.80343
G1 X253.759 Y133.385 E.03059
G1 X203.732 Y83.357 E2.8467
G1 X202.971 Y83.357 E.03059
G1 X253.759 Y134.145 E2.88997
G1 X253.759 Y134.906 E.03059
G1 X202.211 Y83.357 E2.93323
G1 X201.451 Y83.357 E.03059
G1 X253.759 Y135.666 E2.9765
G1 X253.759 Y136.427 E.03059
G1 X200.69 Y83.357 E3.01977
G1 X199.93 Y83.357 E.03059
G1 X253.759 Y137.187 E3.06303
G1 X253.759 Y137.947 E.03059
G1 X199.17 Y83.357 E3.1063
G1 X198.409 Y83.357 E.03059
G1 X253.759 Y138.708 E3.14957
G1 X253.759 Y139.468 E.03059
G1 X197.649 Y83.357 E3.19283
G1 X196.888 Y83.357 E.03059
G1 X253.759 Y140.228 E3.2361
G1 X253.759 Y140.989 E.03059
G1 X196.128 Y83.357 E3.27937
G1 X195.368 Y83.357 E.03059
G1 X253.759 Y141.749 E3.32264
G1 X253.759 Y142.509 E.03059
G1 X194.607 Y83.357 E3.3659
G1 X193.847 Y83.357 E.03059
G1 X253.759 Y143.27 E3.40917
G1 X253.759 Y144.03 E.03059
G1 X193.087 Y83.357 E3.45244
G1 X192.326 Y83.357 E.03059
G1 X253.759 Y144.791 E3.4957
G1 X253.759 Y145.551 E.03059
G1 X191.566 Y83.357 E3.53897
G1 X190.805 Y83.357 E.03059
G1 X253.759 Y146.311 E3.58224
G1 X253.759 Y147.072 E.03059
G1 X190.045 Y83.357 E3.6255
M73 P2 R48
G1 X189.285 Y83.357 E.03059
G1 X253.759 Y147.832 E3.66877
G1 X253.759 Y148.592 E.03059
G1 X188.524 Y83.357 E3.71204
G1 X187.764 Y83.357 E.03059
G1 X253.759 Y149.353 E3.75531
G1 X253.759 Y150.113 E.03059
G1 X187.004 Y83.357 E3.79857
G1 X186.243 Y83.357 E.03059
G1 X253.759 Y150.874 E3.84184
G1 X253.759 Y151.634 E.03059
G1 X185.483 Y83.357 E3.88511
G1 X184.722 Y83.357 E.03059
G1 X253.759 Y152.394 E3.92837
G1 X253.759 Y153.155 E.03059
G1 X183.962 Y83.357 E3.97164
G1 X183.202 Y83.357 E.03059
G1 X253.759 Y153.915 E4.01491
G1 X253.759 Y154.675 E.03059
G1 X182.441 Y83.357 E4.05817
G1 X181.681 Y83.357 E.03059
G1 X253.759 Y155.436 E4.10144
G1 X253.759 Y156.196 E.03059
G1 X180.921 Y83.357 E4.14471
G1 X180.16 Y83.357 E.03059
G1 X253.759 Y156.957 E4.18798
G1 X253.759 Y157.717 E.03059
G1 X179.4 Y83.357 E4.23124
G1 X178.64 Y83.357 E.03059
G1 X253.759 Y158.477 E4.27451
G1 X253.759 Y159.238 E.03059
G1 X177.879 Y83.357 E4.31778
G1 X177.119 Y83.357 E.03059
G1 X253.759 Y159.998 E4.36104
G1 X253.759 Y160.758 E.03059
G1 X176.358 Y83.357 E4.40431
G1 X175.598 Y83.357 E.03059
G1 X253.759 Y161.519 E4.44758
G1 X253.759 Y162.279 E.03059
G1 X174.838 Y83.357 E4.49084
G1 X174.077 Y83.357 E.03059
G1 X253.759 Y163.039 E4.53411
G1 X253.759 Y163.8 E.03059
G1 X173.317 Y83.357 E4.57738
G1 X172.557 Y83.357 E.03059
G1 X253.759 Y164.56 E4.62065
G1 X253.759 Y165.321 E.03059
G1 X171.796 Y83.357 E4.66391
G1 X171.036 Y83.357 E.03059
G1 X253.759 Y166.081 E4.70718
G1 X253.759 Y166.841 E.03059
G1 X170.275 Y83.357 E4.75045
G1 X169.515 Y83.357 E.03059
G1 X253.759 Y167.602 E4.79371
G1 X253.759 Y168.362 E.03059
G1 X168.755 Y83.357 E4.83698
G1 X167.994 Y83.357 E.03059
G1 X253.759 Y169.122 E4.88025
G1 X253.759 Y169.883 E.03059
G1 X167.234 Y83.357 E4.92351
G1 X166.474 Y83.357 E.03059
G1 X253.759 Y170.643 E4.96678
M73 P3 R48
G1 X253.759 Y171.404 E.03059
G1 X165.713 Y83.357 E5.01005
G1 X164.953 Y83.357 E.03059
G1 X253.759 Y172.164 E5.05332
G1 X253.759 Y172.924 E.03059
G1 X164.193 Y83.357 E5.09658
G1 X163.432 Y83.357 E.03059
G1 X253.759 Y173.685 E5.13985
G1 X253.759 Y174.445 E.03059
G1 X162.672 Y83.357 E5.18312
G1 X161.911 Y83.357 E.03059
G1 X253.759 Y175.205 E5.22638
G1 X253.759 Y175.966 E.03059
G1 X161.151 Y83.357 E5.26965
G1 X160.391 Y83.357 E.03059
G1 X253.759 Y176.726 E5.31292
M73 P3 R47
G1 X253.759 Y177.487 E.03059
G1 X159.63 Y83.357 E5.35618
G1 X158.87 Y83.357 E.03059
G1 X253.759 Y178.247 E5.39945
G1 X253.759 Y179.007 E.03059
G1 X158.11 Y83.357 E5.44272
G1 X157.349 Y83.357 E.03059
G1 X253.759 Y179.768 E5.48599
G1 X253.759 Y180.528 E.03059
G1 X156.589 Y83.357 E5.52925
G1 X155.828 Y83.357 E.03059
G1 X253.759 Y181.288 E5.57252
G1 X253.759 Y182.049 E.03059
G1 X155.068 Y83.357 E5.61579
G1 X154.308 Y83.357 E.03059
G1 X253.759 Y182.809 E5.65905
G1 X253.759 Y183.569 E.03059
G1 X153.547 Y83.357 E5.70232
G1 X152.787 Y83.357 E.03059
G1 X253.759 Y184.33 E5.74559
G1 X253.759 Y185.09 E.03059
G1 X152.027 Y83.357 E5.78885
G1 X151.266 Y83.357 E.03059
G1 X253.759 Y185.851 E5.83212
G1 X253.759 Y186.611 E.03059
G1 X150.506 Y83.357 E5.87539
G1 X149.745 Y83.357 E.03059
G1 X253.759 Y187.371 E5.91866
G1 X253.759 Y188.132 E.03059
G1 X148.985 Y83.357 E5.96192
G1 X148.225 Y83.357 E.03059
G1 X253.759 Y188.892 E6.00519
G1 X253.759 Y189.652 E.03059
G1 X147.464 Y83.357 E6.04846
M73 P4 R47
G1 X146.704 Y83.357 E.03059
G1 X253.759 Y190.413 E6.09172
G1 X253.759 Y191.173 E.03059
G1 X145.944 Y83.357 E6.13499
G1 X145.183 Y83.357 E.03059
G1 X253.759 Y191.934 E6.17826
G1 X253.759 Y192.694 E.03059
G1 X144.423 Y83.357 E6.22152
G1 X143.663 Y83.357 E.03059
G1 X253.759 Y193.454 E6.26479
G1 X253.759 Y194.215 E.03059
G1 X142.902 Y83.357 E6.30806
G1 X142.142 Y83.357 E.03059
G1 X253.759 Y194.975 E6.35133
G1 X253.759 Y195.735 E.03059
G1 X141.381 Y83.357 E6.39459
G1 X140.621 Y83.357 E.03059
G1 X253.759 Y196.496 E6.43786
G1 X253.759 Y197.256 E.03059
G1 X139.861 Y83.357 E6.48113
G1 X139.1 Y83.357 E.03059
G1 X253.759 Y198.017 E6.52439
G1 X253.759 Y198.777 E.03059
G1 X138.34 Y83.357 E6.56766
G1 X137.58 Y83.357 E.03059
G1 X253.759 Y199.537 E6.61093
G1 X253.759 Y200.298 E.03059
G1 X136.819 Y83.357 E6.65419
G1 X136.059 Y83.357 E.03059
G1 X253.759 Y201.058 E6.69746
G1 X253.759 Y201.818 E.03059
G1 X135.298 Y83.357 E6.74073
G1 X134.538 Y83.357 E.03059
G1 X253.759 Y202.579 E6.784
G1 X253.759 Y203.339 E.03059
G1 X133.778 Y83.357 E6.82726
G1 X133.017 Y83.357 E.03059
G1 X253.759 Y204.099 E6.87053
G1 X253.759 Y204.86 E.03059
G1 X132.257 Y83.357 E6.9138
G1 X131.497 Y83.357 E.03059
G1 X253.759 Y205.62 E6.95706
G1 X253.759 Y206.381 E.03059
G1 X130.736 Y83.357 E7.00033
M73 P5 R47
G1 X129.976 Y83.357 E.03059
G1 X253.759 Y207.141 E7.0436
G1 X253.759 Y207.901 E.03059
G1 X129.215 Y83.357 E7.08686
G1 X128.455 Y83.357 E.03059
G1 X253.759 Y208.662 E7.13013
G1 X253.759 Y209.422 E.03059
G1 X127.695 Y83.357 E7.1734
G1 X126.934 Y83.357 E.03059
G1 X253.759 Y210.182 E7.21667
M73 P5 R46
G1 X253.759 Y210.943 E.03059
G1 X126.174 Y83.357 E7.25993
G1 X125.414 Y83.357 E.03059
G1 X253.759 Y211.703 E7.3032
G1 X253.759 Y212.464 E.03059
G1 X124.653 Y83.357 E7.34647
G1 X123.893 Y83.357 E.03059
G1 X253.759 Y213.224 E7.38973
G1 X253.759 Y213.984 E.03059
G1 X123.133 Y83.357 E7.433
G1 X122.372 Y83.357 E.03059
G1 X253.759 Y214.745 E7.47627
G1 X253.759 Y215.505 E.03059
G1 X121.612 Y83.357 E7.51953
G1 X120.851 Y83.357 E.03059
G1 X253.759 Y216.265 E7.5628
G1 X253.759 Y217.026 E.03059
G1 X120.091 Y83.357 E7.60607
G1 X119.331 Y83.357 E.03059
G1 X253.759 Y217.786 E7.64934
G1 X253.759 Y218.547 E.03059
G1 X118.57 Y83.357 E7.6926
G1 X117.81 Y83.357 E.03059
G1 X253.759 Y219.307 E7.73587
G1 X253.759 Y220.067 E.03059
G1 X117.05 Y83.357 E7.77914
G1 X116.289 Y83.357 E.03059
M73 P6 R46
G1 X253.759 Y220.828 E7.8224
G1 X253.759 Y221.588 E.03059
G1 X115.529 Y83.357 E7.86567
G1 X114.768 Y83.357 E.03059
G1 X253.759 Y222.348 E7.90894
G1 X253.759 Y223.109 E.03059
G1 X114.008 Y83.357 E7.9522
G1 X113.248 Y83.357 E.03059
G1 X253.759 Y223.869 E7.99547
G1 X253.759 Y224.629 E.03059
G1 X112.487 Y83.357 E8.03874
G1 X111.727 Y83.357 E.03059
G1 X253.759 Y225.39 E8.08201
G1 X253.759 Y226.15 E.03059
G1 X110.967 Y83.357 E8.12527
G1 X110.206 Y83.357 E.03059
G1 X253.759 Y226.911 E8.16854
G1 X253.759 Y227.671 E.03059
G1 X109.446 Y83.357 E8.21181
G1 X108.685 Y83.357 E.03059
G1 X253.759 Y228.431 E8.25507
G1 X253.759 Y229.192 E.03059
G1 X107.925 Y83.357 E8.29834
G1 X107.165 Y83.357 E.03059
G1 X253.759 Y229.952 E8.34161
G1 X253.759 Y230.712 E.03059
G1 X106.404 Y83.357 E8.38487
G1 X105.644 Y83.357 E.03059
G1 X253.759 Y231.473 E8.42814
G1 X253.759 Y232.233 E.03059
G1 X104.884 Y83.357 E8.47141
G1 X104.123 Y83.357 E.03059
G1 X253.759 Y232.994 E8.51468
G1 X253.759 Y233.754 E.03059
G1 X103.363 Y83.357 E8.55794
M73 P7 R46
G1 X102.603 Y83.357 E.03059
G1 X253.759 Y234.514 E8.60121
G1 X253.759 Y235.275 E.03059
G1 X101.842 Y83.357 E8.64448
G1 X101.082 Y83.357 E.03059
G1 X253.759 Y236.035 E8.68774
G1 X253.759 Y236.795 E.03059
G1 X100.321 Y83.357 E8.73101
G1 X99.561 Y83.357 E.03059
G1 X253.759 Y237.556 E8.77428
M73 P7 R45
G1 X253.759 Y238.316 E.03059
G1 X98.801 Y83.357 E8.81755
G1 X98.04 Y83.357 E.03059
G1 X253.759 Y239.077 E8.86081
G1 X253.759 Y239.837 E.03059
G1 X97.28 Y83.357 E8.90408
G1 X96.52 Y83.357 E.03059
G1 X253.759 Y240.597 E8.94735
G1 X253.759 Y241.358 E.03059
G1 X95.759 Y83.357 E8.99061
G1 X94.999 Y83.357 E.03059
G1 X253.759 Y242.118 E9.03388
G1 X253.759 Y242.878 E.03059
G1 X94.238 Y83.357 E9.07715
G1 X93.478 Y83.357 E.03059
G1 X253.759 Y243.639 E9.12041
G1 X253.759 Y244.399 E.03059
G1 X92.718 Y83.357 E9.16368
G1 X91.957 Y83.357 E.03059
G1 X253.759 Y245.159 E9.20695
M73 P8 R45
G1 X253.759 Y245.92 E.03059
G1 X91.197 Y83.357 E9.25022
G1 X90.437 Y83.357 E.03059
G1 X253.759 Y246.68 E9.29348
G1 X253.759 Y247.441 E.03059
G1 X89.676 Y83.357 E9.33675
G1 X88.916 Y83.357 E.03059
G1 X253.759 Y248.201 E9.38002
G1 X253.759 Y248.961 E.03059
G1 X88.155 Y83.357 E9.42328
G1 X87.395 Y83.357 E.03059
G1 X253.759 Y249.722 E9.46655
G1 X252.999 Y249.722 E.03059
G1 X87.395 Y84.118 E9.42329
G1 X87.395 Y84.878 E.03059
G1 X252.239 Y249.722 E9.38003
G1 X251.478 Y249.722 E.03059
G1 X87.395 Y85.638 E9.33676
G1 X87.395 Y86.399 E.03059
G1 X250.718 Y249.722 E9.29349
G1 X249.958 Y249.722 E.03059
G1 X87.395 Y87.159 E9.25023
G1 X87.395 Y87.92 E.03059
G1 X249.197 Y249.722 E9.20696
G1 X248.437 Y249.722 E.03059
G1 X87.395 Y88.68 E9.16369
G1 X87.395 Y89.44 E.03059
G1 X247.676 Y249.722 E9.12042
G1 X246.916 Y249.722 E.03059
G1 X87.395 Y90.201 E9.07716
M73 P9 R45
G1 X87.395 Y90.961 E.03059
G1 X246.156 Y249.722 E9.03389
G1 X245.395 Y249.722 E.03059
G1 X87.395 Y91.721 E8.99062
G1 X87.395 Y92.482 E.03059
G1 X244.635 Y249.722 E8.94736
G1 X243.875 Y249.722 E.03059
G1 X87.395 Y93.242 E8.90409
G1 X87.395 Y94.003 E.03059
G1 X243.114 Y249.722 E8.86082
M73 P9 R44
G1 X242.354 Y249.722 E.03059
G1 X87.395 Y94.763 E8.81755
G1 X87.395 Y95.523 E.03059
G1 X241.594 Y249.722 E8.77429
G1 X240.833 Y249.722 E.03059
G1 X87.395 Y96.284 E8.73102
G1 X87.395 Y97.044 E.03059
