; HEADER_BLOCK_START
; generated by OrcaSlicer 1.6.3 on 2023-12-11 at 18:40:33
; total layer number: 25
; HEADER_BLOCK_END

; THUMBNAIL_BLOCK_START
; THUMBNAIL_BLOCK_END

; external perimeters extrusion width = 0.62mm
; perimeters extrusion width = 0.62mm
; infill extrusion width = 0.65mm
; solid infill extrusion width = 0.65mm
; top infill extrusion width = 0.65mm
; first layer extrusion width = 0.68mm

; EXECUTABLE_BLOCK_START
EXCLUDE_OBJECT_DEFINE NAME=Cube_id_0_copy_0 CENTER=160,170 POLYGON=[[100.781,110.781],[219.219,110.781],[219.219,229.219],[100.781,229.219],[100.781,110.781]]
M73 P0 R21
;TYPE:Custom
M104 S0
M140 S0
START_PRINT BED=75 HOTEND=215
G90
G21
M83 ; use relative distances for extrusion
; filament start gcode
SET_PRESSURE_ADVANCE ADVANCE=0.032; Override pressure advance value
M106 S0
;LAYER_CHANGE
;Z:0.2
;HEIGHT:0.2
;BEFORE_LAYER_CHANGE
;0.2
G92 E0

;DSLR_SNAPSHOT
TIMELAPSE_TAKE_FRAME
M204 S5000
G1 E-.4 F4200
G1 X99.488 Y108.525 F48000
G1 Z.2
G1 E.4 F4200
;TYPE:Skirt
;WIDTH:0.68
G1 F7200
G1 X99.597 Y108.425 E.00704
G1 X100.781 Y108.144 E.05802
G1 X219.219 Y108.144 E5.64665
G1 X220.603 Y108.536 E.06859
G1 X221.575 Y109.597 E.06859
G1 X221.856 Y110.781 E.05802
G1 X221.856 Y229.219 E5.64665
G1 X221.464 Y230.603 E.06859
G1 X220.403 Y231.575 E.06859
G1 X219.219 Y231.856 E.05802
G1 X100.781 Y231.856 E5.64665
G1 X99.397 Y231.464 E.06859
G1 X98.425 Y230.403 E.06859
G1 X98.144 Y229.219 E.05802
G1 X98.144 Y110.781 E5.64665
G1 X98.536 Y109.397 E.06859
G1 X99.422 Y108.585 E.05726
; printing object Cube id:0 copy 0
EXCLUDE_OBJECT_START NAME=Cube_id_0_copy_0
G1 E-.4 F4200
G1 X102.495 Y112.495 F48000
G1 E.4 F4200
;TYPE:Inner wall
;WIDTH:0.679999
G1 F7200
G1 X217.505 Y112.495 E5.4832
G1 X217.505 Y170 E2.7416
G1 X217.505 Y227.505 E2.7416
G1 X102.495 Y227.505 E5.4832
G1 X102.495 Y112.507 E5.48263
G1 X101.858 Y111.858 F48000
G1 F7200
G1 X218.142 Y111.858 E5.54395
G1 X218.142 Y170 E2.77197
G1 X218.142 Y228.142 E2.77197
G1 X101.858 Y228.142 E5.54395
G1 X101.858 Y111.87 E5.54337
G1 X101.221 Y111.221 F48000
;TYPE:Outer wall
G1 F7200
G1 X218.779 Y111.221 E5.60469
M73 P1 R21
G1 X218.779 Y170 E2.80235
G1 X218.779 Y228.779 E2.80235
G1 X101.221 Y228.779 E5.60469
G1 X101.221 Y111.233 E5.60412
G1 X101.337 Y111.252
G1 E-.4 F4200
G1 X216.023 Y112.686 F48000
G1 E.4 F4200
;TYPE:Bottom surface
;WIDTH:0.681493
G1 F7200
G1 X217.027 Y113.691 E.06787
G1 X217.027 Y114.594 E.04316
G1 X215.406 Y112.973 E.10953
G1 X214.503 Y112.973 E.04316
G1 X217.027 Y115.497 E.17056
G1 X217.027 Y116.4 E.04316
G1 X213.6 Y112.973 E.23159
G1 X212.697 Y112.973 E.04316
G1 X217.027 Y117.303 E.29263
G1 X217.027 Y118.206 E.04316
G1 X211.794 Y112.973 E.35366
G1 X210.891 Y112.973 E.04316
G1 X217.027 Y119.109 E.41469
G1 X217.027 Y120.012 E.04316
G1 X209.988 Y112.973 E.47572
G1 X209.085 Y112.973 E.04316
G1 X217.027 Y120.915 E.53675
G1 X217.027 Y121.818 E.04316
G1 X208.182 Y112.973 E.59779
G1 X207.279 Y112.973 E.04316
G1 X217.027 Y122.721 E.65882
G1 X217.027 Y123.624 E.04316
G1 X206.376 Y112.973 E.71985
G1 X205.472 Y112.973 E.04316
G1 X217.027 Y124.528 E.78088
G1 X217.027 Y125.431 E.04316
G1 X204.569 Y112.973 E.84191
G1 X203.666 Y112.973 E.04316
G1 X217.027 Y126.334 E.90295
G1 X217.027 Y127.237 E.04316
G1 X202.763 Y112.973 E.96398
G1 X201.86 Y112.973 E.04316
G1 X217.027 Y128.14 E1.02501
G1 X217.027 Y129.043 E.04316
G1 X200.957 Y112.973 E1.08604
G1 X200.054 Y112.973 E.04316
G1 X217.027 Y129.946 E1.14707
G1 X217.027 Y130.849 E.04316
G1 X199.151 Y112.973 E1.20811
G1 X198.248 Y112.973 E.04316
G1 X217.027 Y131.752 E1.26914
G1 X217.027 Y132.655 E.04316
G1 X197.345 Y112.973 E1.33017
G1 X196.442 Y112.973 E.04316
G1 X217.027 Y133.558 E1.3912
G1 X217.027 Y134.461 E.04316
G1 X195.539 Y112.973 E1.45223
G1 X194.636 Y112.973 E.04316
G1 X217.027 Y135.364 E1.51327
G1 X217.027 Y136.268 E.04316
G1 X193.732 Y112.973 E1.5743
G1 X192.829 Y112.973 E.04316
G1 X217.027 Y137.171 E1.63533
G1 X217.027 Y138.074 E.04316
G1 X191.926 Y112.973 E1.69636
G1 X191.023 Y112.973 E.04316
G1 X217.027 Y138.977 E1.75739
G1 X217.027 Y139.88 E.04316
G1 X190.12 Y112.973 E1.81843
G1 X189.217 Y112.973 E.04316
G1 X217.027 Y140.783 E1.87946
G1 X217.027 Y141.686 E.04316
G1 X188.314 Y112.973 E1.94049
G1 X187.411 Y112.973 E.04316
G1 X217.027 Y142.589 E2.00152
G1 X217.027 Y143.492 E.04316
G1 X186.508 Y112.973 E2.06255
G1 X185.605 Y112.973 E.04316
G1 X217.027 Y144.395 E2.12359
G1 X217.027 Y145.298 E.04316
G1 X184.702 Y112.973 E2.18462
M73 P2 R21
G1 X183.799 Y112.973 E.04316
G1 X217.027 Y146.201 E2.24565
G1 X217.027 Y147.105 E.04316
G1 X182.895 Y112.973 E2.30668
G1 X181.992 Y112.973 E.04316
G1 X217.027 Y148.008 E2.36771
G1 X217.027 Y148.911 E.04316
G1 X181.089 Y112.973 E2.42875
G1 X180.186 Y112.973 E.04316
G1 X217.027 Y149.814 E2.48978
G1 X217.027 Y150.717 E.04316
G1 X179.283 Y112.973 E2.55081
G1 X178.38 Y112.973 E.04316
G1 X217.027 Y151.62 E2.61184
G1 X217.027 Y152.523 E.04316
G1 X177.477 Y112.973 E2.67287
G1 X176.574 Y112.973 E.04316
G1 X217.027 Y153.426 E2.73391
G1 X217.027 Y154.329 E.04316
G1 X175.671 Y112.973 E2.79494
G1 X174.768 Y112.973 E.04316
G1 X217.027 Y155.232 E2.85597
G1 X217.027 Y156.135 E.04316
G1 X173.865 Y112.973 E2.917
G1 X172.962 Y112.973 E.04316
G1 X217.027 Y157.038 E2.97803
G1 X217.027 Y157.941 E.04316
G1 X172.059 Y112.973 E3.03907
G1 X171.155 Y112.973 E.04316
G1 X217.027 Y158.845 E3.1001
G1 X217.027 Y159.748 E.04316
G1 X170.252 Y112.973 E3.16113
G1 X169.349 Y112.973 E.04316
G1 X217.027 Y160.651 E3.22216
G1 X217.027 Y161.554 E.04316
G1 X168.446 Y112.973 E3.28319
G1 X167.543 Y112.973 E.04316
G1 X217.027 Y162.457 E3.34423
G1 X217.027 Y163.36 E.04316
G1 X166.64 Y112.973 E3.40526
G1 X165.737 Y112.973 E.04316
G1 X217.027 Y164.263 E3.46629
G1 X217.027 Y165.166 E.04316
G1 X164.834 Y112.973 E3.52732
G1 X163.931 Y112.973 E.04316
G1 X217.027 Y166.069 E3.58835
G1 X217.027 Y166.972 E.04316
G1 X163.028 Y112.973 E3.64939
M73 P3 R21
G1 X162.125 Y112.973 E.04316
G1 X217.027 Y167.875 E3.71042
G1 X217.027 Y168.778 E.04316
G1 X161.222 Y112.973 E3.77145
G1 X160.319 Y112.973 E.04316
G1 X217.027 Y169.681 E3.83248
G1 X217.027 Y170.585 E.04316
G1 X159.415 Y112.973 E3.89351
G1 X158.512 Y112.973 E.04316
G1 X217.027 Y171.488 E3.95455
G1 X217.027 Y172.391 E.04316
G1 X157.609 Y112.973 E4.01558
M73 P3 R20
G1 X156.706 Y112.973 E.04316
G1 X217.027 Y173.294 E4.07661
G1 X217.027 Y174.197 E.04316
G1 X155.803 Y112.973 E4.13764
G1 X154.9 Y112.973 E.04316
G1 X217.027 Y175.1 E4.19867
G1 X217.027 Y176.003 E.04316
G1 X153.997 Y112.973 E4.25971
G1 X153.094 Y112.973 E.04316
G1 X217.027 Y176.906 E4.32074
G1 X217.027 Y177.809 E.04316
G1 X152.191 Y112.973 E4.38177
G1 X151.288 Y112.973 E.04316
G1 X217.027 Y178.712 E4.4428
G1 X217.027 Y179.615 E.04316
G1 X150.385 Y112.973 E4.50383
G1 X149.482 Y112.973 E.04316
G1 X217.027 Y180.518 E4.56487
G1 X217.027 Y181.422 E.04316
G1 X148.579 Y112.973 E4.6259
G1 X147.675 Y112.973 E.04316
G1 X217.027 Y182.325 E4.68693
M73 P4 R20
G1 X217.027 Y183.228 E.04316
G1 X146.772 Y112.973 E4.74796
G1 X145.869 Y112.973 E.04316
G1 X217.027 Y184.131 E4.80899
G1 X217.027 Y185.034 E.04316
G1 X144.966 Y112.973 E4.87003
G1 X144.063 Y112.973 E.04316
G1 X217.027 Y185.937 E4.93106
G1 X217.027 Y186.84 E.04316
G1 X143.16 Y112.973 E4.99209
G1 X142.257 Y112.973 E.04316
G1 X217.027 Y187.743 E5.05312
G1 X217.027 Y188.646 E.04316
G1 X141.354 Y112.973 E5.11415
G1 X140.451 Y112.973 E.04316
G1 X217.027 Y189.549 E5.17519
G1 X217.027 Y190.452 E.04316
G1 X139.548 Y112.973 E5.23622
G1 X138.645 Y112.973 E.04316
G1 X217.027 Y191.355 E5.29725
G1 X217.027 Y192.258 E.04316
G1 X137.742 Y112.973 E5.35828
G1 X136.838 Y112.973 E.04316
G1 X217.027 Y193.162 E5.41931
G1 X217.027 Y194.065 E.04316
G1 X135.935 Y112.973 E5.48035
M73 P5 R20
G1 X135.032 Y112.973 E.04316
G1 X217.027 Y194.968 E5.54138
G1 X217.027 Y195.871 E.04316
G1 X134.129 Y112.973 E5.60241
G1 X133.226 Y112.973 E.04316
G1 X217.027 Y196.774 E5.66344
G1 X217.027 Y197.677 E.04316
G1 X132.323 Y112.973 E5.72447
G1 X131.42 Y112.973 E.04316
G1 X217.027 Y198.58 E5.78551
G1 X217.027 Y199.483 E.04316
G1 X130.517 Y112.973 E5.84654
G1 X129.614 Y112.973 E.04316
G1 X217.027 Y200.386 E5.90757
G1 X217.027 Y201.289 E.04316
G1 X128.711 Y112.973 E5.9686
G1 X127.808 Y112.973 E.04316
G1 X217.027 Y202.192 E6.02963
G1 X217.027 Y203.095 E.04316
G1 X126.905 Y112.973 E6.09067
G1 X126.002 Y112.973 E.04316
G1 X217.027 Y203.998 E6.1517
G1 X217.027 Y204.902 E.04316
G1 X125.098 Y112.973 E6.21273
G1 X124.195 Y112.973 E.04316
G1 X217.027 Y205.805 E6.27376
M73 P6 R20
G1 X217.027 Y206.708 E.04316
G1 X123.292 Y112.973 E6.33479
G1 X122.389 Y112.973 E.04316
G1 X217.027 Y207.611 E6.39583
G1 X217.027 Y208.514 E.04316
G1 X121.486 Y112.973 E6.45686
G1 X120.583 Y112.973 E.04316
G1 X217.027 Y209.417 E6.51789
G1 X217.027 Y210.32 E.04316
G1 X119.68 Y112.973 E6.57892
G1 X118.777 Y112.973 E.04316
G1 X217.027 Y211.223 E6.63995
G1 X217.027 Y212.126 E.04316
G1 X117.874 Y112.973 E6.70099
G1 X116.971 Y112.973 E.04316
G1 X217.027 Y213.029 E6.76202
G1 X217.027 Y213.932 E.04316
G1 X116.068 Y112.973 E6.82305
G1 X115.165 Y112.973 E.04316
G1 X217.027 Y214.835 E6.88408
M73 P7 R20
G1 X217.027 Y215.738 E.04316
G1 X114.262 Y112.973 E6.94511
G1 X113.358 Y112.973 E.04316
G1 X217.027 Y216.642 E7.00615
G1 X217.027 Y217.545 E.04316
G1 X112.455 Y112.973 E7.06718
G1 X111.552 Y112.973 E.04316
G1 X217.027 Y218.448 E7.12821
G1 X217.027 Y219.351 E.04316
G1 X110.649 Y112.973 E7.18924
G1 X109.746 Y112.973 E.04316
G1 X217.027 Y220.254 E7.25027
G1 X217.027 Y221.157 E.04316
G1 X108.843 Y112.973 E7.31131
G1 X107.94 Y112.973 E.04316
G1 X217.027 Y222.06 E7.37234
G1 X217.027 Y222.963 E.04316
G1 X107.037 Y112.973 E7.43337
G1 X106.134 Y112.973 E.04316
G1 X217.027 Y223.866 E7.4944
M73 P8 R19
G1 X217.027 Y224.769 E.04316
G1 X105.231 Y112.973 E7.55543
G1 X104.328 Y112.973 E.04316
G1 X217.027 Y225.672 E7.61647
G1 X217.027 Y226.575 E.04316
G1 X103.425 Y112.973 E7.6775
G1 X102.973 Y112.973 E.02158
G1 X102.973 Y113.424 E.02158
G1 X216.576 Y227.027 E7.6775
G1 X215.672 Y227.027 E.04316
G1 X102.973 Y114.328 E7.61647
G1 X102.973 Y115.231 E.04316
G1 X214.769 Y227.027 E7.55544
G1 X213.866 Y227.027 E.04316
G1 X102.973 Y116.134 E7.49441
G1 X102.973 Y117.037 E.04316
G1 X212.963 Y227.027 E7.43338
G1 X212.06 Y227.027 E.04316
G1 X102.973 Y117.94 E7.37234
G1 X102.973 Y118.843 E.04316
G1 X211.157 Y227.027 E7.31131
M73 P9 R19
G1 X210.254 Y227.027 E.04316
G1 X102.973 Y119.746 E7.25028
G1 X102.973 Y120.649 E.04316
G1 X209.351 Y227.027 E7.18925
G1 X208.448 Y227.027 E.04316
G1 X102.973 Y121.552 E7.12822
G1 X102.973 Y122.455 E.04316
G1 X207.545 Y227.027 E7.06718
G1 X206.642 Y227.027 E.04316
G1 X102.973 Y123.358 E7.00615
G1 X102.973 Y124.261 E.04316
G1 X205.739 Y227.027 E6.94512
G1 X204.835 Y227.027 E.04316
G1 X102.973 Y125.165 E6.88409
G1 X102.973 Y126.068 E.04316
G1 X203.932 Y227.027 E6.82306
G1 X203.029 Y227.027 E.04316
G1 X102.973 Y126.971 E6.76202
G1 X102.973 Y127.874 E.04316
G1 X202.126 Y227.027 E6.70099
M73 P10 R19
G1 X201.223 Y227.027 E.04316
G1 X102.973 Y128.777 E6.63996
G1 X102.973 Y129.68 E.04316
G1 X200.32 Y227.027 E6.57893
G1 X199.417 Y227.027 E.04316
G1 X102.973 Y130.583 E6.5179
G1 X102.973 Y131.486 E.04316
G1 X198.514 Y227.027 E6.45686
G1 X197.611 Y227.027 E.04316
G1 X102.973 Y132.389 E6.39583
G1 X102.973 Y133.292 E.04316
G1 X196.708 Y227.027 E6.3348
G1 X195.805 Y227.027 E.04316
G1 X102.973 Y134.195 E6.27377
G1 X102.973 Y135.098 E.04316
G1 X194.902 Y227.027 E6.21274
G1 X193.999 Y227.027 E.04316
G1 X102.973 Y136.001 E6.1517
G1 X102.973 Y136.905 E.04316
G1 X193.095 Y227.027 E6.09067
G1 X192.192 Y227.027 E.04316
G1 X102.973 Y137.808 E6.02964
M73 P11 R19
G1 X102.973 Y138.711 E.04316
G1 X191.289 Y227.027 E5.96861
G1 X190.386 Y227.027 E.04316
G1 X102.973 Y139.614 E5.90758
G1 X102.973 Y140.517 E.04316
G1 X189.483 Y227.027 E5.84654
G1 X188.58 Y227.027 E.04316
G1 X102.973 Y141.42 E5.78551
G1 X102.973 Y142.323 E.04316
G1 X187.677 Y227.027 E5.72448
G1 X186.774 Y227.027 E.04316
G1 X102.973 Y143.226 E5.66345
G1 X102.973 Y144.129 E.04316
G1 X185.871 Y227.027 E5.60241
G1 X184.968 Y227.027 E.04316
G1 X102.973 Y145.032 E5.54138
G1 X102.973 Y145.935 E.04316
G1 X184.065 Y227.027 E5.48035
G1 X183.162 Y227.027 E.04316
G1 X102.973 Y146.838 E5.41932
G1 X102.973 Y147.741 E.04316
G1 X182.259 Y227.027 E5.35829
G1 X181.355 Y227.027 E.04316
G1 X102.973 Y148.645 E5.29725
G1 X102.973 Y149.548 E.04316
G1 X180.452 Y227.027 E5.23622
M73 P12 R19
G1 X179.549 Y227.027 E.04316
G1 X102.973 Y150.451 E5.17519
G1 X102.973 Y151.354 E.04316
G1 X178.646 Y227.027 E5.11416
G1 X177.743 Y227.027 E.04316
G1 X102.973 Y152.257 E5.05313
G1 X102.973 Y153.16 E.04316
G1 X176.84 Y227.027 E4.99209
G1 X175.937 Y227.027 E.04316
G1 X102.973 Y154.063 E4.93106
G1 X102.973 Y154.966 E.04316
G1 X175.034 Y227.027 E4.87003
G1 X174.131 Y227.027 E.04316
G1 X102.973 Y155.869 E4.809
G1 X102.973 Y156.772 E.04316
G1 X173.228 Y227.027 E4.74797
M73 P12 R18
G1 X172.325 Y227.027 E.04316
G1 X102.973 Y157.675 E4.68693
G1 X102.973 Y158.578 E.04316
G1 X171.422 Y227.027 E4.6259
G1 X170.518 Y227.027 E.04316
G1 X102.973 Y159.482 E4.56487
G1 X102.973 Y160.385 E.04316
G1 X169.615 Y227.027 E4.50384
G1 X168.712 Y227.027 E.04316
G1 X102.973 Y161.288 E4.44281
G1 X102.973 Y162.191 E.04316
G1 X167.809 Y227.027 E4.38177
G1 X166.906 Y227.027 E.04316
G1 X102.973 Y163.094 E4.32074
M73 P13 R18
G1 X102.973 Y163.997 E.04316
G1 X166.003 Y227.027 E4.25971
G1 X165.1 Y227.027 E.04316
G1 X102.973 Y164.9 E4.19868
G1 X102.973 Y165.803 E.04316
G1 X164.197 Y227.027 E4.13765
G1 X163.294 Y227.027 E.04316
G1 X102.973 Y166.706 E4.07661
G1 X102.973 Y167.609 E.04316
G1 X162.391 Y227.027 E4.01558
G1 X161.488 Y227.027 E.04316
G1 X102.973 Y168.512 E3.95455
G1 X102.973 Y169.415 E.04316
G1 X160.585 Y227.027 E3.89352
G1 X159.682 Y227.027 E.04316
G1 X102.973 Y170.318 E3.83249
G1 X102.973 Y171.222 E.04316
G1 X158.778 Y227.027 E3.77145
G1 X157.875 Y227.027 E.04316
G1 X102.973 Y172.125 E3.71042
G1 X102.973 Y173.028 E.04316
G1 X156.972 Y227.027 E3.64939
G1 X156.069 Y227.027 E.04316
G1 X102.973 Y173.931 E3.58836
G1 X102.973 Y174.834 E.04316
G1 X155.166 Y227.027 E3.52733
G1 X154.263 Y227.027 E.04316
G1 X102.973 Y175.737 E3.46629
G1 X102.973 Y176.64 E.04316
G1 X153.36 Y227.027 E3.40526
G1 X152.457 Y227.027 E.04316
G1 X102.973 Y177.543 E3.34423
G1 X102.973 Y178.446 E.04316
G1 X151.554 Y227.027 E3.2832
G1 X150.651 Y227.027 E.04316
G1 X102.973 Y179.349 E3.22217
M73 P14 R18
G1 X102.973 Y180.252 E.04316
G1 X149.748 Y227.027 E3.16113
G1 X148.845 Y227.027 E.04316
G1 X102.973 Y181.155 E3.1001
G1 X102.973 Y182.058 E.04316
G1 X147.942 Y227.027 E3.03907
G1 X147.038 Y227.027 E.04316
G1 X102.973 Y182.962 E2.97804
G1 X102.973 Y183.865 E.04316
G1 X146.135 Y227.027 E2.91701
G1 X145.232 Y227.027 E.04316
G1 X102.973 Y184.768 E2.85597
G1 X102.973 Y185.671 E.04316
G1 X144.329 Y227.027 E2.79494
G1 X143.426 Y227.027 E.04316
G1 X102.973 Y186.574 E2.73391
G1 X102.973 Y187.477 E.04316
G1 X142.523 Y227.027 E2.67288
G1 X141.62 Y227.027 E.04316
G1 X102.973 Y188.38 E2.61185
G1 X102.973 Y189.283 E.04316
G1 X140.717 Y227.027 E2.55081
G1 X139.814 Y227.027 E.04316
G1 X102.973 Y190.186 E2.48978
G1 X102.973 Y191.089 E.04316
G1 X138.911 Y227.027 E2.42875
G1 X138.008 Y227.027 E.04316
G1 X102.973 Y191.992 E2.36772
G1 X102.973 Y192.895 E.04316
G1 X137.105 Y227.027 E2.30669
G1 X136.202 Y227.027 E.04316
G1 X102.973 Y193.798 E2.24565
G1 X102.973 Y194.702 E.04316
G1 X135.298 Y227.027 E2.18462
G1 X134.395 Y227.027 E.04316
G1 X102.973 Y195.605 E2.12359
G1 X102.973 Y196.508 E.04316
G1 X133.492 Y227.027 E2.06256
G1 X132.589 Y227.027 E.04316
G1 X102.973 Y197.411 E2.00153
G1 X102.973 Y198.314 E.04316
G1 X131.686 Y227.027 E1.94049
G1 X130.783 Y227.027 E.04316
G1 X102.973 Y199.217 E1.87946
G1 X102.973 Y200.12 E.04316
G1 X129.88 Y227.027 E1.81843
G1 X128.977 Y227.027 E.04316
G1 X102.973 Y201.023 E1.7574
G1 X102.973 Y201.926 E.04316
G1 X128.074 Y227.027 E1.69637
G1 X127.171 Y227.027 E.04316
G1 X102.973 Y202.829 E1.63533
G1 X102.973 Y203.732 E.04316
G1 X126.268 Y227.027 E1.5743
G1 X125.365 Y227.027 E.04316
G1 X102.973 Y204.635 E1.51327
G1 X102.973 Y205.539 E.04316
M73 P15 R18
G1 X124.461 Y227.027 E1.45224
G1 X123.558 Y227.027 E.04316
