; HEADER_BLOCK_START
; generated by OrcaSlicer 1.8.1 on 2024-01-10 at 09:07:16
; total layer number: 112
; HEADER_BLOCK_END

; THUMBNAIL_BLOCK_START

;
; THUMBNAIL_BLOCK_END

; external perimeters extrusion width = 0.62mm
; perimeters extrusion width = 0.62mm
; infill extrusion width = 0.65mm
; solid infill extrusion width = 0.65mm
; top infill extrusion width = 0.65mm
; first layer extrusion width = 0.68mm

; EXECUTABLE_BLOCK_START
EXCLUDE_OBJECT_DEFINE NAME=Cube_id_0_copy_0 CENTER=160,170 POLYGON=[[64.2559,74.2559],[255.744,74.2559],[255.744,265.744],[64.2559,265.744],[64.2559,74.2559]]
M73 P0 R158
;TYPE:Custom
M190 S76
M109 S216
START_PRINT HOTEND=216 BED=76
G90
G21
M83 ; use relative distances for extrusion
; filament start gcode
SET_PRESSURE_ADVANCE ADVANCE=0.032; Override pressure advance value
M106 S0
;LAYER_CHANGE
;Z:0.2
;HEIGHT:0.2
;BEFORE_LAYER_CHANGE
;0.2
G92 E0

G1 E-.5 F1800
;DSLR_SNAPSHOT
TIMELAPSE_TAKE_FRAME
;_SET_FAN_SPEED_CHANGING_LAYER
SET_VELOCITY_LIMIT ACCEL=5000 ACCEL_TO_DECEL=2500
G1 X63.072 Y71.9 F48000
G1 Z.2
G1 E.5 F4800
;TYPE:Skirt
;WIDTH:0.68
G1 F3000
G1 X64.256 Y71.619 E.05802
G1 X255.744 Y71.619 E9.1294
G1 X257.128 Y72.011 E.06859
G1 X258.1 Y73.072 E.06859
G1 X258.381 Y74.256 E.05802
G1 X258.381 Y265.744 E9.1294
G1 X257.989 Y267.128 E.06859
G1 X256.928 Y268.1 E.06859
G1 X255.744 Y268.381 E.05802
G1 X64.256 Y268.381 E9.1294
G1 X62.872 Y267.989 E.06859
G1 X61.9 Y266.928 E.06859
G1 X61.619 Y265.744 E.05802
G1 X61.619 Y74.256 E9.1294
G1 X62.011 Y72.872 E.06859
G1 X63.027 Y71.94 E.06573
; printing object Cube id:0 copy 0
G1 E-.35 F1800
;WIPE_START
G1 F3000
G1 X63.995 Y71.687 E-.15
;WIPE_END
EXCLUDE_OBJECT_START NAME=Cube_id_0_copy_0
G1 X65.97 Y75.97 F48000
G1 E.5 F4800
;TYPE:Inner wall
;WIDTH:0.679999
G1 F7200
G1 X254.03 Y75.97 E8.96595
G1 X254.03 Y170 E4.48297
G1 X254.03 Y264.03 E4.48297
G1 X65.97 Y264.03 E8.96595
G1 X65.97 Y75.982 E8.96537
G1 X65.333 Y75.333 F48000
G1 F7200
G1 X254.667 Y75.333 E9.02669
M73 P0 R157
G1 X254.667 Y170 E4.51335
G1 X254.667 Y264.667 E4.51335
G1 X65.333 Y264.667 E9.02669
G1 X65.333 Y75.345 E9.02612
G1 X64.696 Y74.696 F48000
;TYPE:Outer wall
G1 F7200
G1 X255.304 Y74.696 E9.08744
G1 X255.304 Y170 E4.54372
G1 X255.304 Y265.304 E4.54372
G1 X64.696 Y265.304 E9.08744
G1 X64.696 Y74.708 E9.08687
G1 E-.35 F1800
;WIPE_START
G1 F7200
G1 X65.696 Y74.708 E-.15
;WIPE_END
G1 X253.839 Y77.451 F48000
G1 E.5 F4800
;TYPE:Bottom surface
;WIDTH:0.681156
G1 F7200
G1 X252.835 Y76.448 E.06779
G1 X251.933 Y76.448 E.04311
G1 X253.552 Y78.067 E.10939
G1 X253.552 Y78.97 E.04311
G1 X251.03 Y76.448 E.17036
G1 X250.127 Y76.448 E.04311
G1 X253.552 Y79.873 E.23133
G1 X253.552 Y80.775 E.04311
G1 X249.225 Y76.448 E.29229
G1 X248.322 Y76.448 E.04311
G1 X253.552 Y81.678 E.35326
G1 X253.552 Y82.58 E.04311
G1 X247.42 Y76.448 E.41423
G1 X246.517 Y76.448 E.04311
G1 X253.552 Y83.483 E.4752
G1 X253.552 Y84.386 E.04311
G1 X245.614 Y76.448 E.53616
G1 X244.712 Y76.448 E.04311
G1 X253.552 Y85.288 E.59713
G1 X253.552 Y86.191 E.04311
G1 X243.809 Y76.448 E.6581
G1 X242.907 Y76.448 E.04311
G1 X253.552 Y87.093 E.71907
G1 X253.552 Y87.996 E.04311
G1 X242.004 Y76.448 E.78003
G1 X241.101 Y76.448 E.04311
G1 X253.552 Y88.899 E.841
G1 X253.552 Y89.801 E.04311
G1 X240.199 Y76.448 E.90197
G1 X239.296 Y76.448 E.04311
G1 X253.552 Y90.704 E.96294
G1 X253.552 Y91.606 E.04311
G1 X238.394 Y76.448 E1.02391
G1 X237.491 Y76.448 E.04311
G1 X253.552 Y92.509 E1.08487
G1 X253.552 Y93.412 E.04311
G1 X236.588 Y76.448 E1.14584
G1 X235.686 Y76.448 E.04311
G1 X253.552 Y94.314 E1.20681
G1 X253.552 Y95.217 E.04311
G1 X234.783 Y76.448 E1.26778
G1 X233.881 Y76.448 E.04311
G1 X253.552 Y96.119 E1.32874
G1 X253.552 Y97.022 E.04311
G1 X232.978 Y76.448 E1.38971
G1 X232.075 Y76.448 E.04311
G1 X253.552 Y97.925 E1.45068
G1 X253.552 Y98.827 E.04311
G1 X231.173 Y76.448 E1.51165
G1 X230.27 Y76.448 E.04311
G1 X253.552 Y99.73 E1.57261
G1 X253.552 Y100.632 E.04311
G1 X229.368 Y76.448 E1.63358
G1 X228.465 Y76.448 E.04311
G1 X253.552 Y101.535 E1.69455
G1 X253.552 Y102.438 E.04311
G1 X227.562 Y76.448 E1.75552
G1 X226.66 Y76.448 E.04311
G1 X253.552 Y103.34 E1.81648
G1 X253.552 Y104.243 E.04311
G1 X225.757 Y76.448 E1.87745
G1 X224.855 Y76.448 E.04311
G1 X253.552 Y105.145 E1.93842
G1 X253.552 Y106.048 E.04311
G1 X223.952 Y76.448 E1.99939
G1 X223.049 Y76.448 E.04311
G1 X253.552 Y106.951 E2.06035
G1 X253.552 Y107.853 E.04311
G1 X222.147 Y76.448 E2.12132
G1 X221.244 Y76.448 E.04311
G1 X253.552 Y108.756 E2.18229
G1 X253.552 Y109.658 E.04311
G1 X220.342 Y76.448 E2.24326
G1 X219.439 Y76.448 E.04311
G1 X253.552 Y110.561 E2.30422
G1 X253.552 Y111.464 E.04311
G1 X218.536 Y76.448 E2.36519
G1 X217.634 Y76.448 E.04311
G1 X253.552 Y112.366 E2.42616
G1 X253.552 Y113.269 E.04311
G1 X216.731 Y76.448 E2.48713
G1 X215.829 Y76.448 E.04311
G1 X253.552 Y114.171 E2.5481
G1 X253.552 Y115.074 E.04311
G1 X214.926 Y76.448 E2.60906
G1 X214.023 Y76.448 E.04311
G1 X253.552 Y115.977 E2.67003
G1 X253.552 Y116.879 E.04311
G1 X213.121 Y76.448 E2.731
G1 X212.218 Y76.448 E.04311
G1 X253.552 Y117.782 E2.79197
G1 X253.552 Y118.684 E.04311
G1 X211.316 Y76.448 E2.85293
G1 X210.413 Y76.448 E.04311
G1 X253.552 Y119.587 E2.9139
G1 X253.552 Y120.49 E.04311
G1 X209.51 Y76.448 E2.97487
G1 X208.608 Y76.448 E.04311
G1 X253.552 Y121.392 E3.03584
G1 X253.552 Y122.295 E.04311
G1 X207.705 Y76.448 E3.0968
G1 X206.803 Y76.448 E.04311
G1 X253.552 Y123.197 E3.15777
G1 X253.552 Y124.1 E.04311
G1 X205.9 Y76.448 E3.21874
G1 X204.997 Y76.448 E.04311
G1 X253.552 Y125.003 E3.27971
G1 X253.552 Y125.905 E.04311
G1 X204.095 Y76.448 E3.34067
G1 X203.192 Y76.448 E.04311
G1 X253.552 Y126.808 E3.40164
G1 X253.552 Y127.71 E.04311
G1 X202.29 Y76.448 E3.46261
G1 X201.387 Y76.448 E.04311
G1 X253.552 Y128.613 E3.52358
G1 X253.552 Y129.516 E.04311
G1 X200.484 Y76.448 E3.58454
G1 X199.582 Y76.448 E.04311
G1 X253.552 Y130.418 E3.64551
G1 X253.552 Y131.321 E.04311
G1 X198.679 Y76.448 E3.70648
G1 X197.777 Y76.448 E.04311
G1 X253.552 Y132.223 E3.76745
G1 X253.552 Y133.126 E.04311
G1 X196.874 Y76.448 E3.82841
G1 X195.971 Y76.448 E.04311
G1 X253.552 Y134.029 E3.88938
G1 X253.552 Y134.931 E.04311
G1 X195.069 Y76.448 E3.95035
G1 X194.166 Y76.448 E.04311
G1 X253.552 Y135.834 E4.01132
G1 X253.552 Y136.736 E.04311
G1 X193.264 Y76.448 E4.07229
G1 X192.361 Y76.448 E.04311
G1 X253.552 Y137.639 E4.13325
G1 X253.552 Y138.542 E.04311
G1 X191.458 Y76.448 E4.19422
G1 X190.556 Y76.448 E.04311
G1 X253.552 Y139.444 E4.25519
G1 X253.552 Y140.347 E.04311
G1 X189.653 Y76.448 E4.31616
G1 X188.751 Y76.448 E.04311
G1 X253.552 Y141.249 E4.37712
G1 X253.552 Y142.152 E.04311
G1 X187.848 Y76.448 E4.43809
G1 X186.945 Y76.448 E.04311
G1 X253.552 Y143.055 E4.49906
G1 X253.552 Y143.957 E.04311
G1 X186.043 Y76.448 E4.56003
G1 X185.14 Y76.448 E.04311
G1 X253.552 Y144.86 E4.62099
G1 X253.552 Y145.762 E.04311
G1 X184.238 Y76.448 E4.68196
G1 X183.335 Y76.448 E.04311
G1 X253.552 Y146.665 E4.74293
G1 X253.552 Y147.568 E.04311
G1 X182.432 Y76.448 E4.8039
G1 X181.53 Y76.448 E.04311
G1 X253.552 Y148.47 E4.86486
G1 X253.552 Y149.373 E.04311
G1 X180.627 Y76.448 E4.92583
G1 X179.725 Y76.448 E.04311
G1 X253.552 Y150.275 E4.9868
G1 X253.552 Y151.178 E.04311
G1 X178.822 Y76.448 E5.04777
G1 X177.919 Y76.448 E.04311
G1 X253.552 Y152.081 E5.10873
G1 X253.552 Y152.983 E.04311
G1 X177.017 Y76.448 E5.1697
G1 X176.114 Y76.448 E.04311
G1 X253.552 Y153.886 E5.23067
G1 X253.552 Y154.789 E.04311
G1 X175.211 Y76.448 E5.29164
G1 X174.309 Y76.448 E.04311
G1 X253.552 Y155.691 E5.3526
G1 X253.552 Y156.594 E.04311
G1 X173.406 Y76.448 E5.41357
G1 X172.504 Y76.448 E.04311
G1 X253.552 Y157.496 E5.47454
M73 P0 R156
G1 X253.552 Y158.399 E.04311
G1 X171.601 Y76.448 E5.53551
G1 X170.698 Y76.448 E.04311
G1 X253.552 Y159.302 E5.59648
G1 X253.552 Y160.204 E.04311
G1 X169.796 Y76.448 E5.65744
G1 X168.893 Y76.448 E.04311
G1 X253.552 Y161.107 E5.71841
G1 X253.552 Y162.009 E.04311
G1 X167.991 Y76.448 E5.77938
G1 X167.088 Y76.448 E.04311
G1 X253.552 Y162.912 E5.84035
G1 X253.552 Y163.815 E.04311
G1 X166.185 Y76.448 E5.90131
G1 X165.283 Y76.448 E.04311
G1 X253.552 Y164.717 E5.96228
G1 X253.552 Y165.62 E.04311
G1 X164.38 Y76.448 E6.02325
G1 X163.478 Y76.448 E.04311
G1 X253.552 Y166.522 E6.08422
G1 X253.552 Y167.425 E.04311
G1 X162.575 Y76.448 E6.14518
M73 P1 R156
G1 X161.672 Y76.448 E.04311
G1 X253.552 Y168.328 E6.20615
G1 X253.552 Y169.23 E.04311
G1 X160.77 Y76.448 E6.26712
G1 X159.867 Y76.448 E.04311
G1 X253.552 Y170.133 E6.32809
G1 X253.552 Y171.035 E.04311
G1 X158.965 Y76.448 E6.38905
G1 X158.062 Y76.448 E.04311
G1 X253.552 Y171.938 E6.45002
G1 X253.552 Y172.841 E.04311
G1 X157.159 Y76.448 E6.51099
G1 X156.257 Y76.448 E.04311
G1 X253.552 Y173.743 E6.57196
G1 X253.552 Y174.646 E.04311
G1 X155.354 Y76.448 E6.63292
G1 X154.452 Y76.448 E.04311
G1 X253.552 Y175.548 E6.69389
G1 X253.552 Y176.451 E.04311
G1 X153.549 Y76.448 E6.75486
G1 X152.646 Y76.448 E.04311
G1 X253.552 Y177.354 E6.81583
G1 X253.552 Y178.256 E.04311
G1 X151.744 Y76.448 E6.87679
G1 X150.841 Y76.448 E.04311
G1 X253.552 Y179.159 E6.93776
G1 X253.552 Y180.061 E.04311
G1 X149.939 Y76.448 E6.99873
G1 X149.036 Y76.448 E.04311
G1 X253.552 Y180.964 E7.0597
G1 X253.552 Y181.867 E.04311
G1 X148.133 Y76.448 E7.12067
G1 X147.231 Y76.448 E.04311
G1 X253.552 Y182.769 E7.18163
G1 X253.552 Y183.672 E.04311
G1 X146.328 Y76.448 E7.2426
G1 X145.426 Y76.448 E.04311
G1 X253.552 Y184.574 E7.30357
G1 X253.552 Y185.477 E.04311
G1 X144.523 Y76.448 E7.36454
G1 X143.62 Y76.448 E.04311
G1 X253.552 Y186.38 E7.4255
G1 X253.552 Y187.282 E.04311
G1 X142.718 Y76.448 E7.48647
G1 X141.815 Y76.448 E.04311
G1 X253.552 Y188.185 E7.54744
G1 X253.552 Y189.087 E.04311
G1 X140.913 Y76.448 E7.60841
G1 X140.01 Y76.448 E.04311
G1 X253.552 Y189.99 E7.66937
G1 X253.552 Y190.893 E.04311
G1 X139.107 Y76.448 E7.73034
G1 X138.205 Y76.448 E.04311
G1 X253.552 Y191.795 E7.79131
G1 X253.552 Y192.698 E.04311
G1 X137.302 Y76.448 E7.85228
G1 X136.4 Y76.448 E.04311
G1 X253.552 Y193.6 E7.91324
G1 X253.552 Y194.503 E.04311
G1 X135.497 Y76.448 E7.97421
G1 X134.594 Y76.448 E.04311
G1 X253.552 Y195.406 E8.03518
G1 X253.552 Y196.308 E.04311
G1 X133.692 Y76.448 E8.09615
G1 X132.789 Y76.448 E.04311
G1 X253.552 Y197.211 E8.15711
G1 X253.552 Y198.113 E.04311
G1 X131.887 Y76.448 E8.21808
G1 X130.984 Y76.448 E.04311
G1 X253.552 Y199.016 E8.27905
G1 X253.552 Y199.919 E.04311
G1 X130.081 Y76.448 E8.34002
G1 X129.179 Y76.448 E.04311
G1 X253.552 Y200.821 E8.40098
M73 P1 R155
G1 X253.552 Y201.724 E.04311
G1 X128.276 Y76.448 E8.46195
G1 X127.374 Y76.448 E.04311
G1 X253.552 Y202.626 E8.52292
G1 X253.552 Y203.529 E.04311
G1 X126.471 Y76.448 E8.58389
G1 X125.568 Y76.448 E.04311
G1 X253.552 Y204.432 E8.64486
G1 X253.552 Y205.334 E.04311
G1 X124.666 Y76.448 E8.70582
G1 X123.763 Y76.448 E.04311
G1 X253.552 Y206.237 E8.76679
G1 X253.552 Y207.139 E.04311
G1 X122.861 Y76.448 E8.82776
G1 X121.958 Y76.448 E.04311
G1 X253.552 Y208.042 E8.88873
G1 X253.552 Y208.945 E.04311
G1 X121.055 Y76.448 E8.94969
G1 X120.153 Y76.448 E.04311
G1 X253.552 Y209.847 E9.01066
G1 X253.552 Y210.75 E.04311
G1 X119.25 Y76.448 E9.07163
G1 X118.348 Y76.448 E.04311
G1 X253.552 Y211.652 E9.1326
G1 X253.552 Y212.555 E.04311
G1 X117.445 Y76.448 E9.19356
G1 X116.542 Y76.448 E.04311
G1 X253.552 Y213.458 E9.25453
G1 X253.552 Y214.36 E.04311
G1 X115.64 Y76.448 E9.3155
G1 X114.737 Y76.448 E.04311
G1 X253.552 Y215.263 E9.37647
G1 X253.552 Y216.165 E.04311
G1 X113.835 Y76.448 E9.43743
G1 X112.932 Y76.448 E.04311
G1 X253.552 Y217.068 E9.4984
G1 X253.552 Y217.971 E.04311
G1 X112.029 Y76.448 E9.55937
G1 X111.127 Y76.448 E.04311
G1 X253.552 Y218.873 E9.62034
G1 X253.552 Y219.776 E.04311
G1 X110.224 Y76.448 E9.6813
G1 X109.322 Y76.448 E.04311
G1 X253.552 Y220.678 E9.74227
G1 X253.552 Y221.581 E.04311
G1 X108.419 Y76.448 E9.80324
G1 X107.516 Y76.448 E.04311
G1 X253.552 Y222.484 E9.86421
G1 X253.552 Y223.386 E.04311
G1 X106.614 Y76.448 E9.92517
G1 X105.711 Y76.448 E.04311
G1 X253.552 Y224.289 E9.98614
G1 X253.552 Y225.191 E.04311
G1 X104.809 Y76.448 E10.04711
G1 X103.906 Y76.448 E.04311
G1 X253.552 Y226.094 E10.10808
M73 P2 R155
G1 X253.552 Y226.997 E.04311
G1 X103.003 Y76.448 E10.16905
G1 X102.101 Y76.448 E.04311
G1 X253.552 Y227.899 E10.23001
G1 X253.552 Y228.802 E.04311
G1 X101.198 Y76.448 E10.29098
G1 X100.296 Y76.448 E.04311
G1 X253.552 Y229.704 E10.35195
G1 X253.552 Y230.607 E.04311
G1 X99.393 Y76.448 E10.41292
G1 X98.49 Y76.448 E.04311
G1 X253.552 Y231.51 E10.47388
G1 X253.552 Y232.412 E.04311
G1 X97.588 Y76.448 E10.53485
M73 P2 R154
G1 X96.685 Y76.448 E.04311
G1 X253.552 Y233.315 E10.59582
G1 X253.552 Y234.217 E.04311
G1 X95.783 Y76.448 E10.65679
G1 X94.88 Y76.448 E.04311
G1 X253.552 Y235.12 E10.71775
G1 X253.552 Y236.023 E.04311
G1 X93.977 Y76.448 E10.77872
G1 X93.075 Y76.448 E.04311
G1 X253.552 Y236.925 E10.83969
G1 X253.552 Y237.828 E.04311
G1 X92.172 Y76.448 E10.90066
G1 X91.27 Y76.448 E.04311
G1 X253.552 Y238.73 E10.96162
G1 X253.552 Y239.633 E.04311
G1 X90.367 Y76.448 E11.02259
G1 X89.464 Y76.448 E.04311
G1 X253.552 Y240.536 E11.08356
G1 X253.552 Y241.438 E.04311
G1 X88.562 Y76.448 E11.14453
G1 X87.659 Y76.448 E.04311
G1 X253.552 Y242.341 E11.20549
G1 X253.552 Y243.244 E.04311
G1 X86.756 Y76.448 E11.26646
G1 X85.854 Y76.448 E.04311
G1 X253.552 Y244.146 E11.32743
G1 X253.552 Y245.049 E.04311
G1 X84.951 Y76.448 E11.3884
G1 X84.049 Y76.448 E.04311
G1 X253.552 Y245.951 E11.44936
G1 X253.552 Y246.854 E.04311
G1 X83.146 Y76.448 E11.51033
G1 X82.243 Y76.448 E.04311
G1 X253.552 Y247.757 E11.5713
G1 X253.552 Y248.659 E.04311
G1 X81.341 Y76.448 E11.63227
G1 X80.438 Y76.448 E.04311
G1 X253.552 Y249.562 E11.69324
G1 X253.552 Y250.464 E.04311
G1 X79.536 Y76.448 E11.7542
G1 X78.633 Y76.448 E.04311
G1 X253.552 Y251.367 E11.81517
G1 X253.552 Y252.27 E.04311
G1 X77.73 Y76.448 E11.87614
G1 X76.828 Y76.448 E.04311
G1 X253.552 Y253.172 E11.93711
G1 X253.552 Y254.075 E.04311
G1 X75.925 Y76.448 E11.99807
G1 X75.023 Y76.448 E.04311
G1 X253.552 Y254.977 E12.05904
G1 X253.552 Y255.88 E.04311
G1 X74.12 Y76.448 E12.12001
G1 X73.217 Y76.448 E.04311
G1 X253.552 Y256.783 E12.18098
G1 X253.552 Y257.685 E.04311
G1 X72.315 Y76.448 E12.24194
G1 X71.412 Y76.448 E.04311
G1 X253.552 Y258.588 E12.30291
M73 P2 R153
G1 X253.552 Y259.49 E.04311
G1 X70.51 Y76.448 E12.36388
G1 X69.607 Y76.448 E.04311
G1 X253.552 Y260.393 E12.42485
G1 X253.552 Y261.296 E.04311
G1 X68.704 Y76.448 E12.48581
G1 X67.802 Y76.448 E.04311
G1 X253.552 Y262.198 E12.54678
G1 X253.552 Y263.101 E.04311
G1 X66.899 Y76.448 E12.60775
G1 X66.448 Y76.448 E.02156
G1 X66.448 Y76.899 E.02155
G1 X253.101 Y263.552 E12.60776
G1 X252.198 Y263.552 E.04311
G1 X66.448 Y77.802 E12.5468
G1 X66.448 Y78.704 E.04311
G1 X251.296 Y263.552 E12.48583
G1 X250.393 Y263.552 E.04311
G1 X66.448 Y79.607 E12.42486
G1 X66.448 Y80.509 E.04311
G1 X249.491 Y263.552 E12.36389
M73 P3 R153
G1 X248.588 Y263.552 E.04311
G1 X66.448 Y81.412 E12.30293
G1 X66.448 Y82.315 E.04311
G1 X247.685 Y263.552 E12.24196
G1 X246.783 Y263.552 E.04311
G1 X66.448 Y83.217 E12.18099
G1 X66.448 Y84.12 E.04311
G1 X245.88 Y263.552 E12.12002
G1 X244.978 Y263.552 E.04311
G1 X66.448 Y85.022 E12.05906
G1 X66.448 Y85.925 E.04311
G1 X244.075 Y263.552 E11.99809
G1 X243.172 Y263.552 E.04311
G1 X66.448 Y86.828 E11.93712
G1 X66.448 Y87.73 E.04311
G1 X242.27 Y263.552 E11.87615
G1 X241.367 Y263.552 E.04311
G1 X66.448 Y88.633 E11.81519
G1 X66.448 Y89.535 E.04311
G1 X240.465 Y263.552 E11.75422
G1 X239.562 Y263.552 E.04311
G1 X66.448 Y90.438 E11.69325
G1 X66.448 Y91.341 E.04311
G1 X238.659 Y263.552 E11.63228
G1 X237.757 Y263.552 E.04311
G1 X66.448 Y92.243 E11.57132
G1 X66.448 Y93.146 E.04311
G1 X236.854 Y263.552 E11.51035
G1 X235.952 Y263.552 E.04311
G1 X66.448 Y94.048 E11.44938
G1 X66.448 Y94.951 E.04311
G1 X235.049 Y263.552 E11.38841
G1 X234.146 Y263.552 E.04311
G1 X66.448 Y95.854 E11.32745
G1 X66.448 Y96.756 E.04311
G1 X233.244 Y263.552 E11.26648
M73 P3 R152
G1 X232.341 Y263.552 E.04311
G1 X66.448 Y97.659 E11.20551
G1 X66.448 Y98.561 E.04311
G1 X231.439 Y263.552 E11.14454
G1 X230.536 Y263.552 E.04311
G1 X66.448 Y99.464 E11.08357
G1 X66.448 Y100.367 E.04311
G1 X229.633 Y263.552 E11.02261
