; HEADER_BLOCK_START
; generated by OrcaSlicer 1.6.3 on 2024-01-09 at 18:07:37
; total layer number: 30
; HEADER_BLOCK_END

; THUMBNAIL_BLOCK_START
; THUMBNAIL_BLOCK_END

; external perimeters extrusion width = 0.62mm
; perimeters extrusion width = 0.62mm
; infill extrusion width = 0.65mm
; solid infill extrusion width = 0.65mm
; top infill extrusion width = 0.65mm
; first layer extrusion width = 0.68mm

; EXECUTABLE_BLOCK_START
EXCLUDE_OBJECT_DEFINE NAME=Cube_id_0_copy_0 CENTER=160,170 POLYGON=[[85.3069,95.3069],[234.693,95.3069],[234.693,244.693],[85.3069,244.693],[85.3069,95.3069]]
M73 P0 R36
;TYPE:Custom
M190 S75
M109 S215
START_PRINT HOTEND=215BED=75
G90
G21
M83 ; use relative distances for extrusion
; filament start gcode
SET_PRESSURE_ADVANCE ADVANCE=0.032; Override pressure advance value
M106 S0
;LAYER_CHANGE
;Z:0.2
;HEIGHT:0.2
;BEFORE_LAYER_CHANGE
;0.2
G92 E0

G1 E-.5 F1800
;DSLR_SNAPSHOT
TIMELAPSE_TAKE_FRAME
M204 S5000
G1 X84.123 Y92.951 F48000
G1 Z.2
G1 E.5 F4800
;TYPE:Skirt
;WIDTH:0.68
G1 F7200
G1 X85.307 Y92.67 E.05802
G1 X234.693 Y92.67 E7.12214
G1 X236.077 Y93.062 E.06859
G1 X237.049 Y94.123 E.06859
G1 X237.33 Y95.307 E.05802
G1 X237.33 Y244.693 E7.12214
G1 X236.938 Y246.077 E.06859
G1 X235.877 Y247.049 E.06859
G1 X234.693 Y247.33 E.05802
G1 X85.307 Y247.33 E7.12214
G1 X83.923 Y246.938 E.06859
G1 X82.951 Y245.877 E.06859
G1 X82.67 Y244.693 E.05802
G1 X82.67 Y95.307 E7.12214
G1 X83.062 Y93.923 E.06859
G1 X84.056 Y93.011 E.0643
; printing object Cube id:0 copy 0
EXCLUDE_OBJECT_START NAME=Cube_id_0_copy_0
G1 E-.35 F1800
;WIPE_START
G1 F7200
G1 X85.307 Y92.67 E-.09237
G1 X86.011 Y92.67 E-.05013
;WIPE_END
G1 E-.0075 F1800
G1 X87.021 Y97.021 F48000
G1 E.5 F4800
;TYPE:Inner wall
;WIDTH:0.679999
G1 F7200
G1 X232.979 Y97.021 E6.95869
G1 X232.979 Y242.979 E6.95869
G1 X87.021 Y242.979 E6.95869
G1 X87.021 Y170 E3.47934
G1 X87.021 Y97.033 E3.47877
G1 X86.384 Y96.384 F48000
G1 F7200
G1 X233.616 Y96.384 E7.01943
G1 X233.616 Y243.616 E7.01943
G1 X86.384 Y243.616 E7.01943
G1 X86.384 Y170 E3.50972
G1 X86.384 Y96.396 E3.50914
G1 X85.747 Y95.747 F48000
;TYPE:Outer wall
G1 F7200
G1 X234.253 Y95.747 E7.08018
G1 X234.253 Y244.253 E7.08018
G1 X85.747 Y244.253 E7.08018
G1 X85.747 Y170 E3.54009
G1 X85.747 Y95.759 E3.53952
G1 X85.851 Y95.807
G1 E-.35 F1800
;WIPE_START
G1 F7200
G1 X87.747 Y95.759 E-.1425
;WIPE_END
G1 E-.0075 F1800
G1 X231.499 Y97.212 F48000
G1 E.5 F4800
;TYPE:Bottom surface
;WIDTH:0.680582
G1 F7200
G1 X232.501 Y98.215 E.06765
G1 X232.501 Y99.116 E.04303
G1 X230.884 Y97.499 E.10916
G1 X229.982 Y97.499 E.04303
G1 X232.501 Y100.018 E.17001
G1 X232.501 Y100.92 E.04303
G1 X229.08 Y97.499 E.23087
G1 X228.178 Y97.499 E.04303
G1 X232.501 Y101.822 E.29173
G1 X232.501 Y102.723 E.04303
G1 X227.277 Y97.499 E.35259
M73 P1 R36
G1 X226.375 Y97.499 E.04303
G1 X232.501 Y103.625 E.41345
G1 X232.501 Y104.527 E.04303
G1 X225.473 Y97.499 E.4743
G1 X224.571 Y97.499 E.04303
G1 X232.501 Y105.429 E.53516
G1 X232.501 Y106.331 E.04303
G1 X223.669 Y97.499 E.59602
G1 X222.768 Y97.499 E.04303
G1 X232.501 Y107.232 E.65688
G1 X232.501 Y108.134 E.04303
G1 X221.866 Y97.499 E.71774
G1 X220.964 Y97.499 E.04303
G1 X232.501 Y109.036 E.77859
G1 X232.501 Y109.938 E.04303
G1 X220.062 Y97.499 E.83945
G1 X219.16 Y97.499 E.04303
G1 X232.501 Y110.84 E.90031
G1 X232.501 Y111.741 E.04303
G1 X218.259 Y97.499 E.96117
G1 X217.357 Y97.499 E.04303
G1 X232.501 Y112.643 E1.02203
G1 X232.501 Y113.545 E.04303
G1 X216.455 Y97.499 E1.08288
G1 X215.553 Y97.499 E.04303
G1 X232.501 Y114.447 E1.14374
G1 X232.501 Y115.349 E.04303
G1 X214.651 Y97.499 E1.2046
G1 X213.75 Y97.499 E.04303
G1 X232.501 Y116.25 E1.26546
G1 X232.501 Y117.152 E.04303
G1 X212.848 Y97.499 E1.32632
G1 X211.946 Y97.499 E.04303
G1 X232.501 Y118.054 E1.38717
G1 X232.501 Y118.956 E.04303
G1 X211.044 Y97.499 E1.44803
G1 X210.142 Y97.499 E.04303
G1 X232.501 Y119.858 E1.50889
G1 X232.501 Y120.759 E.04303
G1 X209.241 Y97.499 E1.56975
G1 X208.339 Y97.499 E.04303
G1 X232.501 Y121.661 E1.63061
G1 X232.501 Y122.563 E.04303
G1 X207.437 Y97.499 E1.69146
G1 X206.535 Y97.499 E.04303
G1 X232.501 Y123.465 E1.75232
G1 X232.501 Y124.366 E.04303
G1 X205.634 Y97.499 E1.81318
G1 X204.732 Y97.499 E.04303
G1 X232.501 Y125.268 E1.87404
G1 X232.501 Y126.17 E.04303
G1 X203.83 Y97.499 E1.9349
G1 X202.928 Y97.499 E.04303
G1 X232.501 Y127.072 E1.99575
G1 X232.501 Y127.974 E.04303
G1 X202.026 Y97.499 E2.05661
G1 X201.125 Y97.499 E.04303
G1 X232.501 Y128.875 E2.11747
G1 X232.501 Y129.777 E.04303
G1 X200.223 Y97.499 E2.17833
G1 X199.321 Y97.499 E.04303
G1 X232.501 Y130.679 E2.23919
G1 X232.501 Y131.581 E.04303
G1 X198.419 Y97.499 E2.30004
G1 X197.517 Y97.499 E.04303
G1 X232.501 Y132.483 E2.3609
G1 X232.501 Y133.384 E.04303
G1 X196.616 Y97.499 E2.42176
G1 X195.714 Y97.499 E.04303
G1 X232.501 Y134.286 E2.48262
G1 X232.501 Y135.188 E.04303
G1 X194.812 Y97.499 E2.54348
G1 X193.91 Y97.499 E.04303
G1 X232.501 Y136.09 E2.60433
G1 X232.501 Y136.992 E.04303
G1 X193.008 Y97.499 E2.66519
G1 X192.107 Y97.499 E.04303
G1 X232.501 Y137.893 E2.72605
G1 X232.501 Y138.795 E.04303
G1 X191.205 Y97.499 E2.78691
G1 X190.303 Y97.499 E.04303
G1 X232.501 Y139.697 E2.84777
G1 X232.501 Y140.599 E.04303
G1 X189.401 Y97.499 E2.90862
G1 X188.5 Y97.499 E.04303
G1 X232.501 Y141.5 E2.96948
G1 X232.501 Y142.402 E.04303
G1 X187.598 Y97.499 E3.03034
G1 X186.696 Y97.499 E.04303
G1 X232.501 Y143.304 E3.0912
G1 X232.501 Y144.206 E.04303
G1 X185.794 Y97.499 E3.15206
G1 X184.892 Y97.499 E.04303
G1 X232.501 Y145.108 E3.21291
G1 X232.501 Y146.009 E.04303
G1 X183.991 Y97.499 E3.27377
G1 X183.089 Y97.499 E.04303
G1 X232.501 Y146.911 E3.33463
G1 X232.501 Y147.813 E.04303
G1 X182.187 Y97.499 E3.39549
G1 X181.285 Y97.499 E.04303
G1 X232.501 Y148.715 E3.45635
G1 X232.501 Y149.617 E.04303
G1 X180.383 Y97.499 E3.5172
G1 X179.482 Y97.499 E.04303
G1 X232.501 Y150.518 E3.57806
G1 X232.501 Y151.42 E.04303
G1 X178.58 Y97.499 E3.63892
G1 X177.678 Y97.499 E.04303
G1 X232.501 Y152.322 E3.69978
M73 P2 R35
G1 X232.501 Y153.224 E.04303
G1 X176.776 Y97.499 E3.76064
G1 X175.874 Y97.499 E.04303
G1 X232.501 Y154.126 E3.82149
G1 X232.501 Y155.027 E.04303
G1 X174.973 Y97.499 E3.88235
G1 X174.071 Y97.499 E.04303
G1 X232.501 Y155.929 E3.94321
G1 X232.501 Y156.831 E.04303
G1 X173.169 Y97.499 E4.00407
G1 X172.267 Y97.499 E.04303
G1 X232.501 Y157.733 E4.06493
G1 X232.501 Y158.634 E.04303
G1 X171.366 Y97.499 E4.12578
G1 X170.464 Y97.499 E.04303
G1 X232.501 Y159.536 E4.18664
G1 X232.501 Y160.438 E.04303
G1 X169.562 Y97.499 E4.2475
G1 X168.66 Y97.499 E.04303
G1 X232.501 Y161.34 E4.30836
G1 X232.501 Y162.242 E.04303
G1 X167.758 Y97.499 E4.36922
G1 X166.857 Y97.499 E.04303
G1 X232.501 Y163.143 E4.43007
G1 X232.501 Y164.045 E.04303
G1 X165.955 Y97.499 E4.49093
G1 X165.053 Y97.499 E.04303
G1 X232.501 Y164.947 E4.55179
G1 X232.501 Y165.849 E.04303
G1 X164.151 Y97.499 E4.61265
G1 X163.249 Y97.499 E.04303
G1 X232.501 Y166.751 E4.6735
G1 X232.501 Y167.652 E.04303
G1 X162.348 Y97.499 E4.73436
G1 X161.446 Y97.499 E.04303
G1 X232.501 Y168.554 E4.79522
G1 X232.501 Y169.456 E.04303
G1 X160.544 Y97.499 E4.85608
G1 X159.642 Y97.499 E.04303
G1 X232.501 Y170.358 E4.91694
G1 X232.501 Y171.26 E.04303
G1 X158.74 Y97.499 E4.97779
G1 X157.839 Y97.499 E.04303
G1 X232.501 Y172.161 E5.03865
G1 X232.501 Y173.063 E.04303
G1 X156.937 Y97.499 E5.09951
G1 X156.035 Y97.499 E.04303
G1 X232.501 Y173.965 E5.16037
G1 X232.501 Y174.867 E.04303
G1 X155.133 Y97.499 E5.22123
G1 X154.231 Y97.499 E.04303
G1 X232.501 Y175.769 E5.28208
M73 P3 R35
G1 X232.501 Y176.67 E.04303
G1 X153.33 Y97.499 E5.34294
G1 X152.428 Y97.499 E.04303
G1 X232.501 Y177.572 E5.4038
G1 X232.501 Y178.474 E.04303
G1 X151.526 Y97.499 E5.46466
G1 X150.624 Y97.499 E.04303
G1 X232.501 Y179.376 E5.52552
G1 X232.501 Y180.277 E.04303
G1 X149.723 Y97.499 E5.58637
G1 X148.821 Y97.499 E.04303
G1 X232.501 Y181.179 E5.64723
G1 X232.501 Y182.081 E.04303
G1 X147.919 Y97.499 E5.70809
G1 X147.017 Y97.499 E.04303
G1 X232.501 Y182.983 E5.76895
G1 X232.501 Y183.885 E.04303
G1 X146.115 Y97.499 E5.82981
G1 X145.214 Y97.499 E.04303
G1 X232.501 Y184.786 E5.89066
G1 X232.501 Y185.688 E.04303
G1 X144.312 Y97.499 E5.95152
G1 X143.41 Y97.499 E.04303
G1 X232.501 Y186.59 E6.01238
G1 X232.501 Y187.492 E.04303
G1 X142.508 Y97.499 E6.07324
G1 X141.606 Y97.499 E.04303
G1 X232.501 Y188.394 E6.1341
G1 X232.501 Y189.295 E.04303
G1 X140.705 Y97.499 E6.19495
G1 X139.803 Y97.499 E.04303
G1 X232.501 Y190.197 E6.25581
G1 X232.501 Y191.099 E.04303
G1 X138.901 Y97.499 E6.31667
G1 X137.999 Y97.499 E.04303
G1 X232.501 Y192.001 E6.37753
G1 X232.501 Y192.903 E.04303
G1 X137.097 Y97.499 E6.43839
G1 X136.196 Y97.499 E.04303
G1 X232.501 Y193.804 E6.49924
G1 X232.501 Y194.706 E.04303
M73 P4 R35
G1 X135.294 Y97.499 E6.5601
G1 X134.392 Y97.499 E.04303
G1 X232.501 Y195.608 E6.62096
G1 X232.501 Y196.51 E.04303
G1 X133.49 Y97.499 E6.68182
G1 X132.589 Y97.499 E.04303
G1 X232.501 Y197.411 E6.74268
G1 X232.501 Y198.313 E.04303
G1 X131.687 Y97.499 E6.80353
G1 X130.785 Y97.499 E.04303
G1 X232.501 Y199.215 E6.86439
G1 X232.501 Y200.117 E.04303
G1 X129.883 Y97.499 E6.92525
G1 X128.981 Y97.499 E.04303
G1 X232.501 Y201.019 E6.98611
G1 X232.501 Y201.92 E.04303
G1 X128.08 Y97.499 E7.04697
G1 X127.178 Y97.499 E.04303
G1 X232.501 Y202.822 E7.10782
G1 X232.501 Y203.724 E.04303
G1 X126.276 Y97.499 E7.16868
G1 X125.374 Y97.499 E.04303
G1 X232.501 Y204.626 E7.22954
G1 X232.501 Y205.528 E.04303
G1 X124.472 Y97.499 E7.2904
M73 P4 R34
G1 X123.571 Y97.499 E.04303
G1 X232.501 Y206.429 E7.35126
G1 X232.501 Y207.331 E.04303
G1 X122.669 Y97.499 E7.41211
G1 X121.767 Y97.499 E.04303
G1 X232.501 Y208.233 E7.47297
G1 X232.501 Y209.135 E.04303
G1 X120.865 Y97.499 E7.53383
G1 X119.963 Y97.499 E.04303
G1 X232.501 Y210.037 E7.59469
M73 P5 R34
G1 X232.501 Y210.938 E.04303
G1 X119.062 Y97.499 E7.65555
G1 X118.16 Y97.499 E.04303
G1 X232.501 Y211.84 E7.7164
G1 X232.501 Y212.742 E.04303
G1 X117.258 Y97.499 E7.77726
G1 X116.356 Y97.499 E.04303
G1 X232.501 Y213.644 E7.83812
G1 X232.501 Y214.545 E.04303
G1 X115.455 Y97.499 E7.89898
G1 X114.553 Y97.499 E.04303
G1 X232.501 Y215.447 E7.95984
G1 X232.501 Y216.349 E.04303
G1 X113.651 Y97.499 E8.02069
G1 X112.749 Y97.499 E.04303
G1 X232.501 Y217.251 E8.08155
G1 X232.501 Y218.153 E.04303
G1 X111.847 Y97.499 E8.14241
G1 X110.946 Y97.499 E.04303
G1 X232.501 Y219.054 E8.20327
G1 X232.501 Y219.956 E.04303
G1 X110.044 Y97.499 E8.26413
G1 X109.142 Y97.499 E.04303
G1 X232.501 Y220.858 E8.32498
G1 X232.501 Y221.76 E.04303
G1 X108.24 Y97.499 E8.38584
G1 X107.338 Y97.499 E.04303
G1 X232.501 Y222.662 E8.4467
G1 X232.501 Y223.563 E.04303
G1 X106.437 Y97.499 E8.50756
M73 P6 R34
G1 X105.535 Y97.499 E.04303
G1 X232.501 Y224.465 E8.56842
G1 X232.501 Y225.367 E.04303
G1 X104.633 Y97.499 E8.62927
G1 X103.731 Y97.499 E.04303
G1 X232.501 Y226.269 E8.69013
G1 X232.501 Y227.171 E.04303
G1 X102.829 Y97.499 E8.75099
G1 X101.928 Y97.499 E.04303
G1 X232.501 Y228.072 E8.81185
G1 X232.501 Y228.974 E.04303
G1 X101.026 Y97.499 E8.87271
G1 X100.124 Y97.499 E.04303
G1 X232.501 Y229.876 E8.93356
G1 X232.501 Y230.778 E.04303
G1 X99.222 Y97.499 E8.99442
G1 X98.32 Y97.499 E.04303
G1 X232.501 Y231.68 E9.05528
G1 X232.501 Y232.581 E.04303
G1 X97.419 Y97.499 E9.11614
G1 X96.517 Y97.499 E.04303
G1 X232.501 Y233.483 E9.177
G1 X232.501 Y234.385 E.04303
G1 X95.615 Y97.499 E9.23785
G1 X94.713 Y97.499 E.04303
G1 X232.501 Y235.287 E9.29871
G1 X232.501 Y236.188 E.04303
G1 X93.812 Y97.499 E9.35957
M73 P7 R34
G1 X92.91 Y97.499 E.04303
G1 X232.501 Y237.09 E9.42043
G1 X232.501 Y237.992 E.04303
G1 X92.008 Y97.499 E9.48129
G1 X91.106 Y97.499 E.04303
G1 X232.501 Y238.894 E9.54214
G1 X232.501 Y239.796 E.04303
G1 X90.204 Y97.499 E9.603
G1 X89.303 Y97.499 E.04303
G1 X232.501 Y240.697 E9.66386
M73 P7 R33
G1 X232.501 Y241.599 E.04303
G1 X88.401 Y97.499 E9.72472
G1 X87.499 Y97.499 E.04303
G1 X232.501 Y242.501 E9.78558
G1 X231.599 Y242.501 E.04303
G1 X87.499 Y98.401 E9.72474
G1 X87.499 Y99.302 E.04303
G1 X230.698 Y242.501 E9.66388
G1 X229.796 Y242.501 E.04303
G1 X87.499 Y100.204 E9.60302
G1 X87.499 Y101.106 E.04303
G1 X228.894 Y242.501 E9.54216
G1 X227.992 Y242.501 E.04303
G1 X87.499 Y102.008 E9.48131
M73 P8 R33
G1 X87.499 Y102.909 E.04303
G1 X227.091 Y242.501 E9.42045
G1 X226.189 Y242.501 E.04303
G1 X87.499 Y103.811 E9.35959
G1 X87.499 Y104.713 E.04303
G1 X225.287 Y242.501 E9.29873
G1 X224.385 Y242.501 E.04303
G1 X87.499 Y105.615 E9.23787
G1 X87.499 Y106.517 E.04303
G1 X223.483 Y242.501 E9.17702
G1 X222.582 Y242.501 E.04303
G1 X87.499 Y107.418 E9.11616
G1 X87.499 Y108.32 E.04303
G1 X221.68 Y242.501 E9.0553
G1 X220.778 Y242.501 E.04303
G1 X87.499 Y109.222 E8.99444
G1 X87.499 Y110.124 E.04303
G1 X219.876 Y242.501 E8.93358
G1 X218.974 Y242.501 E.04303
G1 X87.499 Y111.026 E8.87273
G1 X87.499 Y111.927 E.04303
G1 X218.073 Y242.501 E8.81187
G1 X217.171 Y242.501 E.04303
G1 X87.499 Y112.829 E8.75101
G1 X87.499 Y113.731 E.04303
G1 X216.269 Y242.501 E8.69015
G1 X215.367 Y242.501 E.04303
G1 X87.499 Y114.633 E8.62929
M73 P9 R33
G1 X87.499 Y115.535 E.04303
G1 X214.465 Y242.501 E8.56844
G1 X213.564 Y242.501 E.04303
G1 X87.499 Y116.436 E8.50758
G1 X87.499 Y117.338 E.04303
G1 X212.662 Y242.501 E8.44672
G1 X211.76 Y242.501 E.04303
G1 X87.499 Y118.24 E8.38586
G1 X87.499 Y119.142 E.04303
G1 X210.858 Y242.501 E8.325
G1 X209.957 Y242.501 E.04303
G1 X87.499 Y120.043 E8.26415
G1 X87.499 Y120.945 E.04303
G1 X209.055 Y242.501 E8.20329
G1 X208.153 Y242.501 E.04303
G1 X87.499 Y121.847 E8.14243
G1 X87.499 Y122.749 E.04303
G1 X207.251 Y242.501 E8.08157
G1 X206.349 Y242.501 E.04303
G1 X87.499 Y123.651 E8.02071
G1 X87.499 Y124.552 E.04303
G1 X205.448 Y242.501 E7.95986
G1 X204.546 Y242.501 E.04303
G1 X87.499 Y125.454 E7.899
G1 X87.499 Y126.356 E.04303
G1 X203.644 Y242.501 E7.83814
G1 X202.742 Y242.501 E.04303
G1 X87.499 Y127.258 E7.77728
G1 X87.499 Y128.16 E.04303
G1 X201.84 Y242.501 E7.71642
M73 P10 R33
G1 X200.939 Y242.501 E.04303
G1 X87.499 Y129.061 E7.65557
G1 X87.499 Y129.963 E.04303
G1 X200.037 Y242.501 E7.59471
M73 P10 R32
G1 X199.135 Y242.501 E.04303
G1 X87.499 Y130.865 E7.53385
G1 X87.499 Y131.767 E.04303
G1 X198.233 Y242.501 E7.47299
G1 X197.331 Y242.501 E.04303
G1 X87.499 Y132.669 E7.41213
G1 X87.499 Y133.57 E.04303
G1 X196.43 Y242.501 E7.35128
G1 X195.528 Y242.501 E.04303
G1 X87.499 Y134.472 E7.29042
G1 X87.499 Y135.374 E.04303
G1 X194.626 Y242.501 E7.22956
G1 X193.724 Y242.501 E.04303
G1 X87.499 Y136.276 E7.1687
G1 X87.499 Y137.177 E.04303
G1 X192.823 Y242.501 E7.10784
G1 X191.921 Y242.501 E.04303
G1 X87.499 Y138.079 E7.04699
G1 X87.499 Y138.981 E.04303
G1 X191.019 Y242.501 E6.98613
G1 X190.117 Y242.501 E.04303
G1 X87.499 Y139.883 E6.92527
G1 X87.499 Y140.785 E.04303
G1 X189.215 Y242.501 E6.86441
G1 X188.314 Y242.501 E.04303
G1 X87.499 Y141.686 E6.80355
G1 X87.499 Y142.588 E.04303
G1 X187.412 Y242.501 E6.7427
G1 X186.51 Y242.501 E.04303
M73 P11 R32
G1 X87.499 Y143.49 E6.68184
G1 X87.499 Y144.392 E.04303
G1 X185.608 Y242.501 E6.62098
G1 X184.706 Y242.501 E.04303
G1 X87.499 Y145.294 E6.56012
G1 X87.499 Y146.195 E.04303
G1 X183.805 Y242.501 E6.49926
G1 X182.903 Y242.501 E.04303
G1 X87.499 Y147.097 E6.43841
G1 X87.499 Y147.999 E.04303
G1 X182.001 Y242.501 E6.37755
G1 X181.099 Y242.501 E.04303
G1 X87.499 Y148.901 E6.31669
G1 X87.499 Y149.803 E.04303
G1 X180.197 Y242.501 E6.25583
G1 X179.296 Y242.501 E.04303
G1 X87.499 Y150.704 E6.19497
G1 X87.499 Y151.606 E.04303
G1 X178.394 Y242.501 E6.13412
G1 X177.492 Y242.501 E.04303
G1 X87.499 Y152.508 E6.07326
G1 X87.499 Y153.41 E.04303
G1 X176.59 Y242.501 E6.0124
G1 X175.688 Y242.501 E.04303
G1 X87.499 Y154.312 E5.95154
G1 X87.499 Y155.213 E.04303
G1 X174.787 Y242.501 E5.89068
G1 X173.885 Y242.501 E.04303
G1 X87.499 Y156.115 E5.82983
G1 X87.499 Y157.017 E.04303
G1 X172.983 Y242.501 E5.76897
G1 X172.081 Y242.501 E.04303
G1 X87.499 Y157.919 E5.70811
G1 X87.499 Y158.82 E.04303
G1 X171.18 Y242.501 E5.64725
G1 X170.278 Y242.501 E.04303
G1 X87.499 Y159.722 E5.58639
G1 X87.499 Y160.624 E.04303
G1 X169.376 Y242.501 E5.52554
M73 P12 R32
G1 X168.474 Y242.501 E.04303
G1 X87.499 Y161.526 E5.46468
G1 X87.499 Y162.428 E.04303
G1 X167.572 Y242.501 E5.40382
