; HEADER_BLOCK_START
; generated by OrcaSlicer 1.6.3 on 2023-11-20 at 18:54:52
; total layer number: 62
; HEADER_BLOCK_END

; THUMBNAIL_BLOCK_START
; THUMBNAIL_BLOCK_END

; external perimeters extrusion width = 0.62mm
; perimeters extrusion width = 0.62mm
; infill extrusion width = 0.65mm
; solid infill extrusion width = 0.65mm
; top infill extrusion width = 0.65mm
; first layer extrusion width = 0.68mm

; EXECUTABLE_BLOCK_START
EXCLUDE_OBJECT_DEFINE NAME=Divider_Box_3x1x3_5-Compartment.stl_id_0_copy_0 CENTER=165,186.25 POLYGON=[[144.25,245.25],[144.25,127.25],[144.322,126.518],[144.535,125.815],[144.882,125.167],[145.348,124.598],[145.917,124.132],[146.565,123.785],[147.268,123.572],[148,123.5],[182,123.5],[182.732,123.572],[183.435,123.785],[184.083,124.132],[184.652,124.598],[185.118,125.167],[185.465,125.815],[185.678,126.518],[185.75,127.25],[185.75,245.25],[185.678,245.982],[185.465,246.685],[185.118,247.333],[184.652,247.902],[184.083,248.368],[183.435,248.715],[182.732,248.928],[182,249],[148,249],[147.268,248.928],[146.565,248.715],[145.917,248.368],[145.348,247.902],[144.882,247.333],[144.535,246.685],[144.322,245.982],[144.25,245.25]]
M73 P0 R18
;TYPE:Custom
M104 S0
M140 S0
START_PRINT BED=75 HOTEND=225
G90
G21
M83 ; use relative distances for extrusion
; filament start gcode
SET_PRESSURE_ADVANCE ADVANCE=0.032; Override pressure advance value
M106 S0
;LAYER_CHANGE
;Z:0.4
;HEIGHT:0.4
;BEFORE_LAYER_CHANGE
;0.4
G92 E0

;DSLR_SNAPSHOT
TIMELAPSE_TAKE_FRAME
M204 S10000
G1 E-.4 F4200
G1 X145.076 Y125.171 F36000
G1 Z.4
G1 E.4 F4200
;TYPE:Skirt
;WIDTH:0.68
G1 F7200
G1 X145.921 Y124.326 E.10625
G1 X146.748 Y123.887 E.0833
G1 X147.403 Y123.712 E.06022
G1 X148 Y123.656 E.05336
G1 X182.339 Y123.678 E3.05367
G1 X183.493 Y123.987 E.10626
G1 X184.079 Y124.326 E.06022
G1 X184.765 Y124.964 E.08329
G1 X185.363 Y125.998 E.10625
G1 X185.538 Y126.653 E.06023
G1 X185.594 Y127.25 E.05336
G1 X185.594 Y245.25 E10.49353
G1 X185.538 Y245.847 E.05336
G1 X185.363 Y246.502 E.06022
G1 X184.765 Y247.536 E.10626
G1 X184.079 Y248.174 E.0833
G1 X183.252 Y248.613 E.08329
G1 X182.597 Y248.788 E.06023
G1 X182 Y248.844 E.05336
G1 X148 Y248.844 E3.02356
G1 X147.403 Y248.788 E.05336
G1 X146.748 Y248.613 E.06022
G1 X145.714 Y248.015 E.10625
G1 X145.076 Y247.329 E.0833
G1 X144.637 Y246.502 E.0833
G1 X144.462 Y245.847 E.06022
G1 X144.406 Y245.25 E.05336
G1 X144.406 Y127.25 E10.49353
G1 X144.462 Y126.653 E.05336
G1 X144.637 Y125.998 E.06022
G1 X145.034 Y125.25 E.07529
; printing object Divider Box 3x1x3 5-Compartment.stl id:0 copy 0
EXCLUDE_OBJECT_START NAME=Divider_Box_3x1x3_5-Compartment.stl_id_0_copy_0
G1 E-.4 F4200
G1 X182.278 Y161.732 F36000
G1 E.4 F4200
;TYPE:Outer wall
;WIDTH:0.68
G1 F7200
G1 X181.971 Y161.81 E.02817
G1 X179.799 Y161.81 E.19313
;WIDTH:0.728516
G1 X179.485 Y161.786 E.03038
;WIDTH:0.777032
G1 X179.17 Y161.761 E.03267
;WIDTH:0.825548
G1 X178.855 Y161.737 E.03496
G1 X177.922 Y161.759 E.1033
;WIDTH:0.784596
G1 X176.977 Y161.758 E.09879
G1 X176.718 Y161.775 E.02714
;WIDTH:0.74973
G1 X176.46 Y161.793 E.02579
;WIDTH:0.714865
G1 X176.201 Y161.81 E.02444
;WIDTH:0.68
G1 X153.799 Y161.81 E1.99209
;WIDTH:0.728516
G1 X153.485 Y161.786 E.03038
;WIDTH:0.777032
G1 X153.17 Y161.761 E.03267
;WIDTH:0.825548
G1 X152.855 Y161.737 E.03496
G1 X151.922 Y161.759 E.1033
;WIDTH:0.784596
G1 X150.977 Y161.758 E.09879
G1 X150.718 Y161.775 E.02714
;WIDTH:0.74973
G1 X150.46 Y161.793 E.02579
;WIDTH:0.714865
G1 X150.201 Y161.81 E.02444
;WIDTH:0.68
G1 X148.029 Y161.81 E.19313
G1 X147.722 Y161.732 E.02817
G1 X147.518 Y161.528 E.0256
G1 X147.44 Y161.221 E.02817
G1 X147.44 Y159.049 E.19313
;WIDTH:0.728516
G1 X147.464 Y158.735 E.03038
;WIDTH:0.777032
G1 X147.489 Y158.42 E.03267
;WIDTH:0.825548
G1 X147.513 Y158.105 E.03496
G1 X147.491 Y157.172 E.1033
;WIDTH:0.784596
G1 X147.492 Y156.227 E.09879
G1 X147.475 Y155.968 E.02714
;WIDTH:0.74973
G1 X147.457 Y155.71 E.02579
;WIDTH:0.714865
G1 X147.44 Y155.451 E.02444
;WIDTH:0.68
G1 X147.44 Y133.049 E1.99209
;WIDTH:0.728516
G1 X147.464 Y132.735 E.03038
;WIDTH:0.777032
G1 X147.489 Y132.42 E.03267
;WIDTH:0.825548
G1 X147.513 Y132.105 E.03496
G1 X147.491 Y131.172 E.1033
;WIDTH:0.784595
G1 X147.492 Y130.227 E.09879
G1 X147.475 Y129.968 E.02714
;WIDTH:0.74973
G1 X147.457 Y129.71 E.02579
;WIDTH:0.714865
G1 X147.44 Y129.451 E.02443
;WIDTH:0.68
G1 X147.44 Y127.279 E.19313
G1 X147.518 Y126.972 E.02817
G1 X147.722 Y126.768 E.0256
G1 X148.029 Y126.69 E.02817
G1 X150.201 Y126.69 E.19313
;WIDTH:0.728516
G1 X150.515 Y126.714 E.03038
;WIDTH:0.777032
G1 X150.83 Y126.739 E.03267
;WIDTH:0.825549
G1 X151.145 Y126.763 E.03496
G1 X152.078 Y126.741 E.1033
;WIDTH:0.784595
G1 X153.023 Y126.742 E.09879
G1 X153.282 Y126.725 E.02714
;WIDTH:0.74973
G1 X153.54 Y126.707 E.02579
;WIDTH:0.714865
G1 X153.799 Y126.69 E.02444
;WIDTH:0.68
G1 X176.201 Y126.69 E1.99209
;WIDTH:0.728516
G1 X176.515 Y126.714 E.03038
;WIDTH:0.777032
G1 X176.83 Y126.739 E.03267
;WIDTH:0.825549
G1 X177.145 Y126.763 E.03496
G1 X178.078 Y126.741 E.1033
;WIDTH:0.784595
G1 X179.023 Y126.742 E.09879
G1 X179.282 Y126.725 E.02714
;WIDTH:0.74973
G1 X179.54 Y126.707 E.02579
;WIDTH:0.714865
G1 X179.799 Y126.69 E.02444
;WIDTH:0.68
G3 X182.144 Y126.713 I.82 J36.294 E.20854
G1 X182.393 Y126.857 E.0256
G1 X182.509 Y127.039 E.01922
G1 X182.56 Y127.32 E.02541
G1 X182.56 Y129.451 E.18945
;WIDTH:0.728516
G1 X182.536 Y129.765 E.03038
;WIDTH:0.777032
G1 X182.511 Y130.08 E.03267
;WIDTH:0.825548
G1 X182.487 Y130.395 E.03496
G1 X182.509 Y131.328 E.1033
;WIDTH:0.798251
G1 X182.501 Y132.273 E.10073
G1 X182.521 Y132.532 E.02769
;WIDTH:0.758834
G1 X182.54 Y132.79 E.02616
;WIDTH:0.719417
G1 X182.56 Y133.049 E.02463
;WIDTH:0.68
G1 X182.56 Y155.451 E1.99209
;WIDTH:0.728516
G1 X182.536 Y155.765 E.03038
;WIDTH:0.777032
G1 X182.511 Y156.08 E.03267
;WIDTH:0.825548
G1 X182.487 Y156.395 E.03496
G1 X182.509 Y157.328 E.1033
;WIDTH:0.798251
G1 X182.501 Y158.273 E.10073
G1 X182.521 Y158.532 E.02769
;WIDTH:0.758834
G1 X182.54 Y158.79 E.02616
;WIDTH:0.719417
G1 X182.56 Y159.049 E.02463
;WIDTH:0.68
G1 X182.56 Y161.221 E.19313
G1 X182.482 Y161.528 E.02817
G1 X182.287 Y161.723 E.02454
G1 E-.4 F4200
G1 X180.364 Y134.178 F36000
G1 E.4 F4200
G1 F7200
G1 X179.663 Y134.627 E.07401
G1 X178.87 Y134.913 E.07497
G1 X178.033 Y135.015 E.07497
G1 X177.195 Y134.928 E.07497
G1 X176.397 Y134.656 E.07497
G1 X175.679 Y134.214 E.07497
G1 X175.078 Y133.623 E.07497
G1 X174.623 Y132.913 E.07497
G1 X174.337 Y132.12 E.07497
G1 X174.235 Y131.283 E.07497
G1 X174.322 Y130.445 E.07497
G1 X174.594 Y129.647 E.07497
G1 X175.036 Y128.929 E.07497
G1 X175.627 Y128.328 E.07497
G1 X176.337 Y127.873 E.07497
;WIDTH:0.719417
G1 X176.595 Y127.759 E.02673
;WIDTH:0.758835
G1 X176.852 Y127.645 E.02839
;WIDTH:0.798253
G1 X177.11 Y127.531 E.03005
G1 X177.961 Y127.435 E.09129
;WIDTH:0.825548
G1 X178.813 Y127.5 E.09464
G1 X179.077 Y127.615 E.03179
;WIDTH:0.777032
G1 X179.34 Y127.729 E.02971
;WIDTH:0.728516
G1 X179.603 Y127.844 E.02762
;WIDTH:0.68
G1 X180.321 Y128.286 E.07497
G1 X180.922 Y128.877 E.07497
G1 X181.377 Y129.587 E.07497
;WIDTH:0.714864
G1 X181.489 Y129.845 E.02652
;WIDTH:0.749729
G1 X181.6 Y130.104 E.02799
;WIDTH:0.784594
G1 X181.712 Y130.363 E.02946
;WIDTH:0.825548
G1 X181.75 Y130.437 E.0092
G1 X181.815 Y131.211 E.08604
G1 X181.75 Y132.063 E.09465
G1 X181.635 Y132.327 E.03179
;WIDTH:0.777032
G1 X181.521 Y132.59 E.02971
;WIDTH:0.728516
G1 X181.406 Y132.853 E.02762
;WIDTH:0.68
G1 X180.964 Y133.571 E.07497
G1 X180.374 Y134.172 E.07486
G1 E-.4 F4200
G1 X180.928 Y154.886 F36000
G1 E.4 F4200
G1 F7200
G1 X181.377 Y155.587 E.07402
;WIDTH:0.714864
G1 X181.489 Y155.845 E.02652
;WIDTH:0.749729
G1 X181.6 Y156.104 E.02799
;WIDTH:0.784594
G1 X181.712 Y156.363 E.02946
;WIDTH:0.825548
G1 X181.75 Y156.437 E.0092
G1 X181.815 Y157.211 E.08604
;WIDTH:0.781919
G1 X181.816 Y157.25 E.00406
;WIDTH:0.825548
G1 X181.75 Y158.063 E.09035
G1 X181.635 Y158.327 E.03179
;WIDTH:0.777032
G1 X181.521 Y158.59 E.02971
;WIDTH:0.728516
G1 X181.406 Y158.853 E.02762
;WIDTH:0.68
G1 X180.964 Y159.571 E.07497
G1 X180.373 Y160.172 E.07497
G1 X179.663 Y160.627 E.07497
;WIDTH:0.719417
G1 X179.405 Y160.741 E.02673
;WIDTH:0.758835
G1 X179.148 Y160.855 E.02839
;WIDTH:0.798253
G1 X178.89 Y160.969 E.03005
G1 X178.039 Y161.065 E.09129
;WIDTH:0.825548
G1 X177.187 Y161 E.09465
G1 X176.923 Y160.885 E.03179
;WIDTH:0.777032
G1 X176.66 Y160.771 E.02971
;WIDTH:0.728516
G1 X176.397 Y160.656 E.02762
;WIDTH:0.68
G1 X175.679 Y160.214 E.07497
G1 X175.078 Y159.623 E.07497
G1 X174.623 Y158.913 E.07497
G1 X174.337 Y158.12 E.07497
G1 X174.235 Y157.283 E.07497
G1 X174.322 Y156.445 E.07497
G1 X174.594 Y155.647 E.07497
G1 X175.036 Y154.929 E.07497
G1 X175.627 Y154.328 E.07496
G1 X176.337 Y153.873 E.07498
G1 X177.13 Y153.587 E.07497
G1 X177.967 Y153.485 E.07497
G1 X178.805 Y153.572 E.07497
G1 X179.603 Y153.844 E.07497
G1 X180.321 Y154.286 E.07497
G1 X180.922 Y154.876 E.07485
G1 E-.4 F4200
G1 X180.432 Y154.2 F36000
G1 X179.83 Y153.449
G1 X178.94 Y153.133
G1 X178 Y153.028
G1 X177.06 Y153.133
G1 X153.491 Y160.347
G1 X152.74 Y160.492
G1 X152 Y160.576
G1 X150.406 Y160.66
G1 E.4 F4200
;WIDTH:0.728516
G1 F7200
G1 X150.397 Y160.656 E.00095
;WIDTH:0.68
G1 X149.679 Y160.214 E.07497
G1 X149.078 Y159.623 E.07497
G1 X148.623 Y158.913 E.07497
;WIDTH:0.719417
G1 X148.509 Y158.655 E.02673
;WIDTH:0.758835
G1 X148.395 Y158.398 E.02839
;WIDTH:0.798253
G1 X148.281 Y158.14 E.03005
G1 X148.185 Y157.289 E.09129
;WIDTH:0.825548
G1 X148.25 Y156.437 E.09465
G1 X148.365 Y156.173 E.03179
;WIDTH:0.777032
G1 X148.479 Y155.91 E.02971
;WIDTH:0.728516
G1 X148.594 Y155.647 E.02762
;WIDTH:0.68
G1 X149.036 Y154.929 E.07497
G1 X149.627 Y154.328 E.07497
G1 X150.337 Y153.873 E.07497
G1 X151.13 Y153.587 E.07497
G1 X151.967 Y153.485 E.07497
G1 X152.805 Y153.572 E.07497
G1 X153.603 Y153.844 E.07497
G1 X154.321 Y154.286 E.07497
G1 X154.922 Y154.877 E.07497
G1 X155.377 Y155.587 E.07497
G1 X155.663 Y156.38 E.07497
G1 X155.765 Y157.217 E.07497
G1 X155.678 Y158.055 E.07497
G1 X155.406 Y158.853 E.07497
G1 X154.964 Y159.571 E.07497
G1 X154.373 Y160.172 E.07497
G1 X153.663 Y160.627 E.07497
;WIDTH:0.719417
G1 X153.405 Y160.741 E.02673
;WIDTH:0.758835
G1 X153.148 Y160.855 E.02839
;WIDTH:0.798253
G1 X152.89 Y160.969 E.03005
G1 X152.039 Y161.065 E.09129
;WIDTH:0.825548
G1 X151.187 Y161 E.09465
G1 X150.923 Y160.885 E.03179
;WIDTH:0.777032
G1 X150.66 Y160.771 E.02971
;WIDTH:0.728516
G1 X150.417 Y160.665 E.02552
G1 E-.4 F4200
G1 X149.733 Y160.093 F36000
G1 X149.157 Y159.517
G1 X148.903 Y158.741
G1 X148.758 Y157.99
G1 X148.674 Y157.25
G1 X148.758 Y156.51
G1 X148.903 Y155.759
G1 X156.117 Y132.19
G1 X156.222 Y131.25
G1 X156.117 Y130.31
G1 X155.801 Y129.42
G1 X155.05 Y128.818
G1 X154.983 Y128.782
G1 X154.928 Y128.886
G1 E.4 F4200
;WIDTH:0.68
G1 F7200
G1 X155.377 Y129.587 E.07402
G1 X155.663 Y130.38 E.07497
G1 X155.765 Y131.217 E.07497
G1 X155.678 Y132.055 E.07497
G1 X155.406 Y132.853 E.07497
G1 X154.964 Y133.571 E.07497
G1 X154.373 Y134.172 E.07497
G1 X153.663 Y134.627 E.07497
G1 X152.87 Y134.913 E.07497
G1 X152.033 Y135.015 E.07497
G1 X151.195 Y134.928 E.07497
G1 X150.337 Y134.627 E.08084
G1 X149.679 Y134.214 E.06909
G1 X149.078 Y133.623 E.07497
G1 X148.623 Y132.913 E.07497
;WIDTH:0.719417
G1 X148.509 Y132.655 E.02673
;WIDTH:0.758834
G1 X148.395 Y132.398 E.02839
;WIDTH:0.798252
G1 X148.281 Y132.14 E.03005
G1 X148.185 Y131.289 E.09129
;WIDTH:0.825548
G1 X148.25 Y130.437 E.09465
G1 X148.365 Y130.173 E.03179
;WIDTH:0.777032
G1 X148.479 Y129.91 E.02971
;WIDTH:0.728516
G1 X148.594 Y129.647 E.02762
;WIDTH:0.68
G1 X149.036 Y128.929 E.07497
G1 X149.627 Y128.328 E.07497
G1 X150.337 Y127.873 E.07497
;WIDTH:0.719417
G1 X150.595 Y127.759 E.02673
;WIDTH:0.758835
G1 X150.852 Y127.645 E.02839
;WIDTH:0.798253
G1 X151.11 Y127.531 E.03005
G1 X151.961 Y127.435 E.09129
;WIDTH:0.825548
G1 X152.813 Y127.5 E.09465
G1 X153.077 Y127.615 E.03179
;WIDTH:0.777032
G1 X153.34 Y127.729 E.02971
;WIDTH:0.728516
G1 X153.603 Y127.844 E.02762
;WIDTH:0.68
G1 X154.321 Y128.286 E.07497
G1 X154.922 Y128.876 E.07485
G1 E-.4 F4200
G1 X154.973 Y128.777 F36000
G1 X154.267 Y128.407
G1 X149.317 Y126.538
G1 X149.404 Y126.868
G1 E.4 F4200
;TYPE:Bottom surface
;WIDTH:0.725103
G1 F7200
G1 X150.057 Y127.522 E.08845
G1 X149.502 Y127.871 E.06274
G1 X148.767 Y127.136 E.09948
G1 X148.058 Y127.136 E.06784
G2 X147.919 Y127.192 I-.012 J.17 E.01485
G1 X149.026 Y128.298 E.14976
G2 X148.603 Y128.78 I1.27 J1.54 E.06156
G1 X147.886 Y128.062 E.09712
G1 X147.886 Y128.966 E.0865
G1 X148.452 Y129.533 E.07662
G1 E-.4 F4200
G1 X149.733 Y128.407 F36000
G1 X150.509 Y128.153
G1 X151.26 Y128.008
G1 X152 Y127.924
G1 X173.154 Y127.141
G1 X175.492 Y126.868
G1 E.4 F4200
;WIDTH:0.683585
G1 F7200
G1 X176.112 Y127.488 E.07847
G2 X175.592 Y127.814 I1.878 J3.573 E.05492
G1 X174.914 Y127.136 E.08585
G1 X174.069 Y127.136 E.07563
G1 X175.129 Y128.196 E.13412
G1 X174.712 Y128.624 E.05348
G1 X173.223 Y127.136 E.18832
G1 X172.378 Y127.136 E.07563
G1 X174.379 Y129.137 E.2532
G2 X174.101 Y129.705 I1.501 J1.086 E.05682
G1 X171.533 Y127.136 E.32503
G1 X170.687 Y127.136 E.07563
G1 X173.891 Y130.34 E.40539
G1 X173.801 Y131.095 E.06802
G1 X169.842 Y127.136 E.5009
G1 X168.996 Y127.136 E.07563
G1 X174.24 Y132.379 E.66337
G1 E-.4 F4200
G1 X173.981 Y132.469 F36000
G1 X174.196 Y133.082
G1 X174.699 Y133.883
G1 X175.367 Y134.551
G1 X176.168 Y135.054
G1 X177.06 Y135.367
G1 X178 Y135.472
G1 X178.94 Y135.367
G1 X179.83 Y135.051
G1 X181.564 Y132.94
G1 E.4 F4200
G1 F7200
G1 X182.114 Y133.491 E.06968
G1 X182.114 Y134.336 E.07563
G1 X181.436 Y133.658 E.08585
G3 X181.054 Y134.121 I-1.56 J-.895 E.05398
G1 X182.114 Y135.181 E.13412
G1 X182.114 Y136.027 E.07563
G1 X180.626 Y134.538 E.18832
G1 X180.113 Y134.871 E.05468
G1 X182.114 Y136.872 E.2532
G1 X182.114 Y137.717 E.07563
G1 X179.545 Y135.149 E.32503
G1 X178.91 Y135.359 E.05985
G1 X182.114 Y138.563 E.40539
G1 X182.114 Y139.408 E.07563
G1 X178.155 Y135.449 E.5009
G3 X177.925 Y135.458 I-.156 J-1.019 E.02069
G1 X177.238 Y135.377 E.06184
G1 X182.114 Y140.254 E.61694
G1 X182.114 Y141.099 E.07563
G1 X168.151 Y127.136 E1.76666
G1 X167.306 Y127.136 E.07563
G1 X182.114 Y141.944 E1.87362
G1 X182.114 Y142.79 E.07563
G1 X166.46 Y127.136 E1.98057
G1 X165.615 Y127.136 E.07563
G1 X182.114 Y143.635 E2.08752
M73 P1 R18
G1 X182.114 Y144.48 E.07563
G1 X164.77 Y127.136 E2.19448
G1 X163.924 Y127.136 E.07563
G1 X182.114 Y145.326 E2.30143
G1 X182.114 Y146.171 E.07563
G1 X163.079 Y127.136 E2.40839
G1 X162.234 Y127.136 E.07563
G1 X182.114 Y147.016 E2.51534
G1 X182.114 Y147.862 E.07563
G1 X161.388 Y127.136 E2.62229
G1 X160.543 Y127.136 E.07563
G1 X182.114 Y148.707 E2.72925
G1 X182.114 Y149.552 E.07563
G1 X159.698 Y127.136 E2.8362
G1 X158.852 Y127.136 E.07563
G1 X182.114 Y150.398 E2.94315
G1 X182.114 Y151.243 E.07563
G1 X158.007 Y127.136 E3.05011
G1 X157.162 Y127.136 E.07563
G1 X182.114 Y152.088 E3.15706
G1 X182.114 Y152.934 E.07563
G1 X156.316 Y127.136 E3.26402
G1 X155.471 Y127.136 E.07563
G1 X182.114 Y153.779 E3.37097
G1 X182.114 Y154.624 E.07563
G1 X154.626 Y127.136 E3.47793
G1 X153.784 Y127.139 E.07532
G1 X182.349 Y155.704 E3.61409
G1 E-.4 F4200
G1 X179.374 Y153.575 F36000
G1 E.4 F4200
G1 F7200
G1 X156.1 Y130.3 E2.94477
G1 X156.208 Y131.254 E.08589
G1 X177.996 Y153.042 E2.75662
G1 X177.229 Y153.12 E.06897
G1 X156.13 Y132.021 E2.66952
G3 X155.939 Y132.676 I-2.117 J-.262 E.06126
G1 X176.574 Y153.311 E2.61082
G1 X176.185 Y153.449 E.03698
G1 X175.988 Y153.57 E.02066
G1 X155.68 Y133.262 E2.56947
G1 X155.356 Y133.784 E.05493
G1 X175.466 Y153.894 E2.54435
G2 X175.026 Y154.298 I1.147 J1.69 E.05372
G1 X154.951 Y134.223 E2.53998
G1 X154.631 Y134.54 E.04024
G1 X154.503 Y134.621 E.01357
G1 X174.626 Y154.744 E2.54601
G1 X174.303 Y155.266 E.05493
G1 X153.986 Y134.949 E2.57058
G1 X153.853 Y135.033 E.01401
G1 X153.389 Y135.198 E.04409
G1 X174.05 Y155.859 E2.61412
G1 X173.894 Y156.308 E.04251
G1 X173.869 Y156.522 E.01935
G1 X152.728 Y135.381 E2.67481
G1 X151.959 Y135.458 E.0691
G1 X173.792 Y157.291 E2.76233
G1 X173.881 Y158.113 E.07401
G1 X173.914 Y158.258 E.01329
G1 X150.992 Y135.336 E2.90013
G1 X150.242 Y135.074 E.0711
G1 X150.107 Y135.009 E.0134
