; HEADER_BLOCK_START
; generated by OrcaSlicer 1.6.3 on 2023-11-20 at 19:56:11
; total layer number: 124
; HEADER_BLOCK_END

; THUMBNAIL_BLOCK_START
; THUMBNAIL_BLOCK_END

; external perimeters extrusion width = 0.62mm
; perimeters extrusion width = 0.62mm
; infill extrusion width = 0.65mm
; solid infill extrusion width = 0.65mm
; top infill extrusion width = 0.65mm
; first layer extrusion width = 0.68mm

; EXECUTABLE_BLOCK_START
EXCLUDE_OBJECT_DEFINE NAME=Divider_Box_3x1x3_5-Compartment.stl_id_0_copy_0 CENTER=165,186.25 POLYGON=[[144.25,245.25],[144.25,127.25],[144.322,126.518],[144.535,125.815],[144.882,125.167],[145.348,124.598],[145.917,124.132],[146.565,123.785],[147.268,123.572],[148,123.5],[182,123.5],[182.732,123.572],[183.435,123.785],[184.083,124.132],[184.652,124.598],[185.118,125.167],[185.465,125.815],[185.678,126.518],[185.75,127.25],[185.75,245.25],[185.678,245.982],[185.465,246.685],[185.118,247.333],[184.652,247.902],[184.083,248.368],[183.435,248.715],[182.732,248.928],[182,249],[148,249],[147.268,248.928],[146.565,248.715],[145.917,248.368],[145.348,247.902],[144.882,247.333],[144.535,246.685],[144.322,245.982],[144.25,245.25]]
M73 P0 R30
;TYPE:Custom
M104 S0
M140 S0
START_PRINT BED=75 HOTEND=225
G90
G21
M83 ; use relative distances for extrusion
; filament start gcode
SET_PRESSURE_ADVANCE ADVANCE=0.032; Override pressure advance value
M106 S0
;LAYER_CHANGE
;Z:0.2
;HEIGHT:0.2
;BEFORE_LAYER_CHANGE
;0.2
G92 E0

;DSLR_SNAPSHOT
TIMELAPSE_TAKE_FRAME
M204 S10000
G1 E-.4 F4200
G1 X145.128 Y125.195 F36000
G1 Z.2
G1 E.4 F4200
;TYPE:Skirt
;WIDTH:0.68
G1 F7200
G1 X145.945 Y124.378 E.05503
G1 X146.758 Y123.944 E.04395
G1 X147.423 Y123.766 E.03282
G1 X148 Y123.713 E.02763
G1 X182.344 Y123.735 E1.6374
G1 X183.459 Y124.034 E.05503
G1 X184.055 Y124.378 E.03282
G1 X184.729 Y125.008 E.04395
G1 X185.306 Y126.008 E.05503
G1 X185.484 Y126.673 E.03282
G1 X185.537 Y127.25 E.02763
G1 X185.537 Y245.25 E5.62577
G1 X185.484 Y245.827 E.02763
G1 X185.306 Y246.492 E.03282
G1 X184.729 Y247.492 E.05503
G1 X184.055 Y248.122 E.04395
G1 X183.242 Y248.556 E.04395
G1 X182.577 Y248.734 E.03282
G1 X182 Y248.787 E.02763
G1 X148 Y248.787 E1.62099
G1 X147.423 Y248.734 E.02763
G1 X146.758 Y248.556 E.03282
G1 X145.758 Y247.979 E.05503
G1 X145.128 Y247.305 E.04395
G1 X144.694 Y246.492 E.04395
G1 X144.516 Y245.827 E.03282
G1 X144.463 Y245.25 E.02763
G1 X144.463 Y127.25 E5.62577
G1 X144.516 Y126.673 E.02763
G1 X144.694 Y126.008 E.03282
G1 X145.086 Y125.274 E.03966
; printing object Divider Box 3x1x3 5-Compartment.stl id:0 copy 0
EXCLUDE_OBJECT_START NAME=Divider_Box_3x1x3_5-Compartment.stl_id_0_copy_0
G1 E-.4 F4200
G1 X182.228 Y161.645 F36000
G1 E.4 F4200
;TYPE:Outer wall
;WIDTH:0.679999
G1 F7200
G1 X181.971 Y161.71 E.01263
G1 X179.78 Y161.71 E.10446
;WIDTH:0.716896
G1 X179.313 Y161.692 E.02355
;WIDTH:0.753793
G2 X177.925 Y161.695 I-.668 J10.997 E.0739
;WIDTH:0.733839
G2 X176.606 Y161.697 I-.641 J13.909 E.06824
;WIDTH:0.706919
G1 X176.22 Y161.71 E.01919
;WIDTH:0.679999
G1 X153.78 Y161.71 E1.06985
;WIDTH:0.716896
G1 X153.313 Y161.692 E.02355
;WIDTH:0.753793
G2 X151.925 Y161.695 I-.668 J10.998 E.0739
;WIDTH:0.733839
G2 X150.606 Y161.697 I-.641 J13.909 E.06824
;WIDTH:0.706919
G1 X150.22 Y161.71 E.01919
;WIDTH:0.679999
G1 X148.063 Y161.71 E.10283
G1 X147.772 Y161.645 E.01423
G1 X147.605 Y161.478 E.01126
G1 X147.54 Y161.221 E.01263
G1 X147.54 Y159.03 E.10446
;WIDTH:0.716897
G1 X147.558 Y158.563 E.02355
;WIDTH:0.753794
G2 X147.555 Y157.175 I-10.998 J-.668 E.0739
;WIDTH:0.73384
G2 X147.553 Y155.856 I-13.91 J-.641 E.06824
;WIDTH:0.70692
G1 X147.54 Y155.47 E.01919
;WIDTH:0.679999
G1 X147.54 Y133.03 E1.06985
;WIDTH:0.716897
G1 X147.558 Y132.563 E.02355
;WIDTH:0.753794
G2 X147.555 Y131.175 I-10.998 J-.668 E.0739
;WIDTH:0.733839
G2 X147.553 Y129.856 I-13.909 J-.641 E.06824
;WIDTH:0.706919
G1 X147.54 Y129.47 E.01919
;WIDTH:0.679999
G1 X147.54 Y127.313 E.10283
G1 X147.605 Y127.022 E.01423
G1 X147.772 Y126.855 E.01126
G1 X148.029 Y126.79 E.01263
G1 X150.22 Y126.79 E.10446
;WIDTH:0.716896
G1 X150.687 Y126.808 E.02355
;WIDTH:0.753793
G2 X152.075 Y126.805 I.668 J-10.998 E.0739
;WIDTH:0.733839
G2 X153.394 Y126.803 I.641 J-13.909 E.06824
;WIDTH:0.706919
G1 X153.78 Y126.79 E.01919
;WIDTH:0.679999
G1 X176.22 Y126.79 E1.06985
;WIDTH:0.716896
G1 X176.687 Y126.808 E.02355
;WIDTH:0.753793
G2 X178.075 Y126.805 I.668 J-10.998 E.0739
;WIDTH:0.733839
G2 X179.394 Y126.803 I.641 J-13.91 E.06824
;WIDTH:0.706919
G1 X179.78 Y126.79 E.01919
;WIDTH:0.679999
G1 X181.937 Y126.79 E.10283
G1 X182.228 Y126.855 E.01423
G1 X182.395 Y127.022 E.01126
G1 X182.46 Y127.313 E.01423
G1 X182.46 Y129.47 E.10283
;WIDTH:0.716896
G1 X182.442 Y129.937 E.02355
;WIDTH:0.753793
G2 X182.445 Y131.325 I10.998 J.668 E.0739
;WIDTH:0.741745
G2 X182.445 Y132.644 I11.613 J.662 E.06903
;WIDTH:0.710872
G1 X182.46 Y133.03 E.01931
;WIDTH:0.679999
G1 X182.46 Y155.47 E1.06985
;WIDTH:0.716896
G1 X182.442 Y155.937 E.02355
;WIDTH:0.753793
G2 X182.445 Y157.325 I10.998 J.668 E.0739
;WIDTH:0.741745
G2 X182.445 Y158.644 I11.613 J.662 E.06903
;WIDTH:0.710872
G1 X182.46 Y159.03 E.01931
;WIDTH:0.679999
G1 X182.46 Y161.187 E.10283
G1 X182.395 Y161.478 E.01423
G1 X182.237 Y161.637 E.01069
G1 E-.4 F4200
G1 X182.057 Y161.517 F36000
G1 X181.074 Y132.472
G1 X181.242 Y131.99
G1 X181.326 Y131.25
G1 X181.242 Y130.51
G1 X180.931 Y128.891
G1 E.4 F4200
G1 F7200
G1 X181.376 Y129.585 E.03932
;WIDTH:0.706919
G1 X181.532 Y129.977 E.02096
;WIDTH:0.733838
G1 X181.687 Y130.369 E.02181
G1 X181.779 Y131.213 E.04389
;WIDTH:0.753793
G1 X181.714 Y132.057 E.04505
G1 X181.561 Y132.454 E.02265
;WIDTH:0.716896
G1 X181.407 Y132.851 E.02148
;WIDTH:0.679999
G1 X180.965 Y133.569 E.04019
G1 X180.375 Y134.171 E.04019
G1 X179.665 Y134.626 E.04019
G1 X178.872 Y134.912 E.04019
G1 X178.036 Y135.014 E.04019
G1 X177.197 Y134.928 E.04019
G1 X176.399 Y134.657 E.04019
G1 X175.632 Y134.178 E.04309
G1 X175.079 Y133.625 E.03729
G1 X174.624 Y132.915 E.04019
G1 X174.338 Y132.122 E.04019
G1 X174.236 Y131.286 E.04019
G1 X174.322 Y130.447 E.04019
G1 X174.593 Y129.649 E.04019
G1 X175.035 Y128.931 E.04019
G1 X175.625 Y128.329 E.04019
G1 X176.335 Y127.874 E.04019
;WIDTH:0.710873
G1 X176.726 Y127.716 E.02109
;WIDTH:0.741747
G1 X177.117 Y127.559 E.02206
G1 X177.963 Y127.471 E.04444
;WIDTH:0.753793
G1 X178.807 Y127.536 E.04505
G1 X179.204 Y127.689 E.02265
;WIDTH:0.716896
G1 X179.601 Y127.843 E.02148
;WIDTH:0.679999
G1 X180.319 Y128.285 E.04019
G1 X180.921 Y128.875 E.04019
G1 X180.924 Y128.88 E.0003
G1 E-.4 F4200
G1 X180.195 Y128.497 F36000
G1 X178.74 Y128.008
G1 X178 Y127.924
G1 X154.93 Y128.874
G1 X154.926 Y128.883
G1 E.4 F4200
G1 F7200
G1 X155.376 Y129.585 E.03975
G1 X155.662 Y130.378 E.04019
G1 X155.764 Y131.214 E.04019
G1 X155.678 Y132.053 E.04019
G1 X155.407 Y132.851 E.04019
G1 X154.965 Y133.569 E.04019
G1 X154.375 Y134.171 E.04019
G1 X153.632 Y134.644 E.04201
G1 X152.872 Y134.912 E.03838
G1 X152.036 Y135.014 E.04019
G1 X151.197 Y134.928 E.04019
G1 X150.399 Y134.657 E.04019
G1 X149.681 Y134.215 E.04019
G1 X149.079 Y133.625 E.04019
G1 X148.624 Y132.915 E.04019
;WIDTH:0.710873
G1 X148.466 Y132.524 E.02109
;WIDTH:0.741747
G1 X148.309 Y132.133 E.02206
G1 X148.221 Y131.287 E.04444
;WIDTH:0.753794
G1 X148.286 Y130.443 E.04505
G1 X148.439 Y130.046 E.02265
;WIDTH:0.716897
G1 X148.593 Y129.649 E.02148
;WIDTH:0.679999
G1 X149.035 Y128.931 E.04019
G1 X149.625 Y128.329 E.04019
G1 X150.335 Y127.874 E.04019
;WIDTH:0.710873
G1 X150.726 Y127.716 E.02109
;WIDTH:0.741747
G1 X151.117 Y127.559 E.02206
G1 X151.963 Y127.471 E.04444
;WIDTH:0.753793
G1 X152.807 Y127.536 E.04505
G1 X153.204 Y127.689 E.02265
;WIDTH:0.716896
G1 X153.601 Y127.843 E.02148
;WIDTH:0.679999
G1 X154.319 Y128.285 E.04019
G1 X154.919 Y128.873 E.04005
G1 E-.4 F4200
G1 X154.921 Y128.869 F36000
G1 X154.96 Y128.889
G1 X155.697 Y129.47
G1 X156.18 Y130.296
G1 X156.287 Y131.25
G1 X156.18 Y132.204
G1 X150.887 Y153.163
G1 X151.135 Y153.587
G1 E.4 F4200
G1 F7200
G1 X151.964 Y153.486 E.03986
G1 X152.803 Y153.572 E.04019
G1 X153.601 Y153.843 E.04019
G1 X154.319 Y154.285 E.04019
G1 X154.921 Y154.875 E.04019
G1 X155.376 Y155.585 E.04019
G1 X155.662 Y156.378 E.04019
G1 X155.764 Y157.214 E.04019
G1 X155.678 Y158.053 E.04019
G1 X155.407 Y158.851 E.04019
G1 X154.965 Y159.569 E.04019
G1 X154.375 Y160.171 E.04019
G1 X153.665 Y160.626 E.04019
;WIDTH:0.710873
G1 X153.274 Y160.784 E.02109
;WIDTH:0.741746
G1 X152.883 Y160.941 E.02206
G1 X152.037 Y161.029 E.04444
;WIDTH:0.753793
G1 X151.193 Y160.964 E.04505
G1 X150.796 Y160.811 E.02265
;WIDTH:0.716896
G1 X150.399 Y160.657 E.02148
;WIDTH:0.679999
G1 X149.681 Y160.215 E.04019
G1 X149.079 Y159.625 E.04019
G1 X148.593 Y158.851 E.04357
;WIDTH:0.710873
G1 X148.451 Y158.492 E.01931
;WIDTH:0.741747
G1 X148.309 Y158.133 E.0202
G1 X148.221 Y157.287 E.04444
;WIDTH:0.753794
G1 X148.286 Y156.443 E.04505
G1 X148.439 Y156.046 E.02265
;WIDTH:0.716897
G1 X148.593 Y155.649 E.02148
;WIDTH:0.679999
G1 X149.035 Y154.931 E.04019
G1 X149.625 Y154.329 E.04019
G1 X150.335 Y153.874 E.04019
G1 X151.123 Y153.59 E.03995
G1 E-.4 F4200
G1 X150.877 Y153.169 F36000
G1 X151.046 Y153.07
G1 X152 Y152.963
G1 X152.954 Y153.07
G1 X178.031 Y161.029
G1 E.4 F4200
;WIDTH:0.753793
G1 F7200
G1 X177.193 Y160.964 E.04472
G1 X176.796 Y160.811 E.02265
;WIDTH:0.716896
G1 X176.399 Y160.657 E.02148
;WIDTH:0.679999
G1 X175.681 Y160.215 E.04019
G1 X175.079 Y159.625 E.04019
G1 X174.624 Y158.915 E.04019
G1 X174.338 Y158.122 E.04019
G1 X174.236 Y157.286 E.04019
G1 X174.322 Y156.447 E.04019
G1 X174.593 Y155.649 E.04019
G1 X175.035 Y154.931 E.04019
G1 X175.625 Y154.329 E.04018
G1 X176.335 Y153.874 E.04019
G1 X177.128 Y153.588 E.04019
G1 X177.964 Y153.486 E.04019
G1 X178.803 Y153.572 E.04019
G1 X179.601 Y153.843 E.04019
G1 X180.319 Y154.285 E.04019
G1 X180.921 Y154.875 E.04019
G1 X181.376 Y155.585 E.04019
;WIDTH:0.706919
G1 X181.532 Y155.977 E.02096
;WIDTH:0.733838
G1 X181.687 Y156.369 E.02181
G1 X181.779 Y157.213 E.04389
;WIDTH:0.753793
G1 X181.714 Y158.057 E.04505
G1 X181.561 Y158.454 E.02265
;WIDTH:0.716896
G1 X181.407 Y158.851 E.02148
;WIDTH:0.679999
G1 X180.965 Y159.569 E.04019
G1 X180.375 Y160.171 E.04019
G1 X179.665 Y160.626 E.04019
;WIDTH:0.710873
G1 X179.274 Y160.784 E.02109
;WIDTH:0.741747
G1 X178.883 Y160.941 E.02206
G1 X178.043 Y161.029 E.04414
G1 E-.4 F4200
G1 X182.269 Y160.058 F36000
G1 E.4 F4200
;TYPE:Bottom surface
;WIDTH:0.731018
G1 F7200
G1 X181.626 Y159.415 E.0468
G3 X181.23 Y159.992 I-2.263 J-1.132 E.03615
G1 X181.982 Y160.744 E.0548
G1 X181.977 Y161.227 E.02488
G1 X181.497 Y161.232 E.02472
G1 X180.743 Y160.478 E.05491
G3 X180.581 Y160.615 I-.689 J-.652 E.01096
G1 X180.167 Y160.875 E.02517
G1 X180.811 Y161.519 E.04689
G1 E-.4 F4200
G1 X149.677 Y161.519 F36000
G1 E.4 F4200
;WIDTH:0.807415
G1 F7200
G1 X148.018 Y159.86 E.13426
G1 X148.018 Y160.941 E.06185
G1 X148.596 Y161.519 E.04678
G1 E-.4 F4200
G1 X148.478 Y126.754 F36000
G1 X149.186 Y126.981
G1 E.4 F4200
;WIDTH:0.732225
G1 F7200
G1 X149.831 Y127.626 E.04704
G2 X149.255 Y128.024 I1.115 J2.233 E.03627
G1 X148.498 Y127.268 E.05517
G1 X148.029 Y127.276 E.02423
G1 X148.026 Y127.77 E.02552
G1 X148.767 Y128.511 E.05406
G2 X148.635 Y128.669 I.634 J.666 E.01064
G1 X148.371 Y129.09 E.02563
G1 X147.736 Y128.455 E.04629
G1 E-.4 F4200
G1 X156.862 Y127.194 F36000
G1 X157.355 Y127.306
G1 X172.645 Y127.306
G1 X175.293 Y126.981
G1 E.4 F4200
;WIDTH:0.682066
G1 F7200
G1 X175.897 Y127.585 E.04084
G1 X175.349 Y127.941 E.03125
G1 X174.676 Y127.268 E.04554
G1 X173.772 Y127.268 E.04323
G1 X174.891 Y128.387 E.07573
G2 X174.494 Y128.894 I1.29 J1.422 E.03094
G1 X172.868 Y127.268 E.10998
G1 X171.964 Y127.268 E.04323
G1 X174.156 Y129.46 E.14827
G1 X173.92 Y130.127 E.03387
G1 X171.06 Y127.268 E.19342
G1 X170.156 Y127.268 E.04323
G1 X173.79 Y130.902 E.24581
G2 X173.76 Y131.33 I1.887 J.348 E.02059
G1 X173.816 Y131.832 E.02415
G1 X168.966 Y126.981 E.32812
G1 E-.4 F4200
G1 X168.966 Y127.306 F36000
G1 X182.628 Y128.221
G1 X182.269 Y133.957
G1 E.4 F4200
G1 F7200
G1 X181.665 Y133.353 E.04084
G1 X181.309 Y133.901 E.03125
G1 X181.982 Y134.574 E.04554
G1 X181.982 Y135.478 E.04323
G1 X180.863 Y134.359 E.07573
G3 X180.356 Y134.756 I-1.422 J-1.29 E.03094
G1 X181.982 Y136.382 E.10998
G1 X181.982 Y137.286 E.04323
G1 X179.79 Y135.094 E.14827
G1 X179.123 Y135.33 E.03387
G1 X181.982 Y138.19 E.19342
G1 X181.982 Y139.094 E.04323
G1 X178.348 Y135.46 E.24581
G3 X177.919 Y135.49 I-.349 J-1.889 E.02061
G1 X177.415 Y135.43 E.02429
G1 X181.982 Y139.998 E.30894
G1 X181.982 Y140.902 E.04323
G1 X168.348 Y127.268 E.92222
G1 X167.445 Y127.268 E.04323
G1 X181.982 Y141.805 E.98337
G1 X181.982 Y142.709 E.04323
G1 X166.541 Y127.268 E1.04451
G1 X165.637 Y127.268 E.04323
G1 X181.982 Y143.613 E1.10565
G1 X181.982 Y144.517 E.04323
G1 X164.733 Y127.268 E1.16679
G1 X163.829 Y127.268 E.04323
G1 X181.982 Y145.421 E1.22793
G1 X181.982 Y146.325 E.04323
G1 X162.925 Y127.268 E1.28907
G1 X162.021 Y127.268 E.04323
G1 X181.982 Y147.229 E1.35022
G1 X181.982 Y148.133 E.04323
G1 X161.117 Y127.268 E1.41136
G1 X160.213 Y127.268 E.04323
G1 X181.982 Y149.037 E1.4725
G1 X181.982 Y149.94 E.04323
G1 X159.31 Y127.268 E1.53364
G1 X158.406 Y127.268 E.04323
G1 X181.982 Y150.844 E1.59478
G1 X181.982 Y151.748 E.04323
G1 X157.502 Y127.268 E1.65592
G1 X156.598 Y127.268 E.04323
G1 X181.982 Y152.652 E1.71707
G1 X181.982 Y153.556 E.04323
G1 X155.694 Y127.268 E1.77821
G1 X154.79 Y127.268 E.04323
G1 X181.982 Y154.46 E1.83935
G1 X181.982 Y155.364 E.04323
G1 X153.612 Y126.994 E1.91901
G1 E-.4 F4200
G1 X155.742 Y130.027 F36000
G1 E.4 F4200
G1 F7200
G1 X178.806 Y153.092 E1.56015
G1 X178.08 Y153.01 E.03495
G2 X177.831 Y153.02 I-.08 J1.112 E.01197
G1 X156.23 Y131.419 E1.46113
G1 X156.128 Y132.221 E.03864
G1 X177.029 Y153.122 E1.41385
G1 X176.357 Y153.354 E.03401
G1 X155.896 Y132.893 E1.38407
G1 X155.827 Y133.087 E.00986
G1 X155.58 Y133.481 E.02224
G1 X175.768 Y153.669 E1.36551
G2 X175.237 Y154.042 I.875 J1.806 E.03117
G1 X155.205 Y134.009 E1.35505
G1 X154.756 Y134.465 E.03057
G1 X174.785 Y154.494 E1.35482
G2 X174.413 Y155.026 I1.56 J1.485 E.03117
G1 X154.224 Y134.837 E1.36567
G1 X153.837 Y135.077 E.02181
G1 X153.632 Y135.149 E.01036
G1 X174.101 Y155.618 E1.3846
G1 X173.867 Y156.288 E.03393
G1 X152.962 Y135.383 E1.41404
G1 X152.157 Y135.481 E.03883
G1 X173.769 Y157.093 E1.46191
G2 X173.76 Y157.33 I.998 J.156 E.01137
G1 X173.844 Y158.072 E.03569
G1 X150.756 Y134.984 E1.56169
M73 P1 R30
G1 E-.4 F4200
G1 X147.744 Y132.876 F36000
G1 E.4 F4200
G1 F7200
G1 X176.1 Y161.232 E1.91809
G1 X175.196 Y161.232 E.04323
G1 X148.018 Y134.054 E1.83843
G1 X148.018 Y134.958 E.04323
G1 X174.292 Y161.232 E1.77728
G1 X173.388 Y161.232 E.04323
G1 X148.018 Y135.862 E1.71614
G1 X148.018 Y136.765 E.04323
G1 X172.485 Y161.232 E1.655
G1 X171.581 Y161.232 E.04323
G1 X148.018 Y137.669 E1.59386
G1 X148.018 Y138.573 E.04323
G1 X170.677 Y161.232 E1.53272
G1 X169.773 Y161.232 E.04323
G1 X148.018 Y139.477 E1.47158
G1 X148.018 Y140.381 E.04323
G1 X168.869 Y161.232 E1.41043
G1 X167.965 Y161.232 E.04323
G1 X148.018 Y141.285 E1.34929
G1 X148.018 Y142.189 E.04323
G1 X167.061 Y161.232 E1.28815
G1 X166.157 Y161.232 E.04323
G1 X148.018 Y143.093 E1.22701
G1 X148.018 Y143.997 E.04323
G1 X165.253 Y161.232 E1.16587
G1 X164.35 Y161.232 E.04323
G1 X148.018 Y144.9 E1.10473
G1 X148.018 Y145.804 E.04323
G1 X163.446 Y161.232 E1.04358
G1 X162.542 Y161.232 E.04323
G1 X148.018 Y146.708 E.98244
G1 X148.018 Y147.612 E.04323
G1 X161.638 Y161.232 E.9213
G1 X160.734 Y161.232 E.04323
G1 X156.185 Y156.683 E.30769
G3 X156.208 Y157.611 I-2.482 J.526 E.04461
G1 X159.83 Y161.232 E.24498
G1 X158.926 Y161.232 E.04323
G1 X156.077 Y158.383 E.19273
G1 X155.84 Y159.049 E.03384
G1 X158.022 Y161.232 E.14765
G1 X157.118 Y161.232 E.04323
G1 X155.501 Y159.615 E.10942
G3 X155.102 Y160.119 I-1.682 J-.919 E.03093
G1 X156.215 Y161.232 E.07527
G1 X155.311 Y161.232 E.04323
G1 X154.644 Y160.565 E.04513
G1 X154.095 Y160.92 E.03126
G1 X154.693 Y161.519 E.04049
G1 E-.4 F4200
G1 X156.18 Y158.204 F36000
G1 X156.287 Y157.25
G1 X156.18 Y156.296
G1 X155.863 Y155.39
G1 X155.352 Y154.577
G1 X154.673 Y153.898
G1 X153.86 Y153.387
G1 X153.009 Y153.09
G1 X152.901 Y153.399
