; HEADER_BLOCK_START
; generated by OrcaSlicer 1.8.1 on 2023-12-22 at 17:12:14
; total layer number: 86
; HEADER_BLOCK_END

; THUMBNAIL_BLOCK_START

;
; THUMBNAIL_BLOCK_END

; external perimeters extrusion width = 0.52mm
; perimeters extrusion width = 0.52mm
; infill extrusion width = 0.55mm
; solid infill extrusion width = 0.55mm
; top infill extrusion width = 0.55mm
; first layer extrusion width = 0.58mm

; external perimeters extrusion width = 0.52mm
; perimeters extrusion width = 0.52mm
; infill extrusion width = 0.55mm
; solid infill extrusion width = 0.55mm
; top infill extrusion width = 0.55mm
; first layer extrusion width = 0.58mm

; external perimeters extrusion width = 0.52mm
; perimeters extrusion width = 0.52mm
; infill extrusion width = 0.55mm
; solid infill extrusion width = 0.55mm
; top infill extrusion width = 0.55mm
; first layer extrusion width = 0.58mm

; external perimeters extrusion width = 0.52mm
; perimeters extrusion width = 0.52mm
; infill extrusion width = 0.55mm
; solid infill extrusion width = 0.55mm
; top infill extrusion width = 0.55mm
; first layer extrusion width = 0.58mm

; EXECUTABLE_BLOCK_START
EXCLUDE_OBJECT_DEFINE NAME=ECAS04_Body.stl_id_0_copy_0 CENTER=170.449,171.85 POLYGON=[[164.099,165.5],[176.799,165.5],[176.799,178.2],[164.099,178.2],[164.099,165.5]]
EXCLUDE_OBJECT_DEFINE NAME=ECAS04_Body.stl_id_1_copy_0 CENTER=170.449,158.15 POLYGON=[[164.099,151.8],[176.799,151.8],[176.799,164.5],[164.099,164.5],[164.099,151.8]]
EXCLUDE_OBJECT_DEFINE NAME=ECAS04_Press.stl_id_2_copy_0 CENTER=158.15,173.251 POLYGON=[[153.201,173.143],[153.211,172.927],[153.229,172.712],[153.258,172.498],[153.295,172.285],[153.342,172.075],[153.398,171.866],[153.463,171.66],[153.537,171.457],[153.619,171.258],[153.71,171.062],[153.81,170.87],[153.918,170.683],[154.034,170.501],[154.158,170.324],[154.29,170.153],[154.428,169.987],[154.574,169.828],[154.727,169.675],[154.886,169.53],[155.052,169.391],[155.223,169.259],[155.4,169.135],[155.582,169.019],[155.769,168.911],[155.961,168.812],[156.156,168.72],[156.356,168.638],[156.559,168.564],[156.765,168.499],[156.973,168.443],[157.184,168.396],[157.397,168.359],[157.611,168.331],[157.826,168.312],[158.042,168.302],[158.258,168.302],[158.474,168.312],[158.689,168.331],[158.903,168.359],[159.116,168.396],[159.327,168.443],[159.535,168.499],[159.741,168.564],[159.944,168.638],[160.144,168.72],[160.339,168.812],[160.531,168.911],[160.718,169.019],[160.9,169.135],[161.077,169.259],[161.248,169.391],[161.414,169.53],[161.573,169.675],[161.726,169.828],[161.872,169.987],[162.01,170.153],[162.142,170.324],[162.266,170.501],[162.382,170.683],[162.49,170.87],[162.59,171.062],[162.681,171.258],[162.763,171.457],[162.837,171.66],[162.902,171.866],[162.958,172.075],[163.005,172.285],[163.042,172.498],[163.071,172.712],[163.089,172.927],[163.099,173.143],[163.099,173.359],[163.089,173.575],[163.071,173.79],[163.042,174.004],[163.005,174.217],[162.958,174.428],[162.902,174.636],[162.837,174.842],[162.763,175.045],[162.681,175.245],[162.59,175.441],[162.49,175.632],[162.382,175.819],[162.266,176.001],[162.142,176.178],[162.01,176.349],[161.872,176.515],[161.726,176.674],[161.573,176.827],[161.414,176.973],[161.248,177.112],[161.077,177.243],[160.9,177.367],[160.718,177.483],[160.531,177.591],[160.339,177.691],[160.144,177.782],[159.944,177.865],[159.741,177.938],[159.535,178.003],[159.327,178.059],[159.116,178.106],[158.903,178.144],[158.689,178.172],[158.474,178.191],[158.258,178.2],[158.042,178.2],[157.826,178.191],[157.611,178.172],[157.397,178.144],[157.184,178.106],[156.973,178.059],[156.765,178.003],[156.559,177.938],[156.356,177.865],[156.156,177.782],[155.961,177.691],[155.769,177.591],[155.582,177.483],[155.4,177.367],[155.223,177.243],[155.052,177.112],[154.886,176.973],[154.727,176.827],[154.574,176.674],[154.428,176.515],[154.29,176.35],[154.158,176.178],[154.034,176.001],[153.918,175.819],[153.81,175.632],[153.71,175.441],[153.619,175.245],[153.537,175.045],[153.463,174.842],[153.398,174.636],[153.342,174.428],[153.295,174.217],[153.258,174.004],[153.229,173.79],[153.211,173.575],[153.201,173.359],[153.201,173.143]]
EXCLUDE_OBJECT_DEFINE NAME=ECAS04_Press.stl_id_3_copy_0 CENTER=158.15,162.354 POLYGON=[[153.201,162.246],[153.211,162.03],[153.229,161.815],[153.258,161.601],[153.295,161.388],[153.342,161.177],[153.398,160.968],[153.463,160.762],[153.537,160.559],[153.619,160.36],[153.71,160.164],[153.81,159.973],[153.918,159.786],[154.034,159.603],[154.158,159.427],[154.29,159.255],[154.428,159.09],[154.574,158.931],[154.727,158.778],[154.886,158.632],[155.052,158.493],[155.223,158.362],[155.4,158.238],[155.582,158.122],[155.769,158.014],[155.961,157.914],[156.156,157.823],[156.356,157.74],[156.559,157.666],[156.765,157.601],[156.973,157.545],[157.184,157.499],[157.397,157.461],[157.611,157.433],[157.826,157.414],[158.042,157.405],[158.258,157.405],[158.474,157.414],[158.689,157.433],[158.903,157.461],[159.116,157.499],[159.327,157.545],[159.535,157.601],[159.741,157.666],[159.944,157.74],[160.144,157.823],[160.339,157.914],[160.531,158.014],[160.718,158.122],[160.9,158.238],[161.077,158.362],[161.248,158.493],[161.414,158.632],[161.573,158.778],[161.726,158.931],[161.872,159.09],[162.01,159.255],[162.142,159.427],[162.266,159.603],[162.382,159.786],[162.49,159.973],[162.59,160.164],[162.681,160.36],[162.763,160.559],[162.837,160.762],[162.902,160.968],[162.958,161.177],[163.005,161.388],[163.042,161.601],[163.071,161.815],[163.089,162.03],[163.099,162.246],[163.099,162.462],[163.089,162.677],[163.071,162.892],[163.042,163.107],[163.005,163.319],[162.958,163.53],[162.902,163.739],[162.837,163.945],[162.763,164.148],[162.681,164.347],[162.59,164.543],[162.49,164.734],[162.382,164.921],[162.266,165.104],[162.142,165.281],[162.01,165.452],[161.872,165.617],[161.726,165.777],[161.573,165.929],[161.414,166.075],[161.248,166.214],[161.077,166.345],[160.9,166.469],[160.718,166.585],[160.531,166.693],[160.339,166.793],[160.144,166.884],[159.944,166.967],[159.741,167.041],[159.535,167.106],[159.327,167.162],[159.116,167.208],[158.903,167.246],[158.689,167.274],[158.474,167.293],[158.258,167.302],[158.042,167.302],[157.826,167.293],[157.611,167.274],[157.397,167.246],[157.184,167.208],[156.973,167.162],[156.765,167.106],[156.559,167.041],[156.356,166.967],[156.156,166.884],[155.961,166.793],[155.769,166.693],[155.582,166.585],[155.4,166.469],[155.223,166.345],[155.052,166.214],[154.886,166.075],[154.727,165.929],[154.574,165.777],[154.428,165.617],[154.29,165.452],[154.158,165.281],[154.034,165.104],[153.918,164.921],[153.81,164.734],[153.71,164.543],[153.619,164.347],[153.537,164.148],[153.463,163.945],[153.398,163.739],[153.342,163.53],[153.295,163.319],[153.258,163.107],[153.229,162.892],[153.211,162.677],[153.201,162.462],[153.201,162.246]]
M73 P0 R9
;TYPE:Custom
M104 S0
M140 S0
START_PRINT BED=75 HOTEND=225
G90
G21
M83 ; use relative distances for extrusion
; filament start gcode
SET_PRESSURE_ADVANCE ADVANCE=0.032; Override pressure advance value
M106 S0
;LAYER_CHANGE
;Z:0.24
;HEIGHT:0.24
;BEFORE_LAYER_CHANGE
;0.24
G92 E0

;DSLR_SNAPSHOT
TIMELAPSE_TAKE_FRAME
;_SET_FAN_SPEED_CHANGING_LAYER
SET_VELOCITY_LIMIT ACCEL=10000 ACCEL_TO_DECEL=5000
SET_VELOCITY_LIMIT SQUARE_CORNER_VELOCITY=10
G1 E-.4 F4200
G1 X151.816 Y155.871 F24000
G1 Z.24
G1 E.4 F4200
;TYPE:Skirt
;WIDTH:0.58
G1 F3000
G1 X152.547 Y155.229 E.04616
G1 X161.653 Y148.492 E.5376
G1 X164.099 Y147.686 E.12221
G1 X176.799 Y147.686 E.60274
G1 X178.558 Y148.081 E.08558
G1 X179.979 Y149.191 E.08558
G1 X180.79 Y150.801 E.08558
G1 X180.913 Y151.8 E.04775
G1 X180.913 Y178.2 E1.25295
G1 X180.518 Y179.959 E.08558
G1 X179.408 Y181.381 E.08558
G1 X177.797 Y182.191 E.08558
G1 X176.799 Y182.314 E.04775
G1 X157.863 Y182.31 E.89872
G1 X156.294 Y182.123 E.07498
G1 X154.949 Y181.73 E.06649
G1 X153.525 Y181.046 E.07498
G1 X152.407 Y180.263 E.06476
G1 X151.138 Y178.994 E.08519
G1 X150.565 Y178.212 E.04603
G1 X150.061 Y177.34 E.04776
G1 X149.424 Y175.701 E.08347
G1 X149.207 Y174.721 E.04764
G1 X149.101 Y173.754 E.04616
G1 X149.087 Y162.246 E.54621
G1 X149.151 Y161.278 E.04603
G1 X149.368 Y160.112 E.05627
G1 X149.817 Y158.788 E.06636
G1 X150.355 Y157.729 E.05639
G1 X151.138 Y156.611 E.06476
G1 X151.782 Y155.908 E.04527
G1 X152.172 Y156.264 F24000
G1 F3000
G1 X152.19 Y156.244 E.00129
G1 X152.869 Y155.649 E.04286
G1 X161.967 Y148.917 E.53715
G1 X164.099 Y148.215 E.10651
G1 X176.799 Y148.215 E.60274
G1 X178.434 Y148.609 E.07982
G1 X179.709 Y149.705 E.07982
G1 X180.384 Y151.8 E.10445
G1 X180.384 Y178.2 E1.25295
G1 X179.99 Y179.835 E.07982
G1 X178.893 Y181.11 E.07982
G1 X176.799 Y181.785 E.10445
G1 X157.514 Y181.762 E.91527
G1 X156.201 Y181.561 E.06306
G1 X154.984 Y181.177 E.06055
G1 X153.789 Y180.588 E.06321
G1 X152.747 Y179.858 E.06039
G1 X151.543 Y178.654 E.08081
G1 X151.01 Y177.928 E.04275
G1 X150.53 Y177.096 E.04557
G1 X149.934 Y175.564 E.078
G1 X149.727 Y174.629 E.04547
G1 X149.629 Y173.731 E.04286
G1 X149.616 Y162.246 E.54512
G1 X149.675 Y161.347 E.04275
G1 X149.879 Y160.249 E.05299
G1 X150.306 Y158.99 E.0631
G1 X150.813 Y157.993 E.0531
G1 X151.543 Y156.951 E.06039
G1 X152.138 Y156.301 E.0418
G1 X152.539 Y156.709 F24000
G1 F3000
G1 X153.191 Y156.068 E.04339
G1 X162.282 Y149.342 E.5367
M73 P1 R9
G1 X164.099 Y148.743 E.09081
G1 X176.799 Y148.743 E.60274
G1 X178.299 Y149.136 E.07361
G1 X179.413 Y150.216 E.07361
G1 X179.856 Y151.8 E.07808
G1 X179.856 Y178.2 E1.25295
G1 X179.462 Y179.7 E.07361
G1 X178.383 Y180.814 E.07361
G1 X176.799 Y181.257 E.07808
G1 X158.042 Y181.257 E.8902
G1 X156.653 Y181.117 E.06624
G1 X155.31 Y180.737 E.06624
G1 X154.054 Y180.13 E.06624
G1 X153.087 Y179.453 E.05602
G1 X151.948 Y178.314 E.07644
G1 X150.999 Y176.852 E.08273
G1 X150.445 Y175.428 E.07254
G1 X150.157 Y173.708 E.08274
G1 X150.184 Y161.548 E.57712
G1 X150.389 Y160.386 E.05602
G1 X150.794 Y159.192 E.05983
G1 X151.271 Y158.257 E.0498
G1 X151.948 Y157.29 E.05602
G1 X152.503 Y156.744 E.03698
G1 X152.857 Y157.124 F24000
G1 F3000
G1 X153.684 Y156.356 E.05358
G1 X162.596 Y149.767 E.52601
G1 X164.099 Y149.272 E.07511
G1 X176.799 Y149.272 E.60274
G1 X178.151 Y149.664 E.06683
G1 X179.084 Y150.718 E.06683
G1 X179.327 Y151.8 E.05262
G1 X179.327 Y178.2 E1.25295
G1 X178.935 Y179.552 E.06683
G1 X177.881 Y180.485 E.06683
G1 X176.799 Y180.728 E.05262
G1 X157.932 Y180.726 E.89544
G1 X156.637 Y180.575 E.06186
G1 X155.388 Y180.201 E.06187
G1 X154.224 Y179.616 E.06186
G1 X153.261 Y178.91 E.05665
G1 X152.284 Y177.889 E.06708
G1 X151.419 Y176.509 E.07728
G1 X150.9 Y175.082 E.07207
G1 X150.675 Y173.469 E.07728
G1 X150.723 Y161.485 E.56881
G1 X150.955 Y160.314 E.05665
G1 X151.328 Y159.291 E.05165
G1 X151.902 Y158.245 E.05665
G1 X152.491 Y157.465 E.04642
G1 X152.821 Y157.158 E.02133
; printing object ECAS04 Body.stl id:1 copy 0
G1 E-.4 F4200
EXCLUDE_OBJECT_START NAME=ECAS04_Body.stl_id_1_copy_0
G1 X173.632 Y153.775 F24000
G1 E.4 F4200
;TYPE:Inner wall
;WIDTH:0.579999
G1 F4800
G1 X174.823 Y153.775 E.05652
G1 X174.823 Y154.312 E.02549
G1 X174.823 Y162.525 E.38974
G1 X173.631 Y162.525 E.0566
G1 X173.749 Y162.099 E.02095
G1 X173.749 Y154.312 E.36956
G1 X173.635 Y153.785 E.02561
G1 E-.4 F4200
G1 X172.672 Y153.247 F24000
G1 E.4 F4200
G1 F4800
G1 X175.352 Y153.247 E.12719
G1 X175.352 Y154.312 E.05057
G1 X175.352 Y163.053 E.41483
G1 X172.668 Y163.053 E.12738
G1 X173.03 Y162.783 E.02145
G1 X173.221 Y162.099 E.03368
G1 X173.221 Y154.201 E.37487
G1 X173.035 Y153.525 E.03324
G1 X172.68 Y153.253 E.02125
G1 E-.4 F4200
G1 X167.264 Y153.775 F24000
G1 E.4 F4200
G1 F4800
G1 X167.148 Y154.201 E.02091
G1 X167.148 Y161.987 E.36956
G1 X167.265 Y162.525 E.02608
G1 X166.074 Y162.525 E.05652
G1 X166.074 Y153.775 E.41523
G1 X167.254 Y153.775 E.05598
G1 E-.4 F4200
G1 X168.163 Y153.293 F24000
G1 E.4 F4200
G1 F4800
G1 X167.858 Y153.533 E.01839
G1 X167.677 Y154.201 E.03286
G1 X167.677 Y162.099 E.37487
G1 X167.862 Y162.775 E.03324
G1 X168.226 Y163.053 E.02172
G1 X165.546 Y163.053 E.12719
M73 P2 R9
G1 X165.546 Y153.247 E.46539
G1 X168.222 Y153.247 E.12702
G1 X168.171 Y153.287 E.00309
G1 E-.4 F4200
G1 X165.017 Y152.718 F24000
G1 E.4 F4200
G1 F4800
G1 X169.833 Y152.705 E.22855
;WIDTH:0.553812
G1 X170.446 Y152.696 E.02766
;WIDTH:0.548694
G1 X170.971 Y152.703 E.02344
;WIDTH:0.58793
G2 X172.213 Y152.718 I.839 J-17.266 E.05983
;WIDTH:0.579999
G1 X175.88 Y152.718 E.17407
G1 X175.88 Y154.312 E.07565
G1 X175.88 Y163.582 E.43991
G2 X171.292 Y163.587 I-1.845 J402.21 E.21775
;WIDTH:0.569754
G1 X170.61 Y163.603 E.03176
;WIDTH:0.548694
G1 X169.927 Y163.597 E.03051
;WIDTH:0.587929
G2 X168.685 Y163.582 I-.839 J17.266 E.05983
;WIDTH:0.579999
G1 X165.017 Y163.582 E.17407
G1 X165.017 Y152.728 E.51509
G1 X164.489 Y152.19 F24000
;TYPE:Outer wall
G1 F4800
G1 X176.409 Y152.19 E.56572
G1 X176.409 Y154.312 E.10073
G1 X176.409 Y164.11 E.46499
G1 X164.489 Y164.11 E.56572
G1 X164.489 Y152.2 E.56525
G1 E-.4 F4200
G1 X168.467 Y153.68 F24000
G1 E.4 F4200
;TYPE:Inner wall
G1 F4800
G1 X168.772 Y153.441 E.01839
G3 X169.748 Y153.217 I1.577 J4.626 E.04762
;WIDTH:0.561428
G1 X170.396 Y153.18 E.02972
;WIDTH:0.548694
G1 X170.933 Y153.197 E.02402
;WIDTH:0.590732
G1 X171.479 Y153.26 E.02663
G1 X172.114 Y153.437 E.03189
;WIDTH:0.579999
G1 X172.581 Y153.796 E.02794
G1 X172.692 Y154.312 E.0251
G1 X172.692 Y162.099 E.36956
G1 X172.578 Y162.509 E.02021
G1 X172.099 Y162.866 E.02835
G1 X171.377 Y163.052 E.03537
;WIDTH:0.575488
G1 X170.716 Y163.115 E.03125
;WIDTH:0.542847
G1 X170.066 Y163.109 E.0287
;WIDTH:0.59073
G1 X169.418 Y163.04 E.03153
G1 X168.784 Y162.863 E.03189
;WIDTH:0.579999
G1 X168.317 Y162.504 E.02794
G1 X168.205 Y161.987 E.0251
G1 X168.205 Y154.201 E.36956
G1 X168.314 Y153.8 E.01971
G1 X168.459 Y153.686 E.00872
G1 X168.77 Y154.067 F24000
;TYPE:Outer wall
G1 F4800
G1 X168.923 Y153.947 E.0092
G1 X169.849 Y153.726 E.04521
G3 X171.971 Y153.946 I.592 J4.631 E.10215
G1 X172.127 Y154.066 E.00931
G1 X172.164 Y154.312 E.01185
G1 X172.164 Y162.099 E.36956
G1 X172.126 Y162.236 E.00674
G1 X171.966 Y162.355 E.00945
G1 X171.245 Y162.543 E.03537
G3 X168.927 Y162.354 I-.793 J-4.579 E.11157
G1 X168.771 Y162.234 E.00931
G1 X168.734 Y161.987 E.01185
G1 X168.734 Y154.201 E.36956
M73 P2 R8
G1 X168.767 Y154.077 E.0061
G1 E-.4 F4200
G1 X166.99 Y155.043 F24000
G1 E.4 F4200
;TYPE:Bottom surface
;WIDTH:0.599194
G1 F4800
G1 X166.471 Y154.524 E.03611
G1 X166.471 Y155.298 E.0381
G1 X166.752 Y155.58 E.01957
G1 X166.752 Y156.354 E.0381
G1 X166.471 Y156.073 E.01957
G1 X166.471 Y156.848 E.0381
G1 X166.752 Y157.129 E.01957
G1 X166.752 Y157.903 E.0381
G1 X166.471 Y157.622 E.01957
G1 X166.471 Y158.397 E.0381
G1 X166.752 Y158.678 E.01957
G1 X166.752 Y159.453 E.0381
G1 X166.471 Y159.171 E.01957
G1 X166.471 Y159.946 E.0381
G1 X166.752 Y160.227 E.01957
G1 X166.752 Y161.002 E.0381
G1 X166.471 Y160.72 E.01957
G1 X166.471 Y161.495 E.0381
G1 X166.99 Y162.014 E.03611
G1 E-.4 F4200
G1 X174.665 Y155.043 F24000
G1 E.4 F4200
G1 F4800
G1 X174.146 Y154.524 E.03611
G1 X174.146 Y155.298 E.0381
G1 X174.427 Y155.58 E.01957
G1 X174.427 Y156.354 E.0381
G1 X174.146 Y156.073 E.01957
G1 X174.146 Y156.848 E.0381
G1 X174.427 Y157.129 E.01957
G1 X174.427 Y157.903 E.0381
G1 X174.146 Y157.622 E.01957
G1 X174.146 Y158.397 E.0381
G1 X174.427 Y158.678 E.01957
G1 X174.427 Y159.453 E.0381
G1 X174.146 Y159.171 E.01957
G1 X174.146 Y159.946 E.0381
G1 X174.427 Y160.227 E.01957
G1 X174.427 Y161.002 E.0381
G1 X174.146 Y160.72 E.01957
G1 X174.146 Y161.495 E.0381
G1 X174.665 Y162.014 E.03611
; stop printing object ECAS04 Body.stl id:1 copy 0
; printing object ECAS04 Press.stl id:3 copy 0
G1 E-.4 F4200
EXCLUDE_OBJECT_END NAME=ECAS04_Body.stl_id_1_copy_0
EXCLUDE_OBJECT_START NAME=ECAS04_Press.stl_id_3_copy_0
G1 X161.11 Y162.213 F24000
G1 E.4 F4200
;TYPE:Inner wall
;WIDTH:0.579999
G1 F4800
G1 X161.111 Y162.224 E.00053
G1 X161.086 Y162.805 E.02761
G1 X160.935 Y163.367 E.02761
G1 X160.69 Y163.895 E.0276
G1 X160.335 Y164.356 E.02761
G1 X159.907 Y164.749 E.02761
G1 X159.403 Y165.04 E.02761
G1 X158.856 Y165.239 E.02761
G1 X158.279 Y165.315 E.02761
G1 X157.698 Y165.289 E.02761
G1 X157.136 Y165.139 E.02761
