; HEADER_BLOCK_START
; generated by OrcaSlicer 1.8.1 on 2023-12-23 at 15:44:22
; total layer number: 32
; HEADER_BLOCK_END

; THUMBNAIL_BLOCK_START

;
; THUMBNAIL_BLOCK_END

; external perimeters extrusion width = 0.52mm
; perimeters extrusion width = 0.52mm
; infill extrusion width = 0.55mm
; solid infill extrusion width = 0.55mm
; top infill extrusion width = 0.55mm
; first layer extrusion width = 0.58mm

; EXECUTABLE_BLOCK_START
EXCLUDE_OBJECT_DEFINE NAME=ercf_ezbrd_mount_tr_1_.stl_id_0_copy_0 CENTER=165,165 POLYGON=[[117.097,152.22],[117.122,151.73],[117.194,151.245],[117.313,150.769],[117.478,150.307],[117.688,149.863],[117.94,149.442],[118.232,149.048],[118.562,148.684],[137.586,127.91],[137.788,127.708],[138.016,127.537],[138.267,127.401],[138.534,127.301],[138.813,127.24],[139.097,127.22],[190.098,127.22],[190.382,127.24],[190.661,127.301],[190.928,127.401],[191.179,127.537],[191.407,127.708],[191.609,127.91],[211.438,148.684],[211.768,149.048],[212.06,149.442],[212.312,149.863],[212.522,150.307],[212.687,150.769],[212.806,151.245],[212.878,151.73],[212.902,152.22],[212.902,198.375],[212.878,198.835],[212.806,199.291],[212.687,199.736],[212.522,200.167],[212.312,200.577],[212.061,200.964],[211.771,201.323],[211.445,201.649],[211.087,201.939],[210.7,202.19],[210.289,202.399],[209.859,202.564],[209.413,202.684],[208.958,202.756],[208.498,202.78],[121.502,202.78],[121.068,202.758],[121.042,202.756],[120.637,202.694],[120.587,202.684],[120.215,202.587],[120.141,202.564],[119.805,202.44],[119.711,202.399],[119.412,202.252],[119.3,202.19],[119.039,202.027],[118.913,201.939],[118.691,201.766],[118.555,201.649],[118.369,201.471],[118.229,201.323],[118.079,201.147],[117.939,200.964],[117.822,200.795],[117.688,200.577],[117.601,200.42],[117.478,200.167],[117.418,200.025],[117.361,199.875],[117.325,199.771],[117.313,199.736],[117.291,199.665],[117.26,199.56],[117.233,199.458],[117.209,199.359],[117.194,199.291],[117.189,199.266],[117.172,199.18],[117.158,199.101],[117.146,199.03],[117.137,198.965],[117.13,198.908],[117.124,198.86],[117.12,198.823],[117.118,198.796],[117.115,198.768],[117.113,198.749],[117.111,198.717],[117.108,198.672],[117.104,198.615],[117.101,198.546],[117.098,198.466],[117.097,198.375],[117.097,152.22]]
M73 P0 R12
;TYPE:Custom
M104 S0
M140 S0
START_PRINT BED=75 HOTEND=225
G90
G21
M83 ; use relative distances for extrusion
; filament start gcode
SET_PRESSURE_ADVANCE ADVANCE=0.032; Override pressure advance value
M106 S0
;LAYER_CHANGE
;Z:0.2
;HEIGHT:0.2
;BEFORE_LAYER_CHANGE
;0.2
G92 E0

;DSLR_SNAPSHOT
TIMELAPSE_TAKE_FRAME
;_SET_FAN_SPEED_CHANGING_LAYER
SET_VELOCITY_LIMIT ACCEL=10000 ACCEL_TO_DECEL=5000
SET_VELOCITY_LIMIT SQUARE_CORNER_VELOCITY=10
G1 E-.4 F4200
G1 X134.741 Y125.32 F24000
G1 Z.2
G1 E.4 F4200
;TYPE:Skirt
;WIDTH:0.58
G1 F3000
G1 X135.592 Y124.544 E.04627
G1 X136.726 Y123.878 E.05287
G1 X137.936 Y123.49 E.05107
G1 X139.097 Y123.372 E.04692
G1 X190.442 Y123.386 E2.06368
G1 X191.52 Y123.552 E.04384
G1 X192.469 Y123.878 E.04031
G1 X193.374 Y124.381 E.04165
G1 X194.328 Y125.188 E.0502
G1 X214.609 Y146.453 E1.18108
G1 X215.606 Y147.872 E.0697
G1 X216.151 Y149.024 E.05122
G1 X216.424 Y149.848 E.03489
G1 X216.683 Y151.151 E.05339
G1 X216.751 Y152.22 E.04307
G1 X216.745 Y198.592 E1.86381
G1 X216.61 Y199.877 E.05194
G1 X216.12 Y201.531 E.06932
G1 X215.532 Y202.687 E.05213
G1 X214.481 Y204.055 E.06932
G1 X213.17 Y205.175 E.06933
G1 X211.654 Y205.998 E.06932
G1 X210 Y206.488 E.06932
G1 X208.497 Y206.628 E.06065
G1 X121.503 Y206.628 E3.49655
G1 X120 Y206.488 E.06065
G1 X118.346 Y205.998 E.06933
G1 X116.83 Y205.175 E.06932
G1 X115.822 Y204.359 E.05213
G1 X114.702 Y203.047 E.06932
G1 X114.056 Y201.928 E.05195
G1 X113.48 Y200.302 E.06932
G1 X113.255 Y198.592 E.06932
G1 X113.249 Y152.22 E1.86381
G1 X113.317 Y151.151 E.04307
G1 X113.464 Y150.295 E.03489
G1 X113.849 Y149.024 E.05339
G1 X114.202 Y148.231 E.03489
G1 X114.631 Y147.476 E.03489
G1 X115.391 Y146.453 E.05122
G1 X134.707 Y125.356 E1.14966
G1 X135.103 Y125.719 F24000
G1 F3000
G1 X135.137 Y125.682 E.00201
G1 X135.904 Y124.982 E.04174
G1 X136.953 Y124.365 E.04894
G1 X138.05 Y124.015 E.04628
G1 X139.097 Y123.909 E.0423
G1 X190.398 Y123.921 E2.06189
M73 P1 R12
G1 X191.214 Y124.03 E.03311
G1 X192.242 Y124.365 E.04343
G1 X193.063 Y124.819 E.03771
G1 X193.948 Y125.568 E.04661
G1 X214.211 Y146.813 E1.18003
G1 X215.145 Y148.148 E.06547
G1 X215.645 Y149.205 E.04699
G1 X215.903 Y149.978 E.03277
G1 X216.152 Y151.229 E.05127
G1 X216.214 Y152.22 E.03989
G1 X216.209 Y198.564 E1.86268
G1 X216.08 Y199.793 E.04968
G1 X215.619 Y201.339 E.06481
G1 X215.081 Y202.394 E.04762
G1 X214.102 Y203.675 E.06481
G1 X212.877 Y204.725 E.06482
G1 X211.461 Y205.496 E.06481
G1 X209.916 Y205.957 E.06481
G1 X208.497 Y206.091 E.05726
G1 X121.503 Y206.091 E3.49655
G1 X120.084 Y205.957 E.05726
G1 X118.539 Y205.496 E.06482
G1 X117.123 Y204.725 E.06481
G1 X116.202 Y203.979 E.04761
G1 X115.153 Y202.755 E.06481
G1 X114.535 Y201.684 E.04969
G1 X113.999 Y200.163 E.06481
G1 X113.791 Y198.564 E.06481
G1 X113.786 Y152.22 E1.86268
G1 X113.985 Y150.426 E.07256
G1 X114.355 Y149.205 E.05127
G1 X114.688 Y148.46 E.03277
G1 X115.092 Y147.752 E.03277
G1 X115.789 Y146.813 E.04699
G1 X135.07 Y125.756 E1.14754
G1 X135.466 Y126.119 F24000
G1 F3000
G1 X135.533 Y126.045 E.00402
G1 X136.215 Y125.419 E.03721
G1 X137.18 Y124.851 E.045
G1 X138.164 Y124.539 E.0415
G1 X139.097 Y124.446 E.03769
G1 X190.353 Y124.456 E2.06009
G1 X191.242 Y124.589 E.03614
G1 X192.204 Y124.94 E.04115
G1 X192.98 Y125.419 E.03664
G1 X193.618 Y125.999 E.03466
G1 X213.813 Y147.174 E1.17609
M73 P2 R12
G1 X214.684 Y148.424 E.06124
G1 X215.139 Y149.386 E.04276
G1 X215.382 Y150.109 E.03066
G1 X215.621 Y151.308 E.04916
G1 X215.677 Y152.22 E.03671
G1 X215.672 Y198.536 E1.86155
G1 X215.549 Y199.709 E.04743
G1 X215.118 Y201.146 E.0603
G1 X214.631 Y202.102 E.0431
G1 X213.722 Y203.296 E.0603
G1 X212.585 Y204.274 E.0603
G1 X211.269 Y204.995 E.0603
G1 X209.832 Y205.427 E.0603
G1 X208.497 Y205.554 E.05388
G1 X121.503 Y205.554 E3.49655
G1 X120.168 Y205.427 E.05388
G1 X118.731 Y204.995 E.0603
G1 X117.415 Y204.274 E.0603
G1 X116.582 Y203.599 E.0431
G1 X115.603 Y202.462 E.0603
G1 X115.013 Y201.44 E.04743
G1 X114.518 Y200.024 E.0603
G1 X114.328 Y198.536 E.0603
G1 X114.323 Y152.22 E1.86155
G1 X114.506 Y150.556 E.06728
G1 X114.861 Y149.386 E.04916
G1 X115.173 Y148.69 E.03066
G1 X115.553 Y148.028 E.03065
G1 X116.187 Y147.174 E.04276
G1 X135.432 Y126.156 E1.14542
G1 X135.828 Y126.518 F24000
G1 F3000
G1 X135.929 Y126.408 E.00602
G1 X136.527 Y125.856 E.03267
G1 X137.407 Y125.338 E.04106
G1 X138.279 Y125.064 E.03672
G1 X139.097 Y124.983 E.03307
G1 X190.308 Y124.992 E2.0583
G1 X191.103 Y125.108 E.03229
G1 X191.977 Y125.427 E.03739
G1 X192.668 Y125.856 E.0327
G1 X193.23 Y126.369 E.03057
G1 X213.416 Y147.535 E1.17554
G1 X214.224 Y148.7 E.05701
G1 X214.861 Y150.239 E.06696
G1 X215.089 Y151.387 E.04704
G1 X215.14 Y152.22 E.03354
G1 X215.136 Y198.508 E1.86042
M73 P3 R12
G1 X215.019 Y199.625 E.04517
G1 X214.616 Y200.954 E.05579
G1 X214.18 Y201.809 E.03859
G1 X213.342 Y202.916 E.05579
G1 X212.292 Y203.824 E.05579
G1 X211.076 Y204.494 E.05579
G1 X209.748 Y204.896 E.05579
G1 X208.497 Y205.017 E.05049
G1 X121.503 Y205.017 E3.49655
G1 X120.252 Y204.896 E.05049
G1 X118.924 Y204.494 E.05579
G1 X117.708 Y203.824 E.05579
G1 X116.962 Y203.22 E.03859
G1 X116.054 Y202.17 E.05579
G1 X115.492 Y201.196 E.04517
G1 X115.037 Y199.885 E.05579
G1 X114.864 Y198.508 E.05579
G1 X114.86 Y152.22 E1.86042
G1 X115.027 Y150.687 E.06199
G1 X115.366 Y149.567 E.04704
G1 X115.659 Y148.92 E.02854
G1 X116.584 Y147.535 E.06696
G1 X135.794 Y126.555 E1.1433
; printing object ercf_ezbrd_mount_tr (1).stl id:0 copy 0
G1 E-.4 F4200
EXCLUDE_OBJECT_START NAME=ercf_ezbrd_mount_tr_1_.stl_id_0_copy_0
G1 X134.506 Y199.697 F24000
G1 E.4 F4200
;TYPE:Inner wall
;WIDTH:0.679853
G1 F4800
G1 X134.59 Y200.429 E.03509
G1 X133.867 Y200.451 E.03445
;WIDTH:0.635815
G1 X133.334 Y200.469 E.02368
;WIDTH:0.600252
G1 X132.65 Y200.47 E.02853
;WIDTH:0.625829
G1 X132.223 Y200.456 E.01864
;WIDTH:0.654882
G1 X131.796 Y200.441 E.01957
;WIDTH:0.670345
G1 X131.275 Y200.434 E.02447
G1 X131.325 Y200.208 E.01086
G1 X131.354 Y199.687 E.02448
G2 X131.849 Y199.834 I.844 J-1.938 E.0243
;WIDTH:0.654882
G1 X132.259 Y199.875 E.01889
;WIDTH:0.625858
G1 X132.669 Y199.916 E.01799
;WIDTH:0.600252
G1 X133.331 Y199.911 E.0276
;WIDTH:0.635815
G1 X133.793 Y199.868 E.02057
;WIDTH:0.679853
G1 X134.497 Y199.7 E.0345
G1 E-.4 F4200
G1 X135.093 Y198.779 F24000
G1 E.4 F4200
;WIDTH:0.579999
G1 F4800
G2 X135.114 Y200.024 I18.118 J.322 E.05003
G1 X135.204 Y200.527 E.02055
G1 X135.393 Y201.016 E.02106
G1 X130.475 Y201.016 E.19768
G1 X130.491 Y200.988 E.0013
G2 X130.772 Y199.793 I-2.882 J-1.308 E.04965
G1 X130.77 Y198.778 E.0408
G1 X131.059 Y198.938 E.0133
G1 X131.948 Y199.268 E.03812
G1 X132.664 Y199.371 E.02905
G1 X133.325 Y199.364 E.0266
G2 X134.533 Y199.066 I-.851 J-6.031 E.05007
G1 X135.085 Y198.784 E.0249
G1 E-.4 F4200
G1 X135.64 Y197.623 F24000
G1 E.4 F4200
G1 F4800
G2 X135.643 Y199.93 I62.304 J1.069 E.09271
G1 X135.732 Y200.433 E.02055
G1 X135.828 Y200.695 E.0112
G1 X136.088 Y201.145 E.0209
G2 X136.498 Y201.553 I1.361 J-.96 E.02337
G1 X129.383 Y201.553 E.28597
G1 X129.512 Y201.445 E.00676
G1 X129.846 Y201.046 E.0209
G1 X129.986 Y200.804 E.01125
G1 X130.164 Y200.316 E.0209
G1 X130.235 Y199.791 E.02126
G1 X130.23 Y197.621 E.08721
G1 X130.725 Y198.105 E.02782
G1 X131.262 Y198.441 E.02545
G1 X132.041 Y198.739 E.03354
G1 X132.658 Y198.834 E.02508
G1 X133.515 Y198.801 E.03445
G1 X134.301 Y198.581 E.03281
G1 X134.874 Y198.287 E.02591
G1 X135.4 Y197.883 E.02665
G1 X135.633 Y197.63 E.0138
G1 E-.4 F4200
G1 X130.164 Y194.235 F24000
G1 E.4 F4200
;TYPE:Outer wall
;WIDTH:0.475058
G1 F4800
G1 X130.331 Y193.801 E.01506
;WIDTH:0.467154
G1 X130.608 Y193.372 E.0162
;WIDTH:0.467574
G1 X131.081 Y192.895 E.02136
;WIDTH:0.468297
G1 X131.528 Y192.599 E.01705
;WIDTH:0.474761
G1 X132.042 Y192.385 E.01798
;WIDTH:0.481279
G3 X132.921 Y192.244 I1.096 J4.019 E.02926
;WIDTH:0.478008
G1 X133.525 Y192.314 E.01982
;WIDTH:0.480202
G1 X134.088 Y192.49 E.0193
G1 X134.445 Y192.663 E.01297
;WIDTH:0.478648
G1 X134.924 Y193.027 E.01961
G1 X135.265 Y193.382 E.01607
;WIDTH:0.472367
G1 X135.541 Y193.807 E.01629
G1 X135.776 Y194.396 E.02037
;WIDTH:0.463235
G1 X135.789 Y194.448 E.00167
;WIDTH:0.464533
G1 X135.888 Y195.172 E.02306
;WIDTH:0.492793
G1 X135.853 Y195.564 E.01326
;WIDTH:0.521053
G1 X135.819 Y195.957 E.0141
;WIDTH:0.550526
G1 X135.73 Y196.29 E.01308
;WIDTH:0.579999
G1 X135.641 Y196.622 E.01384
G1 X135.418 Y197.046 E.01924
G1 X135.088 Y197.444 E.02078
G1 X134.547 Y197.861 E.02749
G1 X134.069 Y198.097 E.02141
G1 X133.379 Y198.281 E.0287
G1 X132.653 Y198.297 E.02921
G1 X132.135 Y198.21 E.02111
G1 X131.465 Y197.944 E.02896
G1 X131.021 Y197.657 E.02126
G1 X130.526 Y197.154 E.02836
G1 X130.244 Y196.67 E.0225
G1 X130.149 Y196.334 E.01405
;WIDTH:0.552873
G1 X130.053 Y195.998 E.01334
;WIDTH:0.525747
G1 X130.013 Y195.613 E.01397
;WIDTH:0.49931
G1 X129.973 Y195.229 E.01321
;WIDTH:0.475058
G1 X130.062 Y194.503 E.02364
G1 X130.161 Y194.245 E.00896
G1 E-.4 F4200
G1 X119.472 Y163.235 F24000
G1 E.4 F4200
;TYPE:Inner wall
;WIDTH:0.511229
G1 F4800
G1 X119.287 Y163.35 E.00764
G1 X118.827 Y163.734 E.02099
G1 X118.827 Y162.732 E.03512
G1 X119.464 Y163.229 E.02829
G1 E-.4 F4200
G1 X120.568 Y163.236 F24000
G1 E.4 F4200
;WIDTH:0.579999
G1 F4800
G1 X120.313 Y163.325 E.01088
G2 X119.444 Y163.858 I3.862 J7.272 E.041
G1 X118.971 Y164.295 E.02588
G1 X118.533 Y164.846 E.02831
G1 X118.325 Y165.227 E.01744
G1 X118.325 Y161.266 E.15921
G1 X118.727 Y161.889 E.02983
G1 X119.16 Y162.358 E.02565
G1 X119.852 Y162.884 E.03491
G1 X120.559 Y163.231 E.03169
G1 E-.4 F4200
G1 X145.371 Y147.346 F24000
G1 E.4 F4200
G1 F4800
G2 X144.714 Y147.688 I4.23 J8.919 E.02975
G1 X144.058 Y148.181 E.03299
G2 X142.308 Y151.399 I3.517 J3.998 E.15027
;WIDTH:0.548671
G1 X142.303 Y151.671 E.01029
;WIDTH:0.510855
G1 X142.298 Y151.942 E.00952
;WIDTH:0.473038
G1 X142.294 Y152.214 E.00875
;WIDTH:0.435221
G1 X142.294 Y159.226 E.20584
;WIDTH:0.446788
G1 X142.3 Y159.433 E.00627
;WIDTH:0.481641
G1 X142.319 Y159.748 E.01037
;WIDTH:0.516493
G1 X142.337 Y160.064 E.01119
;WIDTH:0.56419
G1 X142.353 Y160.261 E.00773
;WIDTH:0.611887
G1 X142.368 Y160.459 E.00844
;WIDTH:0.659583
G1 X142.384 Y160.657 E.00915
;WIDTH:0.703498
G1 X142.408 Y160.79 E.0067
;WIDTH:0.747413
G1 X142.432 Y160.923 E.00715
;WIDTH:0.791328
G1 X142.457 Y161.057 E.0076
;WIDTH:0.835242
G1 X142.481 Y161.19 E.00804
G1 X142.706 Y161.719 E.03408
G1 X141.483 Y161.72 E.07251
G1 X141.742 Y161.17 E.03604
G1 X141.755 Y161.05 E.00715
;WIDTH:0.791328
G1 X141.768 Y160.93 E.00676
;WIDTH:0.747413
G1 X141.78 Y160.81 E.00636
;WIDTH:0.703498
G1 X141.793 Y160.69 E.00596
;WIDTH:0.659583
G1 X141.818 Y160.449 E.01119
;WIDTH:0.612443
G1 X141.843 Y160.208 E.01033
;WIDTH:0.565302
G1 X141.868 Y159.967 E.00948
;WIDTH:0.518162
G1 X141.894 Y159.726 E.00862
;WIDTH:0.471021
G1 X141.901 Y159.226 E.01603
;WIDTH:0.435221
G1 X141.901 Y152.214 E.20584
;WIDTH:0.446786
G1 X141.895 Y152.007 E.00627
;WIDTH:0.480748
G1 X141.888 Y151.796 E.00692
;WIDTH:0.51471
G1 X141.881 Y151.585 E.00746
;WIDTH:0.548671
G1 X141.874 Y151.374 E.00799
;WIDTH:0.579999
G1 X141.774 Y150.797 E.02354
G1 X141.506 Y150.047 E.03198
G1 X141.081 Y149.284 E.03514
G2 X139.902 Y148.002 I-4.113 J2.6 E.07034
G1 X139.319 Y147.593 E.02866
G1 X138.816 Y147.345 E.02253
G1 X139.052 Y146.908 E.01998
G2 X139.357 Y145.821 I-11.174 J-3.719 E.04539
G1 X139.399 Y145.224 E.02404
G1 X139.399 Y141.396 E.15386
G1 X139.74 Y141.592 E.0158
G1 X140.799 Y142.021 E.04593
G1 X141.553 Y142.157 E.0308
G2 X143.581 Y141.96 I.489 J-5.509 E.08236
G1 X144.287 Y141.687 E.03043
G1 X144.796 Y141.374 E.02403
G1 X144.796 Y144.874 E.14068
G2 X145.064 Y146.683 I5.261 J.146 E.07387
G1 X145.366 Y147.337 E.02895
G1 X146.206 Y147.594 F24000
G1 F4800
G1 X146.072 Y147.63 E.00558
G2 X145.023 Y148.128 I3.017 J7.727 E.04672
G1 X144.435 Y148.565 E.02945
G1 X143.793 Y149.235 E.03732
G1 X143.392 Y149.838 E.02908
G1 X142.997 Y150.74 E.03956
G1 X142.816 Y151.517 E.03208
G1 X142.758 Y152.214 E.02813
G1 X142.758 Y159.226 E.2818
G2 X142.927 Y160.463 I9.89 J-.718 E.05022
G2 X143.32 Y161.472 I9.093 J-2.961 E.04357
G1 X143.69 Y162.065 E.02808
G1 X143.948 Y162.383 E.01647
G3 X140.254 Y162.384 I-2.008 J-933.082 E.14849
G1 X140.402 Y162.205 E.00936
G1 X140.803 Y161.602 E.02909
G1 X141.199 Y160.699 E.03964
G1 X141.379 Y159.923 E.03202
G1 X141.437 Y159.226 E.02811
G1 X141.437 Y152.214 E.2818
G2 X141.337 Y151.275 I-8.232 J.395 E.03799
G1 X141.219 Y150.841 E.01808
G1 X140.875 Y149.968 E.03772
G1 X140.369 Y149.194 E.03717
G2 X139.568 Y148.423 I-3.15 J2.47 E.04482
G1 X139.081 Y148.075 E.02405
G1 X138.365 Y147.722 E.03209
G1 X138 Y147.601 E.01546
G2 X138.552 Y146.713 I-6.191 J-4.462 E.04205
G2 X138.825 Y145.748 I-12.228 J-3.981 E.04033
G1 X138.862 Y145.224 E.02109
G1 X138.862 Y140.249 E.19997
G1 X138.967 Y140.365 E.00629
G1 X139.398 Y140.742 E.02302
G1 X139.957 Y141.101 E.0267
G1 X140.917 Y141.498 E.04176
G1 X141.57 Y141.62 E.02669
G2 X142.69 Y141.612 I.514 J-6.304 E.04506
G1 X143.707 Y141.356 E.04215
G1 X144.295 Y141.069 E.0263
G1 X144.945 Y140.616 E.03183
G1 X145.333 Y140.251 E.02143
G1 X145.333 Y144.874 E.18581
G1 X145.349 Y145.426 E.02219
G1 X145.465 Y146.201 E.03149
G2 X145.957 Y147.294 I6.878 J-2.438 E.04824
G1 X146.2 Y147.587 E.01527
G1 E-.4 F4200
G1 X147.397 Y147.934 F24000
G1 E.4 F4200
G1 F4800
G1 X146.755 Y148.005 E.02596
G1 X146.213 Y148.149 E.02254
G2 X145.331 Y148.567 I3.723 J8.983 E.03923
G1 X144.814 Y148.945 E.02572
G1 X144.232 Y149.544 E.03358
G1 X143.877 Y150.069 E.0255
G1 X143.52 Y150.861 E.03491
G1 X143.339 Y151.639 E.03208
G1 X143.295 Y152.214 E.0232
G1 X143.295 Y159.226 E.2818
M73 P4 R12
G2 X143.776 Y161.188 I5.302 J-.258 E.08169
G1 X144.227 Y161.889 E.03353
G1 X144.661 Y162.358 E.02565
G1 X145.205 Y162.791 E.02799
G1 X145.424 Y162.919 E.0102
G1 X138.777 Y162.923 E.26717
G1 X139.381 Y162.495 E.02973
G1 X139.963 Y161.896 E.03358
G1 X140.318 Y161.37 E.0255
G1 X140.676 Y160.577 E.03499
