; HEADER_BLOCK_START
; generated by OrcaSlicer 1.6.3 on 2023-12-08 at 15:19:24
; total layer number: 286
; HEADER_BLOCK_END

; THUMBNAIL_BLOCK_START
; THUMBNAIL_BLOCK_END

; external perimeters extrusion width = 0.62mm
; perimeters extrusion width = 0.62mm
; infill extrusion width = 0.65mm
; solid infill extrusion width = 0.65mm
; top infill extrusion width = 0.65mm
; support material extrusion width = 0.65mm
; first layer extrusion width = 0.68mm

; external perimeters extrusion width = 0.62mm
; perimeters extrusion width = 0.62mm
; infill extrusion width = 0.65mm
; solid infill extrusion width = 0.65mm
; top infill extrusion width = 0.65mm
; support material extrusion width = 0.65mm
; first layer extrusion width = 0.68mm

; EXECUTABLE_BLOCK_START
EXCLUDE_OBJECT_DEFINE NAME=fan_duct_lower_Goliath_long.stl_id_0_copy_0 CENTER=165,174.121 POLYGON=[[131.656,173.284],[131.657,173.23],[131.66,173.162],[131.665,173.08],[131.667,173.056],[131.675,172.962],[131.686,172.857],[131.701,172.741],[131.719,172.615],[131.741,172.48],[131.784,172.261],[131.839,172.026],[131.906,171.778],[131.988,171.52],[132.084,171.255],[132.198,170.985],[132.329,170.715],[132.48,170.446],[132.651,170.181],[132.843,169.924],[132.868,169.893],[133.083,169.647],[133.316,169.421],[133.561,169.215],[133.817,169.03],[147.41,159.581],[182.59,159.581],[196.183,169.03],[196.439,169.215],[196.684,169.421],[196.917,169.647],[197.132,169.893],[197.157,169.924],[197.349,170.181],[197.52,170.446],[197.671,170.715],[197.802,170.985],[197.916,171.255],[198.012,171.52],[198.094,171.778],[198.161,172.026],[198.216,172.261],[198.259,172.48],[198.281,172.615],[198.299,172.741],[198.314,172.857],[198.325,172.962],[198.333,173.056],[198.335,173.08],[198.34,173.162],[198.343,173.23],[198.344,173.284],[198.344,174.338],[198.343,174.394],[198.34,174.465],[198.334,174.549],[198.326,174.646],[198.314,174.755],[198.298,174.876],[198.278,175.007],[198.254,175.147],[198.225,175.295],[198.191,175.451],[198.105,175.782],[198.092,175.826],[197.981,176.175],[197.842,176.536],[197.673,176.901],[197.576,177.083],[197.55,177.128],[197.444,177.308],[197.329,177.486],[197.204,177.661],[197.069,177.832],[197.03,177.881],[196.885,178.047],[196.731,178.207],[196.677,178.262],[196.517,178.414],[196.449,178.473],[196.282,178.617],[196.201,178.682],[196.029,178.817],[195.935,178.886],[195.759,179.013],[195.652,179.087],[195.473,179.205],[195.353,179.284],[195.221,179.366],[195.04,179.476],[194.912,179.553],[194.775,179.634],[194.628,179.717],[194.472,179.804],[194.293,179.904],[194.129,179.994],[193.957,180.086],[193.777,180.182],[193.589,180.28],[193.393,180.38],[193.018,180.571],[192.808,180.677],[192.592,180.785],[192.369,180.895],[192.14,181.007],[191.905,181.121],[191.665,181.237],[191.167,181.474],[190.648,181.718],[190.486,181.794],[189.952,182.043],[189.402,182.297],[188.839,182.555],[188.263,182.817],[187.677,183.08],[187.084,183.346],[186.219,183.73],[185.348,184.114],[184.476,184.495],[183.481,184.929],[182.877,185.19],[182.279,185.448],[181.695,185.699],[181.121,185.945],[180.561,186.184],[180.018,186.415],[179.493,186.638],[179.238,186.745],[178.988,186.851],[178.745,186.954],[178.507,187.054],[178.275,187.151],[178.05,187.246],[177.832,187.337],[177.62,187.426],[177.416,187.512],[177.22,187.594],[176.93,187.715],[176.793,187.772],[176.439,187.92],[176.318,187.97],[176.202,188.019],[176.092,188.064],[175.987,188.108],[175.889,188.149],[175.796,188.187],[175.709,188.223],[175.629,188.257],[175.555,188.287],[175.487,188.315],[175.426,188.341],[175.372,188.363],[175.325,188.383],[175.284,188.4],[175.251,188.413],[175.225,188.424],[175.206,188.432],[175.194,188.437],[175.118,188.467],[175.104,188.471],[175.013,188.503],[174.921,188.532],[174.871,188.547],[174.829,188.558],[174.735,188.581],[174.624,188.605],[174.546,188.618],[174.45,188.632],[174.378,188.642],[174.251,188.652],[174.162,188.655],[174.066,188.657],[173.94,188.658],[173.866,188.658],[173.783,188.658],[173.689,188.658],[173.585,188.658],[173.468,188.658],[156.591,188.661],[156.403,188.661],[156.232,188.66],[155.934,188.657],[155.838,188.655],[155.741,188.651],[155.645,188.643],[155.55,188.632],[155.446,188.62],[155.315,188.598],[155.07,188.535],[154.946,188.492],[154.813,188.44],[154.806,188.437],[154.794,188.432],[154.775,188.424],[154.749,188.413],[154.716,188.4],[154.675,188.383],[154.628,188.363],[154.574,188.341],[154.513,188.315],[154.445,188.287],[154.371,188.257],[154.291,188.223],[154.204,188.187],[154.111,188.149],[154.013,188.108],[153.908,188.064],[153.798,188.019],[153.682,187.97],[153.561,187.92],[153.207,187.772],[153.07,187.715],[152.78,187.594],[152.584,187.512],[152.38,187.426],[152.168,187.337],[151.95,187.246],[151.725,187.151],[151.493,187.054],[151.255,186.954],[151.012,186.851],[150.762,186.745],[150.507,186.638],[149.982,186.415],[149.439,186.184],[148.879,185.945],[148.305,185.699],[147.719,185.447],[147.123,185.19],[146.519,184.929],[145.524,184.495],[144.652,184.114],[143.781,183.73],[142.916,183.346],[142.323,183.08],[141.737,182.817],[141.161,182.555],[140.598,182.297],[140.048,182.043],[139.514,181.794],[139.352,181.718],[138.833,181.474],[138.335,181.237],[138.095,181.121],[137.86,181.007],[137.631,180.895],[137.408,180.785],[137.192,180.677],[136.982,180.571],[136.607,180.38],[136.411,180.28],[136.223,180.182],[136.043,180.086],[135.871,179.994],[135.707,179.904],[135.528,179.804],[135.372,179.717],[135.225,179.634],[135.088,179.553],[134.96,179.476],[134.779,179.366],[134.647,179.284],[134.527,179.205],[134.348,179.087],[134.241,179.013],[134.065,178.886],[133.971,178.817],[133.799,178.682],[133.718,178.617],[133.551,178.473],[133.483,178.414],[133.323,178.262],[133.269,178.207],[133.115,178.047],[132.97,177.881],[132.931,177.832],[132.796,177.661],[132.671,177.486],[132.556,177.308],[132.45,177.128],[132.424,177.083],[132.327,176.901],[132.158,176.536],[132.019,176.175],[131.908,175.826],[131.895,175.782],[131.809,175.451],[131.775,175.295],[131.746,175.147],[131.722,175.007],[131.702,174.876],[131.686,174.755],[131.674,174.646],[131.666,174.549],[131.66,174.465],[131.657,174.394],[131.656,174.338],[131.656,173.284]]
EXCLUDE_OBJECT_DEFINE NAME=BDMOUINT.stl_id_1_copy_0 CENTER=165,149.96 POLYGON=[[145,142.839],[145.009,142.671],[145.011,142.658],[145.038,142.505],[145.044,142.48],[145.084,142.344],[145.097,142.307],[145.149,142.188],[145.172,142.142],[145.23,142.041],[145.266,141.987],[145.327,141.904],[145.377,141.844],[145.439,141.778],[145.505,141.716],[145.565,141.666],[145.648,141.604],[145.702,141.569],[145.803,141.511],[145.849,141.488],[145.968,141.436],[146.005,141.423],[146.141,141.383],[146.166,141.377],[146.319,141.35],[146.332,141.348],[146.5,141.339],[183.5,141.339],[183.668,141.348],[183.681,141.35],[183.834,141.377],[183.859,141.383],[183.995,141.423],[184.032,141.436],[184.151,141.488],[184.197,141.511],[184.298,141.569],[184.352,141.604],[184.435,141.666],[184.495,141.716],[184.561,141.778],[184.623,141.844],[184.673,141.904],[184.734,141.987],[184.77,142.041],[184.828,142.142],[184.851,142.188],[184.903,142.307],[184.916,142.344],[184.956,142.48],[184.962,142.505],[184.989,142.658],[184.991,142.671],[185,142.839],[185,147.139],[184.991,147.307],[184.989,147.32],[184.962,147.473],[184.956,147.498],[184.916,147.634],[184.903,147.671],[184.851,147.79],[184.828,147.836],[184.77,147.937],[184.734,147.991],[184.673,148.074],[184.623,148.134],[184.561,148.2],[178.029,154.435],[177.84,154.595],[177.637,154.739],[177.424,154.866],[177.201,154.975],[176.969,155.065],[176.709,155.153],[172.559,156.57],[168.23,158.047],[167.812,158.18],[167.389,158.294],[166.961,158.389],[166.529,158.466],[166.094,158.523],[165.657,158.562],[165.219,158.581],[164.781,158.581],[164.343,158.562],[163.906,158.523],[163.471,158.466],[163.039,158.389],[162.611,158.294],[162.188,158.18],[161.77,158.047],[155.089,155.767],[153.281,155.15],[153.031,155.065],[152.833,154.989],[152.799,154.975],[152.637,154.898],[152.576,154.866],[152.445,154.79],[152.363,154.739],[152.258,154.667],[152.16,154.595],[152.078,154.529],[151.971,154.435],[151.907,154.376],[145.439,148.2],[145.377,148.134],[145.327,148.074],[145.266,147.991],[145.23,147.937],[145.172,147.836],[145.149,147.79],[145.097,147.671],[145.084,147.634],[145.044,147.498],[145.038,147.473],[145.011,147.32],[145.009,147.307],[145,147.139],[145,142.839]]
M73 P0 R36
;TYPE:Custom
M104 S0
M140 S0
START_PRINT BED=105 HOTEND=260
G90
G21
M83 ; use relative distances for extrusion
; Filament gcode
M106 S0
;LAYER_CHANGE
;Z:0.2
;HEIGHT:0.2
;BEFORE_LAYER_CHANGE
;0.2
G92 E0

;DSLR_SNAPSHOT
TIMELAPSE_TAKE_FRAME
M204 S5000
G1 E-.4 F4200
G1 X141.111 Y136.853 F48000
G1 Z.2
G1 E.4 F4200
;TYPE:Skirt
;WIDTH:0.68
G1 F7200
G1 X141.828 Y136.278 E.04528
G1 X142.634 Y135.774 E.04683
G1 X144.222 Y135.113 E.08472
G1 X145.104 Y134.906 E.04464
G1 X146.004 Y134.799 E.04465
G1 X183.506 Y134.78 E1.84752
G1 X184.877 Y134.905 E.06785
G1 X186.547 Y135.383 E.08556
G1 X187.918 Y136.104 E.07634
G1 X189.048 Y137 E.07104
G1 X190.061 Y138.167 E.07616
G1 X190.904 Y139.671 E.08494
G1 X191.295 Y140.804 E.05903
G1 X191.535 Y142.299 E.0746
G1 X191.669 Y159.579 E.85132
G1 X191.656 Y170.26 E.5262
G1 X190.345 Y183.091 E.6354
G1 X190.114 Y184.038 E.04806
G1 X189.703 Y185.186 E.06004
G1 X188.911 Y186.697 E.08405
G1 X188.352 Y187.497 E.04806
G1 X187.329 Y188.645 E.07578
G1 X185.857 Y189.831 E.09313
G1 X178.552 Y194.094 E.41668
G1 X177.59 Y194.541 E.05224
G1 X176.581 Y194.876 E.05238
G1 X174.693 Y195.194 E.09432
G1 X155.863 Y195.215 E.92768
G1 X154.111 Y195.041 E.08673
G1 X152.668 Y194.639 E.0738
G1 X151.579 Y194.161 E.05858
G1 X144.344 Y189.978 E.41173
G1 X143.556 Y189.427 E.0474
G1 X142.439 Y188.436 E.07356
G1 X141.638 Y187.515 E.06013
G1 X140.834 Y186.314 E.07121
G1 X140.024 Y184.542 E.096
G1 X139.558 Y182.684 E.09434
G1 X138.353 Y173.45 E.45877
G1 X138.331 Y159.58 E.68332
G1 X138.458 Y142.347 E.849
G1 X138.567 Y141.456 E.04424
G1 X138.836 Y140.359 E.05564
G1 X139.436 Y138.969 E.0746
G1 X139.923 Y138.188 E.04533
G1 X141.051 Y136.92 E.08364
; printing object fan duct lower Goliath long.stl id:0 copy 0
EXCLUDE_OBJECT_START NAME=fan_duct_lower_Goliath_long.stl_id_0_copy_0
G1 E-.4 F4200
G1 X154.535 Y169.87 F48000
G1 E.4 F4200
;TYPE:Support
G1 F7200
G1 X151.428 Y169.87 E.15307
G1 X151.428 Y172.977 E.15307
G1 X141.287 Y172.977 E.4996
G1 X141.287 Y159.729 E.65267
G1 X144.394 Y159.729 E.15307
G1 X144.394 Y156.622 E.15307
G1 X154.535 Y156.622 E.4996
G1 X154.535 Y169.775 E.64796
G1 X153.962 Y169.297 F48000
G1 F7200
G1 X150.855 Y169.297 E.15307
G1 X150.855 Y172.404 E.15307
G1 X141.86 Y172.404 E.44311
G1 X141.86 Y160.303 E.59618
G1 X144.967 Y160.303 E.15307
G1 X144.967 Y157.196 E.15307
G1 X153.962 Y157.196 E.44311
G1 X153.962 Y169.297 E.59618
G1 X153.254 Y168.589 F48000
G1 F7200
G1 X150.147 Y168.589 E.15307
G1 X150.147 Y171.696 E.15307
G1 X142.568 Y171.696 E.37336
G1 X142.568 Y161.011 E.52643
G1 X145.675 Y161.011 E.15307
G1 X145.675 Y157.903 E.15307
G1 X153.254 Y157.903 E.37336
G1 X153.254 Y168.589 E.52643
G1 X152.546 Y167.881 F48000
G1 F7200
G1 X149.439 Y167.881 E.15307
G1 X149.439 Y170.988 E.15307
G1 X143.276 Y170.988 E.30361
G1 X143.276 Y161.718 E.45669
G1 X146.383 Y161.718 E.15307
G1 X146.383 Y158.611 E.15307
G1 X152.546 Y158.611 E.30361
G1 X152.546 Y167.881 E.45669
G1 X151.838 Y167.173 F48000
G1 F7200
G1 X148.731 Y167.173 E.15307
G1 X148.731 Y170.28 E.15307
G1 X143.984 Y170.28 E.23387
G1 X143.984 Y162.426 E.38694
G1 X147.091 Y162.426 E.15307
G1 X147.091 Y159.319 E.15307
G1 X151.838 Y159.319 E.23387
G1 X151.838 Y167.173 E.38694
G1 X151.13 Y166.465 F48000
G1 F7200
G1 X148.023 Y166.465 E.15307
G1 X148.023 Y169.573 E.15307
G1 X144.692 Y169.573 E.16412
G1 X144.692 Y163.134 E.31719
G1 X147.799 Y163.134 E.15307
G1 X147.799 Y160.027 E.15307
G1 X151.13 Y160.027 E.16412
G1 X151.13 Y166.465 E.31719
G1 X150.422 Y165.758 F48000
G1 F7200
G1 X147.315 Y165.758 E.15307
G1 X147.315 Y168.865 E.15307
G1 X145.4 Y168.865 E.09438
G1 X145.4 Y163.842 E.24745
G1 X148.507 Y163.842 E.15307
G1 X148.507 Y160.735 E.15307
G1 X150.422 Y160.735 E.09438
G1 X150.422 Y165.758 E.24745
G1 E-.4 F4200
G1 X174.235 Y178.433 F48000
G1 E.4 F4200
G1 F7200
G3 X175.699 Y180.066 I-.19 J1.643 E.11814
G1 X175.699 Y185.65 E.27507
G3 X174.054 Y187.293 I-1.66 J-.017 E.12691
G1 X155.944 Y187.293 E.89215
G3 X154.302 Y185.678 I-.003 J-1.64 E.12583
G1 X154.301 Y180.068 E.27637
G3 X155.946 Y178.423 I1.642 J-.003 E.12735
G1 X174.139 Y178.428 E.8963
G1 X174.036 Y178.996 F48000
G1 F7200
G3 X175.125 Y180.079 I.022 J1.067 E.08444
G1 X175.125 Y185.636 E.27381
G3 X174.038 Y186.72 I-1.081 J.002 E.08407
G1 X155.957 Y186.72 E.89076
G3 X154.875 Y185.661 I-.015 J-1.066 E.0829
G1 X154.875 Y180.084 E.27477
G3 X155.961 Y178.996 I1.069 J-.018 E.08449
G1 X174.036 Y178.996 E.89046
G1 X174.018 Y179.704 F48000
G1 F7200
G3 X174.417 Y180.094 I.036 J.363 E.03132
G1 X174.417 Y185.62 E.27226
G3 X174.019 Y186.012 I-.378 J.014 E.03097
G1 X155.973 Y186.012 E.88904
G3 X155.583 Y185.64 I-.029 J-.359 E.02993
G1 X155.583 Y180.103 E.2728
G3 X155.98 Y179.704 I.364 J-.034 E.03164
G1 X174.018 Y179.704 E.88864
G1 X173.71 Y180.412 F48000
G1 F7200
G1 X173.71 Y185.304 E.241
G1 X156.291 Y185.304 E.85813
G1 X156.291 Y180.412 E.241
G1 X173.71 Y180.412 E.85815
G1 X173.002 Y181.12 F48000
G1 F7200
G1 X173.002 Y184.596 E.17125
G1 X156.999 Y184.596 E.78838
G1 X156.998 Y181.12 E.17125
G1 X173.002 Y181.12 E.7884
G1 X172.294 Y181.828 F48000
G1 F7200
G1 X172.294 Y183.888 E.1015
G1 X157.707 Y183.888 E.71864
G1 X157.706 Y181.828 E.1015
G1 X172.294 Y181.828 E.71865
G1 X171.586 Y182.536 F48000
G1 F7200
G1 X171.586 Y183.18 E.03176
G1 X158.414 Y183.18 E.6489
G1 X158.414 Y182.536 E.03176
G1 X171.586 Y182.536 E.6489
G1 E-.4 F4200
G1 X185.606 Y159.729 F48000
G1 E.4 F4200
G1 F7200
G1 X188.713 Y159.729 E.15307
G1 X188.713 Y169.87 E.4996
G1 X175.465 Y169.87 E.65267
G1 X175.465 Y156.622 E.65267
G1 X185.606 Y156.622 E.4996
G1 X185.606 Y159.634 E.14836
G1 X176.038 Y169.297 F48000
G1 F7200
G1 X176.038 Y157.196 E.59618
G1 X185.033 Y157.196 E.44311
G1 X185.033 Y160.303 E.15307
G1 X188.14 Y160.303 E.15307
G1 X188.14 Y169.297 E.44311
G1 X176.038 Y169.297 E.59618
G1 X176.746 Y168.589 F48000
G1 F7200
G1 X176.746 Y157.903 E.52643
G1 X184.325 Y157.903 E.37336
G1 X184.325 Y161.011 E.15307
G1 X187.432 Y161.011 E.15307
G1 X187.432 Y168.589 E.37336
G1 X176.746 Y168.589 E.52643
G1 X177.454 Y167.881 F48000
G1 F7200
G1 X177.454 Y158.611 E.45669
G1 X183.617 Y158.611 E.30361
G1 X183.617 Y161.718 E.15307
G1 X186.724 Y161.718 E.15307
G1 X186.724 Y167.881 E.30361
G1 X177.454 Y167.881 E.45669
G1 X178.162 Y167.173 F48000
G1 F7200
G1 X178.162 Y159.319 E.38694
G1 X182.909 Y159.319 E.23387
G1 X182.909 Y162.426 E.15307
G1 X186.016 Y162.426 E.15307
G1 X186.016 Y167.173 E.23387
G1 X178.162 Y167.173 E.38694
G1 X178.87 Y166.465 F48000
G1 F7200
G1 X178.87 Y160.027 E.31719
G1 X182.201 Y160.027 E.16412
G1 X182.201 Y163.134 E.15307
G1 X185.308 Y163.134 E.15307
G1 X185.308 Y166.465 E.16412
G1 X178.87 Y166.465 E.31719
G1 X179.578 Y165.758 F48000
G1 F7200
G1 X179.578 Y160.735 E.24745
G1 X181.493 Y160.735 E.09438
G1 X181.493 Y163.842 E.15307
G1 X184.6 Y163.842 E.15307
G1 X184.6 Y165.758 E.09438
G1 X179.578 Y165.758 E.24745
G1 E-.4 F4200
G1 X179.578 Y173.455 F48000
G1 E.4 F4200
;TYPE:Brim
G1 F7200
G1 X179.981 Y173.455 E.01987
G1 X180.855 Y173.507 E.04313
G1 X181.547 Y173.619 E.03454
G1 X182.226 Y173.794 E.03457
G1 X182.878 Y174.028 E.03412
G1 X183.212 Y174.175 E.01796
G1 X183.845 Y174.509 E.03528
G1 X184.127 Y174.683 E.01633
G1 X184.701 Y175.095 E.0348
G1 X185.231 Y175.555 E.03461
G1 X185.719 Y176.065 E.03478
G1 X185.947 Y176.34 E.01756
G1 X186.359 Y176.913 E.03478
G1 X186.717 Y177.522 E.03479
G1 X186.864 Y177.819 E.01633
G1 X187.135 Y178.471 E.0348
G1 X187.343 Y179.142 E.0346
G1 X187.49 Y179.833 E.03478
G1 X187.539 Y180.186 E.01756
G1 X187.587 Y180.89 E.03479
G1 X187.571 Y181.584 E.03421
G1 X187.541 Y181.911 E.01615
G1 X187.429 Y182.608 E.03479
G1 X187.255 Y183.289 E.03461
G1 X187.018 Y183.95 E.0346
G1 X186.721 Y184.586 E.03461
