; HEADER_BLOCK_START
; generated by OrcaSlicer 1.8.1 on 2024-01-12 at 16:02:51
; total layer number: 12
; HEADER_BLOCK_END

; THUMBNAIL_BLOCK_START

;
; THUMBNAIL_BLOCK_END

; external perimeters extrusion width = 0.52mm
; perimeters extrusion width = 0.52mm
; infill extrusion width = 0.55mm
; solid infill extrusion width = 0.55mm
; top infill extrusion width = 0.55mm
; first layer extrusion width = 0.58mm

; external perimeters extrusion width = 0.52mm
; perimeters extrusion width = 0.52mm
; infill extrusion width = 0.55mm
; solid infill extrusion width = 0.55mm
; top infill extrusion width = 0.55mm
; first layer extrusion width = 0.58mm

; EXECUTABLE_BLOCK_START
EXCLUDE_OBJECT_DEFINE NAME=FCM_Card_Stand_Right_-_Lower.stl_id_0_copy_0 CENTER=171.198,202.711 POLYGON=[[64.6981,141.111],[64.6996,141.017],[64.704,140.923],[64.7114,140.829],[64.7218,140.735],[64.735,140.642],[64.7513,140.549],[64.7704,140.457],[64.7924,140.365],[64.8172,140.274],[64.8449,140.184],[64.8755,140.095],[64.9088,140.007],[64.9449,139.92],[64.9836,139.834],[65.0251,139.749],[65.0692,139.666],[65.1159,139.584],[65.1651,139.504],[65.2169,139.425],[65.2711,139.348],[65.3276,139.273],[65.3866,139.199],[65.4478,139.128],[65.5112,139.058],[65.5768,138.99],[65.6445,138.925],[65.7142,138.861],[65.7858,138.8],[65.8594,138.741],[65.9348,138.684],[66.0119,138.63],[66.0906,138.578],[66.171,138.529],[66.2529,138.483],[66.3361,138.438],[66.4208,138.397],[66.5067,138.358],[66.5937,138.322],[66.6819,138.289],[66.7711,138.258],[66.8611,138.231],[66.952,138.206],[67.0437,138.184],[67.136,138.165],[67.2288,138.148],[67.3221,138.135],[67.4158,138.125],[67.5097,138.117],[67.6039,138.113],[67.6981,138.111],[274.698,138.111],[274.792,138.113],[274.886,138.117],[274.98,138.125],[275.074,138.135],[275.167,138.148],[275.26,138.165],[275.353,138.184],[275.444,138.206],[275.535,138.231],[275.625,138.258],[275.714,138.289],[275.802,138.322],[275.89,138.358],[275.975,138.397],[276.06,138.438],[276.143,138.483],[276.225,138.529],[276.306,138.578],[276.384,138.63],[276.461,138.684],[276.537,138.741],[276.61,138.8],[276.682,138.861],[276.752,138.925],[276.819,138.99],[276.885,139.058],[276.948,139.128],[277.01,139.199],[277.069,139.273],[277.125,139.348],[277.179,139.425],[277.231,139.504],[277.28,139.584],[277.327,139.666],[277.371,139.749],[277.413,139.834],[277.451,139.92],[277.487,140.007],[277.521,140.095],[277.551,140.184],[277.579,140.274],[277.604,140.365],[277.626,140.457],[277.645,140.549],[277.661,140.642],[277.674,140.735],[277.685,140.829],[277.692,140.923],[277.697,141.017],[277.698,141.111],[277.698,264.311],[277.697,264.406],[277.692,264.5],[277.685,264.594],[277.674,264.687],[277.661,264.781],[277.645,264.874],[277.626,264.966],[277.604,265.058],[277.579,265.148],[277.551,265.239],[277.521,265.328],[277.487,265.416],[277.451,265.503],[277.413,265.589],[277.371,265.673],[277.327,265.757],[277.28,265.839],[277.231,265.919],[277.179,265.998],[277.125,266.075],[277.069,266.15],[277.01,266.224],[276.948,266.295],[276.885,266.365],[276.819,266.433],[276.752,266.498],[276.682,266.562],[276.61,266.623],[276.537,266.682],[276.461,266.739],[276.384,266.793],[276.306,266.844],[276.225,266.894],[276.143,266.94],[276.06,266.984],[275.975,267.026],[275.89,267.065],[275.802,267.101],[275.714,267.134],[275.625,267.165],[275.535,267.192],[275.444,267.217],[275.353,267.239],[275.26,267.258],[275.167,267.275],[275.074,267.288],[274.98,267.298],[274.886,267.306],[274.792,267.31],[274.698,267.311],[67.6981,267.311],[67.6039,267.31],[67.5097,267.306],[67.4158,267.298],[67.3221,267.288],[67.2288,267.275],[67.136,267.258],[67.0437,267.239],[66.952,267.217],[66.8611,267.192],[66.7711,267.165],[66.6819,267.134],[66.5937,267.101],[66.5067,267.065],[66.4208,267.026],[66.3361,266.984],[66.2529,266.94],[66.171,266.894],[66.0906,266.844],[66.0119,266.793],[65.9348,266.739],[65.8594,266.682],[65.7858,266.623],[65.7142,266.562],[65.6445,266.498],[65.5768,266.433],[65.5112,266.365],[65.4478,266.295],[65.3866,266.224],[65.3276,266.15],[65.2711,266.075],[65.2169,265.998],[65.1651,265.919],[65.1159,265.839],[65.0692,265.757],[65.0251,265.673],[64.9836,265.589],[64.9449,265.503],[64.9088,265.416],[64.8755,265.328],[64.8449,265.239],[64.8172,265.148],[64.7924,265.058],[64.7704,264.966],[64.7513,264.874],[64.735,264.781],[64.7218,264.687],[64.7114,264.594],[64.704,264.5],[64.6996,264.406],[64.6981,264.311],[64.6981,141.111]]
EXCLUDE_OBJECT_DEFINE NAME=FCM_Card_Stand_Left_-_Lower.stl_id_1_copy_0 CENTER=171.198,72.5115 POLYGON=[[64.6981,10.9115],[64.6996,10.8172],[64.704,10.7231],[64.7114,10.6291],[64.7218,10.5355],[64.735,10.4422],[64.7513,10.3493],[64.7704,10.257],[64.7924,10.1654],[64.8172,10.0745],[64.8449,9.98442],[64.8755,9.89525],[64.9088,9.80709],[64.9448,9.72003],[64.9836,9.63413],[65.0251,9.54949],[65.0692,9.4662],[65.1159,9.38434],[65.1651,9.30399],[65.2169,9.22522],[65.2711,9.14811],[65.3276,9.07274],[65.3866,8.99919],[65.4478,8.92754],[65.5112,8.85782],[65.5768,8.79015],[65.6445,8.72457],[65.7142,8.66113],[65.7858,8.59993],[65.8594,8.541],[65.9348,8.48442],[66.0119,8.43022],[66.0906,8.37848],[66.171,8.32924],[66.2529,8.28255],[66.3361,8.23845],[66.4208,8.19699],[66.5067,8.1582],[66.5937,8.12213],[66.6819,8.08882],[66.7711,8.0583],[66.8611,8.03058],[66.952,8.00572],[67.0437,7.98372],[67.136,7.9646],[67.2288,7.9484],[67.3221,7.93512],[67.4158,7.92478],[67.5097,7.91739],[67.6039,7.91295],[67.6981,7.91147],[274.698,7.91147],[274.792,7.91295],[274.886,7.91739],[274.98,7.92478],[275.074,7.93512],[275.167,7.9484],[275.26,7.9646],[275.353,7.98372],[275.444,8.00572],[275.535,8.03058],[275.625,8.0583],[275.714,8.08882],[275.802,8.12213],[275.89,8.1582],[275.975,8.19699],[276.06,8.23845],[276.143,8.28255],[276.225,8.32924],[276.306,8.37848],[276.384,8.43022],[276.461,8.48442],[276.537,8.541],[276.61,8.59993],[276.682,8.66113],[276.752,8.72457],[276.819,8.79015],[276.885,8.85782],[276.948,8.92754],[277.01,8.99919],[277.069,9.07274],[277.125,9.14811],[277.179,9.22522],[277.231,9.30399],[277.28,9.38434],[277.327,9.4662],[277.371,9.54949],[277.413,9.63413],[277.451,9.72003],[277.487,9.80709],[277.521,9.89525],[277.551,9.98442],[277.579,10.0745],[277.604,10.1654],[277.626,10.257],[277.645,10.3493],[277.661,10.4422],[277.674,10.5355],[277.685,10.6291],[277.692,10.7231],[277.697,10.8172],[277.698,10.9115],[277.698,134.111],[277.697,134.206],[277.692,134.3],[277.685,134.394],[277.674,134.487],[277.661,134.581],[277.645,134.674],[277.626,134.766],[277.604,134.858],[277.579,134.948],[277.551,135.039],[277.521,135.128],[277.487,135.216],[277.451,135.303],[277.413,135.389],[277.371,135.473],[277.327,135.557],[277.28,135.639],[277.231,135.719],[277.179,135.798],[277.125,135.875],[277.069,135.95],[277.01,136.024],[276.948,136.095],[276.885,136.165],[276.819,136.233],[276.752,136.298],[276.682,136.362],[276.61,136.423],[276.537,136.482],[276.461,136.539],[276.384,136.593],[276.306,136.644],[276.225,136.694],[276.143,136.74],[276.06,136.784],[275.975,136.826],[275.89,136.865],[275.802,136.901],[275.714,136.934],[275.625,136.965],[275.535,136.992],[275.444,137.017],[275.353,137.039],[275.26,137.058],[275.167,137.075],[275.074,137.088],[274.98,137.098],[274.886,137.106],[274.792,137.11],[274.698,137.111],[67.6981,137.111],[67.6039,137.11],[67.5097,137.106],[67.4158,137.098],[67.3221,137.088],[67.2288,137.075],[67.136,137.058],[67.0437,137.039],[66.952,137.017],[66.8611,136.992],[66.7711,136.965],[66.6819,136.934],[66.5937,136.901],[66.5067,136.865],[66.4208,136.826],[66.3361,136.784],[66.2529,136.74],[66.171,136.694],[66.0906,136.644],[66.0119,136.593],[65.9348,136.539],[65.8594,136.482],[65.7858,136.423],[65.7142,136.362],[65.6445,136.298],[65.5768,136.233],[65.5112,136.165],[65.4478,136.095],[65.3866,136.024],[65.3276,135.95],[65.2711,135.875],[65.2169,135.798],[65.1651,135.719],[65.1159,135.639],[65.0692,135.557],[65.0251,135.473],[64.9836,135.389],[64.9448,135.303],[64.9088,135.216],[64.8755,135.128],[64.8449,135.039],[64.8172,134.948],[64.7924,134.858],[64.7704,134.766],[64.7513,134.674],[64.735,134.581],[64.7218,134.487],[64.7114,134.394],[64.704,134.3],[64.6996,134.206],[64.6981,134.111],[64.6981,10.9115]]
M73 P0 R83
;TYPE:Custom
M190 S75
M109 S220
START_PRINT HOTEND=220 BED=75
G90
G21
M83 ; use relative distances for extrusion
; filament start gcode
SET_PRESSURE_ADVANCE ADVANCE=0.05; Override pressure advance value
M106 S0
;LAYER_CHANGE
;Z:0.2
;HEIGHT:0.2
;BEFORE_LAYER_CHANGE
;0.2
G92 E0

G1 E-.5 F1800
;DSLR_SNAPSHOT
TIMELAPSE_TAKE_FRAME
;_SET_FAN_SPEED_CHANGING_LAYER
SET_VELOCITY_LIMIT ACCEL=10000 ACCEL_TO_DECEL=5000
SET_VELOCITY_LIMIT SQUARE_CORNER_VELOCITY=10
G1 X60.655 Y9.693 F48000
G1 Z.2
G1 E.5 F4800
;TYPE:Skirt
;WIDTH:0.58
G1 F3000
G1 X60.93 Y8.613 E.04975
G1 X61.481 Y7.386 E.06007
G1 X62.131 Y6.428 E.05171
G1 X63.215 Y5.345 E.06844
G1 X64.57 Y4.485 E.07165
G1 X66.012 Y3.966 E.06847
G1 X67.633 Y3.764 E.07294
G1 X274.789 Y3.765 E9.25123
G1 X276.194 Y3.922 E.06316
G1 X277.597 Y4.377 E.06586
G1 X278.822 Y5.073 E.06292
G1 X279.798 Y5.903 E.05723
G1 X280.682 Y7.002 E.06298
G1 X281.308 Y8.193 E.06007
G1 X281.693 Y9.444 E.05846
G1 X281.844 Y10.782 E.06015
G1 X281.846 Y264.311 E11.32219
G1 X281.742 Y265.522 E.05428
G1 X281.446 Y266.671 E.05298
G1 X280.916 Y267.837 E.05719
G1 X280.265 Y268.794 E.0517
G1 X279.181 Y269.878 E.06846
G1 X277.826 Y270.738 E.07164
G1 X276.384 Y271.257 E.06845
G1 X275.659 Y271.395 E.03298
G1 X274.698 Y271.46 E.04299
G1 X67.698 Y271.46 E9.24428
G1 X66.487 Y271.356 E.05428
G1 X65.366 Y271.068 E.0517
G1 X64.141 Y270.511 E.06007
G1 X63.243 Y269.901 E.04848
G1 X62.131 Y268.794 E.07005
G1 X61.272 Y267.44 E.07165
G1 X60.929 Y266.606 E.04026
G1 X60.708 Y265.807 E.03701
G1 X60.55 Y264.311 E.06717
G1 X60.55 Y10.911 E11.31643
G1 X60.65 Y9.753 E.05194
G1 X61.184 Y9.799 F48000
G1 F3000
G1 X61.186 Y9.777 E.00098
G1 X61.441 Y8.779 E.04601
G1 X61.951 Y7.645 E.05556
G1 X62.545 Y6.771 E.0472
G1 X63.558 Y5.758 E.06393
G1 X64.798 Y4.971 E.06563
G1 X66.146 Y4.486 E.06395
G1 X67.641 Y4.301 E.0673
G1 X274.789 Y4.302 E9.25085
G1 X276.085 Y4.448 E.05827
G1 X277.376 Y4.867 E.0606
G1 X278.506 Y5.508 E.05804
G1 X279.413 Y6.277 E.05308
G1 X280.228 Y7.29 E.05809
G1 X280.809 Y8.391 E.05556
G1 X281.169 Y9.561 E.0547
G1 X281.308 Y10.799 E.05563
G1 X281.309 Y264.311 E11.32144
G1 X281.212 Y265.438 E.05052
G1 X280.937 Y266.497 E.04884
G1 X280.445 Y267.578 E.05305
G1 X279.851 Y268.452 E.04719
G1 X278.839 Y269.465 E.06394
G1 X277.598 Y270.252 E.06563
G1 X276.251 Y270.737 E.06394
G1 X274.698 Y270.923 E.06983
G1 X67.698 Y270.923 E9.24428
G1 X66.571 Y270.825 E.05052
G1 X65.548 Y270.562 E.04718
G1 X64.415 Y270.049 E.05556
G1 X63.572 Y269.476 E.04547
G1 X62.545 Y268.452 E.06479
G1 X61.758 Y267.211 E.06564
G1 X61.234 Y265.698 E.07149
G1 X61.087 Y264.311 E.06228
G1 X61.087 Y10.911 E11.31643
M73 P0 R82
G1 X61.179 Y9.859 E.04718
G1 X61.712 Y9.906 F48000
G1 F3000
G1 X61.716 Y9.862 E.00197
G1 X61.952 Y8.945 E.04227
G1 X62.422 Y7.903 E.05105
G1 X62.959 Y7.113 E.04268
G1 X63.9 Y6.172 E.05942
G1 X65.027 Y5.457 E.05962
G1 X66.279 Y5.006 E.05944
G1 X67.65 Y4.838 E.06166
G1 X274.789 Y4.839 E9.25048
G1 X275.976 Y4.973 E.05338
G1 X277.155 Y5.356 E.05533
G1 X278.191 Y5.943 E.05316
G1 X279.027 Y6.651 E.04894
G1 X279.775 Y7.578 E.0532
G1 X280.31 Y8.588 E.05105
G1 X280.645 Y9.678 E.05094
G1 X280.771 Y10.816 E.05111
G1 X280.772 Y264.311 E11.32069
G1 X280.681 Y265.354 E.04676
G1 X280.429 Y266.323 E.04471
G1 X279.974 Y267.319 E.04891
G1 X279.437 Y268.11 E.04267
G1 X278.496 Y269.051 E.05943
G1 X277.369 Y269.766 E.05962
G1 X276.117 Y270.217 E.05942
G1 X274.698 Y270.386 E.06382
G1 X67.698 Y270.386 E9.24428
M73 P1 R82
G1 X66.655 Y270.295 E.04676
G1 X65.73 Y270.057 E.04267
G1 X64.688 Y269.586 E.05105
G1 X63.902 Y269.052 E.04246
G1 X62.959 Y268.11 E.05952
G1 X62.244 Y266.982 E.05963
G1 X61.793 Y265.73 E.05947
G1 X61.624 Y264.311 E.06377
G1 X61.624 Y10.911 E11.31643
G1 X61.707 Y9.966 E.0424
G1 X62.241 Y10.013 F48000
G1 F3000
G1 X62.247 Y9.946 E.00298
G1 X62.463 Y9.111 E.03853
G1 X62.893 Y8.162 E.04653
G1 X63.373 Y7.455 E.03816
G1 X64.242 Y6.586 E.0549
G1 X65.256 Y5.943 E.05361
G1 X66.413 Y5.526 E.05492
G1 X67.658 Y5.375 E.05603
G1 X274.789 Y5.376 E9.2501
G1 X275.867 Y5.499 E.04848
G1 X276.934 Y5.846 E.05007
G1 X277.875 Y6.377 E.04828
G1 X278.641 Y7.024 E.04479
G1 X279.321 Y7.866 E.04831
G1 X279.81 Y8.786 E.04653
G1 X280.121 Y9.796 E.04718
G1 X280.234 Y10.833 E.04658
G1 X280.235 Y264.311 E11.31995
G1 X280.151 Y265.27 E.04299
G1 X279.921 Y266.149 E.04057
G1 X279.504 Y267.061 E.04477
G1 X279.023 Y267.767 E.03816
G1 X278.154 Y268.637 E.05491
G1 X277.14 Y269.28 E.05361
G1 X275.984 Y269.697 E.05491
G1 X274.698 Y269.849 E.0578
G1 X67.698 Y269.849 E9.24428
G1 X66.739 Y269.764 E.04299
G1 X65.912 Y269.552 E.03815
G1 X64.961 Y269.124 E.04653
G1 X64.231 Y268.628 E.03945
G1 X63.373 Y267.767 E.05426
G1 X62.73 Y266.754 E.05362
G1 X62.313 Y265.596 E.05495
G1 X62.161 Y264.311 E.05777
G1 X62.161 Y10.911 E11.31643
G1 X62.235 Y10.073 E.0376
; printing object FCM Card Stand Left - Lower.stl id:1 copy 0
G1 E-.35 F1800
;WIPE_START
G1 F3000
G1 X62.247 Y9.946 E-.01901
G1 X62.463 Y9.111 E-.1294
G1 X62.467 Y9.102 E-.00159
;WIPE_END
EXCLUDE_OBJECT_START NAME=FCM_Card_Stand_Left_-_Lower.stl_id_1_copy_0
G1 X275.644 Y135.328 F48000
G1 E.5 F4800
;TYPE:Inner wall
;WIDTH:0.545356
G1 F7200
G1 X275.697 Y135.155 E.00756
G1 X275.72 Y134.655 E.0209
;WIDTH:0.559802
G1 X275.727 Y73.515 E2.62774
;WIDTH:0.579999
G1 X275.579 Y72.883 E.02898
G1 X275.2 Y72.441 E.02602
G1 X274.771 Y72.226 E.02145
G1 X274.395 Y72.172 E.01696
G1 X271.519 Y72.172 E.12842
G1 X271.634 Y72.024 E.00837
G1 X271.737 Y71.508 E.02352
G1 X271.737 Y10.115 E2.7417
G1 X271.634 Y9.599 E.02352
G1 X271.465 Y9.381 E.0123
G1 X274.609 Y9.381 E.14042
G1 X274.959 Y9.416 E.01569
G1 X275.444 Y9.577 E.02283
G1 X275.768 Y9.827 E.01827
G1 X276.038 Y10.173 E.01963
G1 X276.185 Y10.58 E.01932
G1 X276.234 Y11.006 E.01914
G1 X276.244 Y73.515 E2.79154
;WIDTH:0.559802
G1 X276.244 Y134.035 E2.60107
G1 X276.221 Y134.365 E.01425
;WIDTH:0.545356
G3 X275.984 Y134.969 I-1.58 J-.272 E.0273
G1 X275.652 Y135.319 E.02015
G1 E-.35 F1800
;WIPE_START
G1 F7200
G1 X275.697 Y135.155 E-.02555
G1 X275.72 Y134.655 E-.07505
G1 X275.72 Y134.326 E-.0494
;WIPE_END
G1 X263.133 Y72.511 F48000
G1 E.5 F4800
;WIDTH:0.579999
G1 F7200
G1 X262.903 Y72.743 E.0146
G1 X262.709 Y73.152 E.02019
G1 X262.659 Y73.515 E.01637
G1 X262.659 Y134.908 E2.7417
G1 X262.762 Y135.424 E.02352
G1 X262.936 Y135.647 E.01261
G1 X251.461 Y135.647 E.51246
G1 X251.634 Y135.424 E.01261
G1 X251.737 Y134.908 E.02352
G1 X251.737 Y119.515 E.68742
G1 X251.661 Y119.068 E.02027
G1 X251.455 Y118.691 E.01917
G1 X251.175 Y118.423 E.0173
G1 X250.78 Y118.229 E.01967
G1 X250.395 Y118.172 E.0174
G1 X246.002 Y118.172 E.19618
G1 X245.485 Y118.276 E.02352
G1 X245.337 Y118.391 E.00837
G1 X245.336 Y73.448 E2.00707
G1 X245.247 Y73.031 E.01904
G1 X245.02 Y72.648 E.01987
G1 X244.739 Y72.397 E.01681
G1 X244.46 Y72.255 E.01398
G1 X243.999 Y72.172 E.0209
G1 X243.12 Y72.172 E.03928
G1 X243.232 Y72.028 E.00816
G1 X243.337 Y71.513 E.0235
G1 X243.337 Y10.115 E2.74192
G1 X243.216 Y9.558 E.02546
G1 X243.07 Y9.381 E.01025
G1 X244.926 Y9.381 E.08285
G1 X244.78 Y9.558 E.01025
G1 X244.659 Y10.115 E.02546
G1 X244.659 Y25.508 E.68742
G2 X244.762 Y26.024 I1.343 J0 E.02367
G1 X245.029 Y26.434 E.02184
G1 X245.37 Y26.693 E.0191
G1 X245.707 Y26.818 E.01606
G1 X246.002 Y26.851 E.01324
G1 X250.395 Y26.851 E.19618
G1 X250.511 Y26.846 E.00521
G1 X250.914 Y26.746 E.01854
G1 X251.228 Y26.56 E.0163
G1 X251.513 Y26.252 E.01874
G1 X251.699 Y25.828 E.02066
G1 X251.737 Y25.508 E.01439
G1 X251.737 Y10.115 E.68742
G1 X251.634 Y9.599 E.02352
G1 X251.465 Y9.381 E.01232
G1 X262.931 Y9.381 E.51209
G1 X262.762 Y9.599 E.01231
G1 X262.659 Y10.115 E.02352
G1 X262.659 Y71.508 E2.7417
G1 X262.709 Y71.871 E.01637
G1 X262.903 Y72.28 E.02019
G1 X263.125 Y72.503 E.01406
G1 E-.35 F1800
;WIPE_START
G1 F7200
G1 X262.903 Y72.743 E-.04908
G1 X262.709 Y73.152 E-.06783
G1 X262.679 Y73.37 E-.03309
;WIPE_END
G1 X250.545 Y26.291 F48000
G1 E.5 F4800
G1 F7200
