; HEADER_BLOCK_START
; generated by OrcaSlicer 1.6.3 on 2024-01-13 at 12:59:52
; total layer number: 35
; HEADER_BLOCK_END

; THUMBNAIL_BLOCK_START
; THUMBNAIL_BLOCK_END

; external perimeters extrusion width = 0.52mm
; perimeters extrusion width = 0.52mm
; infill extrusion width = 0.55mm
; solid infill extrusion width = 0.55mm
; top infill extrusion width = 0.55mm
; first layer extrusion width = 0.58mm

; EXECUTABLE_BLOCK_START
EXCLUDE_OBJECT_DEFINE NAME=FCM_Player_Tokens,_Round_Tracker,_Board_Stand_Holder.stl_id_0_copy_0 CENTER=170,170 POLYGON=[[63.5,122.2],[63.5015,122.106],[63.5059,122.012],[63.5133,121.918],[63.5237,121.824],[63.5369,121.731],[63.5531,121.638],[63.5723,121.546],[63.5943,121.454],[63.6191,121.363],[63.6468,121.273],[63.6774,121.184],[63.7107,121.096],[63.7467,121.009],[63.7855,120.923],[63.827,120.838],[63.8711,120.755],[63.9178,120.673],[63.967,120.593],[64.0188,120.514],[64.073,120.437],[64.1295,120.361],[64.1885,120.288],[64.2497,120.216],[64.3131,120.146],[64.3787,120.079],[64.4464,120.013],[64.5161,119.95],[64.5877,119.888],[64.6613,119.83],[64.7366,119.773],[64.8138,119.719],[64.8925,119.667],[64.9729,119.618],[65.0547,119.571],[65.138,119.527],[65.2227,119.486],[65.3086,119.447],[65.3956,119.411],[65.4838,119.377],[65.573,119.347],[65.663,119.319],[65.7539,119.294],[65.8456,119.272],[65.9379,119.253],[66.0307,119.237],[66.124,119.224],[66.2177,119.213],[66.3116,119.206],[66.4058,119.201],[66.5,119.2],[273.5,119.2],[273.594,119.201],[273.688,119.206],[273.782,119.213],[273.876,119.224],[273.969,119.237],[274.062,119.253],[274.154,119.272],[274.246,119.294],[274.337,119.319],[274.427,119.347],[274.516,119.377],[274.604,119.411],[274.691,119.447],[274.777,119.486],[274.862,119.527],[274.945,119.571],[275.027,119.618],[275.107,119.667],[275.186,119.719],[275.263,119.773],[275.339,119.83],[275.412,119.888],[275.484,119.95],[275.554,120.013],[275.621,120.079],[275.687,120.146],[275.75,120.216],[275.812,120.288],[275.87,120.361],[275.927,120.437],[275.981,120.514],[276.033,120.593],[276.082,120.673],[276.129,120.755],[276.173,120.838],[276.214,120.923],[276.253,121.009],[276.289,121.096],[276.323,121.184],[276.353,121.273],[276.381,121.363],[276.406,121.454],[276.428,121.546],[276.447,121.638],[276.463,121.731],[276.476,121.824],[276.487,121.918],[276.494,122.012],[276.499,122.106],[276.5,122.2],[276.5,217.8],[276.499,217.894],[276.494,217.988],[276.487,218.082],[276.476,218.176],[276.463,218.269],[276.447,218.362],[276.428,218.454],[276.406,218.546],[276.381,218.637],[276.353,218.727],[276.323,218.816],[276.289,218.904],[276.253,218.991],[276.214,219.077],[276.173,219.162],[276.129,219.245],[276.082,219.327],[276.033,219.407],[275.981,219.486],[275.927,219.563],[275.87,219.639],[275.812,219.712],[275.75,219.784],[275.687,219.854],[275.621,219.921],[275.554,219.987],[275.484,220.05],[275.412,220.112],[275.339,220.17],[275.263,220.227],[275.186,220.281],[275.107,220.333],[275.027,220.382],[274.945,220.429],[274.862,220.473],[274.777,220.514],[274.691,220.553],[274.604,220.589],[274.516,220.623],[274.427,220.653],[274.337,220.681],[274.246,220.706],[274.154,220.728],[274.062,220.747],[273.969,220.763],[273.876,220.776],[273.782,220.787],[273.688,220.794],[273.594,220.799],[273.5,220.8],[66.5,220.8],[66.4058,220.799],[66.3116,220.794],[66.2177,220.787],[66.124,220.776],[66.0307,220.763],[65.9379,220.747],[65.8456,220.728],[65.7539,220.706],[65.663,220.681],[65.573,220.653],[65.4838,220.623],[65.3956,220.589],[65.3086,220.553],[65.2227,220.514],[65.138,220.473],[65.0547,220.429],[64.9729,220.382],[64.8925,220.333],[64.8138,220.281],[64.7366,220.227],[64.6613,220.17],[64.5877,220.112],[64.5161,220.05],[64.4464,219.987],[64.3787,219.921],[64.3131,219.854],[64.2497,219.784],[64.1885,219.712],[64.1295,219.639],[64.073,219.563],[64.0188,219.486],[63.967,219.407],[63.9178,219.327],[63.8711,219.245],[63.827,219.162],[63.7855,219.077],[63.7467,218.991],[63.7107,218.904],[63.6774,218.816],[63.6468,218.727],[63.6191,218.637],[63.5943,218.546],[63.5723,218.454],[63.5531,218.362],[63.5369,218.269],[63.5237,218.176],[63.5133,218.082],[63.5059,217.988],[63.5015,217.894],[63.5,217.8],[63.5,122.2]]
M73 P0 R36
;TYPE:Custom
M190 S75
M109 S220
START_PRINT HOTEND=220 BED=75
G90
G21
M83 ; use relative distances for extrusion
; filament start gcode
SET_PRESSURE_ADVANCE ADVANCE=0.05; Override pressure advance value
M106 S0
;LAYER_CHANGE
;Z:0.2
;HEIGHT:0.2
;BEFORE_LAYER_CHANGE
;0.2
G92 E0

G1 E-.5 F1800
;DSLR_SNAPSHOT
TIMELAPSE_TAKE_FRAME
M204 S10000
SET_VELOCITY_LIMIT SQUARE_CORNER_VELOCITY=10
G1 X63.372 Y115.773 F48000
G1 Z.2
G1 E.5 F4800
;TYPE:Skirt
;WIDTH:0.58
G1 F7200
G1 X64.85 Y115.246 E.07011
G1 X66.5 Y115.052 E.07418
G1 X273.595 Y115.053 E9.24852
G1 X274.932 Y115.197 E.06004
G1 X276.252 Y115.603 E.06168
G1 X277.439 Y116.236 E.06008
G1 X278.487 Y117.08 E.06008
G1 X279.358 Y118.105 E.06007
G1 X280.022 Y119.275 E.0601
G1 X280.454 Y120.549 E.06005
G1 X280.642 Y121.908 E.06131
G1 X280.64 Y218.119 E4.29659
G1 X280.544 Y219.011 E.04008
G1 X280.337 Y219.884 E.04008
G1 X280.022 Y220.725 E.04008
G1 X279.5 Y221.685 E.04881
G1 X278.947 Y222.428 E.04137
G1 X278.324 Y223.074 E.04008
G1 X277.409 Y223.784 E.05169
G1 X276.628 Y224.227 E.04009
G1 X275.186 Y224.746 E.06845
G1 X273.594 Y224.947 E.07165
G1 X66.5 Y224.948 E9.24849
G1 X65.475 Y224.874 E.04589
G1 X64.595 Y224.689 E.04017
G1 X63.6 Y224.333 E.04719
G1 X62.781 Y223.904 E.0413
G1 X62.045 Y223.389 E.04009
G1 X61.201 Y222.597 E.05169
G1 X60.536 Y221.739 E.04847
G1 X60.089 Y220.961 E.04009
G1 X59.546 Y219.451 E.07165
G1 X59.352 Y217.8 E.07424
G1 X59.354 Y122.041 E4.27646
G1 X59.462 Y120.953 E.04879
G1 X59.663 Y120.118 E.03839
G1 X59.978 Y119.275 E.04018
G1 X60.43 Y118.425 E.043
G1 X61.034 Y117.594 E.04588
G1 X61.675 Y116.927 E.04133
G1 X62.405 Y116.342 E.04176
G1 X63.294 Y115.819 E.04607
G1 X63.566 Y116.28 F48000
G1 F7200
G1 X63.6 Y116.259 E.0018
G1 X64.967 Y115.77 E.06484
G1 X66.5 Y115.589 E.06892
G1 X273.595 Y115.59 E9.24852
G1 X274.831 Y115.725 E.05553
G1 X276.038 Y116.096 E.05642
G1 X277.137 Y116.68 E.05557
G1 X278.107 Y117.46 E.05556
G1 X278.914 Y118.407 E.05556
G1 X279.529 Y119.489 E.05558
G1 X279.93 Y120.666 E.05554
G1 X280.106 Y121.934 E.05717
G1 X280.104 Y218.102 E4.29469
G1 X280.014 Y218.927 E.03707
G1 X279.821 Y219.734 E.03707
G1 X279.529 Y220.511 E.03707
G1 X279.051 Y221.39 E.04467
G1 X278.533 Y222.086 E.03874
G1 X277.956 Y222.683 E.03707
G1 X277.121 Y223.33 E.04718
G1 X276.4 Y223.741 E.03708
G1 X275.052 Y224.226 E.06394
G1 X273.594 Y224.41 E.06564
G1 X66.5 Y224.411 E9.24849
G1 X65.559 Y224.343 E.04213
G1 X64.745 Y224.173 E.03716
G1 X63.821 Y223.844 E.04379
G1 X63.054 Y223.441 E.03868
G1 X62.374 Y222.965 E.03708
G1 X61.604 Y222.242 E.04718
G1 X60.98 Y221.437 E.04546
G1 X60.568 Y220.717 E.03708
G1 X60.07 Y219.334 E.06564
G1 X59.889 Y217.8 E.06898
G1 X59.891 Y122.049 E4.27608
G1 X59.99 Y121.054 E.04465
G1 X60.178 Y120.267 E.03613
G1 X60.471 Y119.488 E.03716
G1 X60.888 Y118.706 E.03961
G1 X61.442 Y117.943 E.04212
G1 X62.043 Y117.318 E.0387
G1 X62.707 Y116.786 E.03798
G1 X63.488 Y116.326 E.04051
G1 X63.76 Y116.786 F48000
G1 F7200
G1 X63.829 Y116.745 E.00356
G1 X65.084 Y116.294 E.05957
G1 X66.5 Y116.126 E.06367
G1 X273.595 Y116.127 E9.24851
G1 X274.73 Y116.253 E.05102
G1 X275.825 Y116.589 E.05115
G1 X276.835 Y117.124 E.05105
G1 X277.727 Y117.839 E.05105
G1 X278.47 Y118.709 E.05105
G1 X279.036 Y119.702 E.05106
G1 X279.406 Y120.783 E.05103
G1 X279.569 Y121.96 E.05304
G1 X279.567 Y218.085 E4.2928
G1 X279.305 Y219.585 E.06799
G1 X279.036 Y220.298 E.03406
G1 X278.602 Y221.095 E.04053
G1 X278.119 Y221.743 E.0361
G1 X277.588 Y222.291 E.03406
G1 X276.834 Y222.877 E.04266
G1 X276.171 Y223.255 E.03407
G1 X274.919 Y223.705 E.05942
G1 X273.594 Y223.873 E.05963
G1 X66.5 Y223.874 E9.24849
G1 X65.643 Y223.813 E.03836
G1 X64.895 Y223.657 E.03414
G1 X64.042 Y223.355 E.0404
G1 X63.328 Y222.979 E.03605
G1 X62.703 Y222.541 E.03407
G1 X62.007 Y221.887 E.04266
G1 X61.424 Y221.135 E.04245
G1 X61.046 Y220.473 E.03407
G1 X60.594 Y219.217 E.05962
G1 X60.426 Y217.8 E.06371
G1 X60.428 Y122.058 E4.2757
G1 X60.517 Y121.155 E.04052
G1 X60.694 Y120.417 E.03387
G1 X60.964 Y119.702 E.03414
G1 X61.346 Y118.986 E.03622
G1 X61.851 Y118.291 E.03836
G1 X62.411 Y117.709 E.03607
G1 X63.009 Y117.23 E.03421
G1 X63.683 Y116.832 E.03498
G1 X63.956 Y117.292 F48000
G1 F7200
G1 X64.058 Y117.231 E.00529
G1 X65.201 Y116.818 E.0543
G1 X66.5 Y116.663 E.05841
G1 X273.595 Y116.664 E9.24851
G1 X274.748 Y116.806 E.05188
G1 X275.785 Y117.157 E.0489
G1 X276.689 Y117.675 E.04654
G1 X277.481 Y118.352 E.04653
G1 X278.131 Y119.166 E.04654
G1 X278.618 Y120.088 E.04655
G1 X278.923 Y121.084 E.04652
G1 X279.036 Y122.106 E.04589
G1 X279.036 Y217.88 E4.27711
G1 X278.953 Y218.759 E.03944
G1 X278.79 Y219.435 E.03105
G1 X278.543 Y220.085 E.03105
G1 X278.153 Y220.801 E.03639
G1 X277.221 Y221.9 E.06438
G1 X276.546 Y222.423 E.03815
G1 X275.942 Y222.769 E.03105
G1 X274.785 Y223.185 E.05491
G1 X273.594 Y223.336 E.05361
G1 X66.5 Y223.337 E9.24849
M73 P1 R36
G1 X65.044 Y223.142 E.06558
G1 X64.263 Y222.865 E.037
G1 X63.601 Y222.517 E.03343
G1 X63.033 Y222.116 E.03105
G1 X62.41 Y221.531 E.03815
G1 X61.869 Y220.834 E.03944
G1 X61.525 Y220.229 E.03105
G1 X61.118 Y219.1 E.05361
G1 X60.963 Y217.8 E.05845
G1 X60.965 Y122.066 E4.27533
G1 X61.045 Y121.255 E.03638
G1 X61.21 Y120.567 E.03162
G1 X61.804 Y119.267 E.06383
G1 X62.259 Y118.64 E.0346
G1 X62.779 Y118.101 E.03344
G1 X63.311 Y117.675 E.03044
G1 X63.878 Y117.338 E.02948
; printing object FCM Player Tokens, Round Tracker, Board Stand Holder.stl id:0 copy 0
EXCLUDE_OBJECT_START NAME=FCM_Player_Tokens,_Round_Tracker,_Board_Stand_Holder.stl_id_0_copy_0
G1 E-.35 F1800
;WIPE_START
G1 F7200
G1 X64.058 Y117.231 E-.01486
G1 X65.201 Y116.818 E-.08663
G1 X65.773 Y116.75 E-.04101
;WIPE_END
G1 E-.0075 F1800
G1 X86.042 Y120.664 F48000
G1 E.5 F4800
;TYPE:Inner wall
;WIDTH:0.579999
G1 F7200
G2 X113.958 Y120.664 I13.958 J-.266 E1.93488
G1 X124.242 Y120.664 E.45927
G2 X131.313 Y132.542 I13.978 J-.278 E.6457
G2 X151.621 Y124.255 I6.885 J-12.154 E1.12644
G2 X152.156 Y120.664 I-13.25 J-3.812 E.16261
G1 X162.442 Y120.664 E.45934
G2 X190.358 Y120.664 I13.958 J-.265 E1.93497
G1 X200.642 Y120.664 E.45927
G2 X214.526 Y134.358 I13.963 J-.272 E.96399
G2 X228.558 Y120.664 I.07 J-13.965 E.97065
G1 X238.842 Y120.664 E.45927
G2 X257.075 Y133.687 I13.962 J-.272 E1.16131
G2 X266.285 Y124.004 I-4.244 J-13.258 E.62247
G2 X266.758 Y120.664 I-12.917 J-3.531 E.15103
G1 X273.506 Y120.666 E.30135
G1 X273.975 Y120.758 E.02137
G1 X274.399 Y120.962 E.02102
G1 X274.701 Y121.263 E.01904
G1 X274.922 Y121.637 E.01938
G1 X275.034 Y122.183 E.02489
G1 X275.036 Y158.63 E1.62767
G3 X274.922 Y159.363 I-2.388 J.006 E.03326
G1 X274.706 Y159.73 E.01905
G1 X274.407 Y160.031 E.01894
G1 X273.971 Y160.248 E.02174
G1 X273.424 Y160.336 E.02473
G1 X263.446 Y160.341 E.44562
G2 X263.446 Y182.359 I.308 J11.009 E1.51768
G1 X273.331 Y182.364 E.44145
G1 X273.667 Y182.391 E.01505
G1 X274.161 Y182.521 E.02281
G1 X274.499 Y182.75 E.01826
G1 X274.792 Y183.08 E.01969
G1 X274.975 Y183.538 E.022
G1 X275.036 Y184.019 E.02168
G1 X275.036 Y217.656 E1.50216
G1 X275.024 Y217.859 E.0091
G1 X274.922 Y218.363 E.02295
G1 X274.706 Y218.724 E.01879
G1 X274.36 Y219.065 E.0217
G1 X273.974 Y219.247 E.01904
G1 X273.506 Y219.334 E.02127
G1 X207.442 Y219.336 E2.95032
G2 X174.658 Y219.336 I-16.392 J1.465 E2.17783
G1 X125.838 Y219.336 E2.18025
G1 X125.792 Y219.058 E.01256
G2 X111.793 Y213.511 I-8.79 J1.743 E.79852
G2 X108.164 Y219.336 I5.222 J7.295 E.31449
G1 X105.188 Y219.336 E.13294
G1 X105.142 Y219.058 E.01255
G1 X104.827 Y217.913 E.05307
G2 X87.514 Y219.336 I-8.478 J2.886 E1.05961
G1 X84.488 Y219.336 E.13518
G1 X84.442 Y219.058 E.01255
G1 X84.127 Y217.912 E.0531
G2 X80.153 Y213.05 I-8.458 J2.86 E.28654
G1 X79.198 Y212.576 E.04761
G2 X66.814 Y219.336 I-3.556 J8.209 E.72587
G3 X65.893 Y219.202 I-.129 J-2.346 E.04187
G1 X65.524 Y218.97 E.01946
G1 X65.208 Y218.62 E.02105
G1 X65.05 Y218.268 E.01721
G1 X64.964 Y217.735 E.02413
G1 X64.964 Y197.988 E.88188
G1 X65.242 Y197.942 E.01255
G2 X67.625 Y197.107 I-2.112 J-9.85 E.1131
G1 X68.574 Y196.53 E.04959
G2 X70.197 Y183.203 I-5.085 J-7.381 E.67762
G2 X64.968 Y180.315 I-6.707 J5.965 E.27196
G1 X65.007 Y179.59 E.03244
G1 X65.158 Y179.178 E.01959
G1 X65.453 Y178.785 E.02195
G1 X65.76 Y178.568 E.01679
G1 X66.039 Y178.476 E.01312
G2 X74.801 Y174.173 I-2.674 J-16.515 E.44239
G2 X76.212 Y172.662 I-14.663 J-15.114 E.09237
G2 X78.921 Y167.948 I-13.069 J-10.647 E.24386
G2 X66.205 Y145.965 I-15.422 J-5.748 E1.29538
G1 X65.829 Y145.865 E.01736
G1 X65.446 Y145.607 E.02064
G1 X65.194 Y145.284 E.01832
G1 X65.018 Y144.881 E.0196
G1 X64.964 Y144.477 E.01821
G1 X64.966 Y122.195 E.99507
G1 X65.057 Y121.725 E.02137
G1 X65.257 Y121.31 E.02058
G1 X65.614 Y120.961 E.02227
G1 X65.973 Y120.765 E.01828
G1 X66.544 Y120.664 E.0259
G1 X86.03 Y120.664 E.87022
G1 X86.579 Y120.127 F48000
G1 F7200
G2 X113.421 Y120.127 I13.421 J.27 E1.90736
G1 X124.779 Y120.127 E.50724
G2 X131.571 Y132.071 I13.438 J.262 E.64408
G2 X151.621 Y120.127 I6.633 J-11.666 E1.26362
G1 X162.979 Y120.127 E.50725
G2 X189.821 Y120.127 I13.421 J.269 E1.90737
G1 X201.179 Y120.127 E.50724
G2 X214.526 Y133.821 I13.425 J.266 E.95032
G2 X228.021 Y120.127 I.076 J-13.422 E.95709
G1 X239.379 Y120.127 E.50724
G2 X265.765 Y123.871 I13.42 J.27 E1.73836
G2 X266.221 Y120.127 I-13.218 J-3.509 E.16894
G1 X273.403 Y120.129 E.32075
G3 X274.558 Y120.432 I-.015 J2.405 E.05388
G1 X275.008 Y120.783 E.02551
G1 X275.335 Y121.263 E.0259
G1 X275.484 Y121.645 E.01831
G1 X275.571 Y122.153 E.02303
G1 X275.573 Y158.656 E1.63016
G1 X275.533 Y159.188 E.02382
G1 X275.336 Y159.733 E.02589
G1 X275.121 Y160.071 E.01788
G1 X274.72 Y160.47 E.02527
G1 X274.316 Y160.701 E.0208
G1 X273.958 Y160.817 E.01682
G1 X273.454 Y160.873 E.02264
G1 X263.446 Y160.878 E.44693
G2 X263.446 Y181.822 I.308 J10.472 E1.44239
G1 X273.454 Y181.827 E.44693
G1 X273.951 Y181.882 E.02236
G1 X274.387 Y182.031 E.02055
G1 X274.854 Y182.348 E.02522
G1 X275.134 Y182.646 E.01828
G1 X275.421 Y183.133 E.02522
G1 X275.546 Y183.589 E.02112
G1 X275.573 Y184.019 E.01926
G1 X275.573 Y217.656 E1.50216
G3 X275.25 Y218.904 I-2.648 J-.02 E.05815
G1 X274.958 Y219.267 E.0208
G1 X274.663 Y219.511 E.01711
G1 X274.135 Y219.76 E.02607
G1 X273.54 Y219.871 E.02704
G1 X206.948 Y219.873 E2.97385
G2 X175.152 Y219.873 I-15.898 J.931 E2.15111
M73 P1 R35
G1 X125.372 Y219.873 E2.22309
G2 X112.115 Y213.94 I-8.37 J.926 E.7821
G2 X108.628 Y219.873 I4.935 J6.892 E.31645
G1 X104.722 Y219.873 E.17447
G1 X104.62 Y219.184 E.03111
G1 X104.367 Y218.227 E.04421
G2 X87.978 Y219.873 I-8.018 J2.575 E1.02313
G1 X84.022 Y219.873 E.1767
G1 X83.92 Y219.184 E.03111
G1 X83.659 Y218.203 E.04532
G2 X78.993 Y213.072 I-8.032 J2.618 E.31916
G2 X67.278 Y219.873 I-3.339 J7.738 E.70256
G3 X66.302 Y219.851 I-.093 J-17.218 E.04361
G1 X65.816 Y219.74 E.02229
G1 X65.407 Y219.543 E.02028
G1 X64.992 Y219.217 E.02358
G1 X64.686 Y218.779 E.02384
G1 X64.51 Y218.334 E.02137
G1 X64.427 Y217.76 E.02589
G1 X64.427 Y197.522 E.90382
G2 X67.359 Y196.641 I-.897 J-8.305 E.1375
G1 X68.265 Y196.091 E.04733
G2 X67.967 Y182.014 I-4.763 J-6.941 E.74476
G2 X65.816 Y181.056 I-4.564 J7.354 E.10549
G1 X65.301 Y180.918 E.02378
G1 X64.429 Y180.778 E.03942
G1 X64.432 Y179.882 E.04006
G1 X64.477 Y179.506 E.01689
G1 X64.628 Y179.019 E.02276
G1 X64.919 Y178.578 E.0236
G1 X65.259 Y178.256 E.02093
G1 X65.704 Y177.994 E.02307
G1 X65.938 Y177.949 E.01066
G2 X74.421 Y173.793 I-2.577 J-15.994 E.42806
G2 X75.788 Y172.333 I-14.501 J-14.944 E.08936
G2 X78.416 Y167.766 I-12.621 J-10.303 E.23633
G2 X65.804 Y146.444 I-14.915 J-5.569 E1.26767
G1 X65.449 Y146.281 E.01744
G1 X65.079 Y146.004 E.02064
G1 X64.724 Y145.544 E.02597
G1 X64.496 Y145.016 E.02568
G1 X64.427 Y144.485 E.02387
G1 X64.428 Y122.298 E.99086
G1 X64.48 Y121.754 E.02439
G1 X64.631 Y121.314 E.0208
G1 X64.823 Y120.989 E.01683
G1 X65.137 Y120.644 E.02084
G1 X65.613 Y120.34 E.02524
G1 X66.021 Y120.201 E.01924
G1 X66.527 Y120.127 E.02284
G1 X86.567 Y120.127 E.89497
G1 X87.122 Y119.995 F48000
