; HEADER_BLOCK_START
; generated by OrcaSlicer 1.8.1 on 2024-02-07 at 15:07:56
; total layer number: 7
; HEADER_BLOCK_END

; THUMBNAIL_BLOCK_START

;
; THUMBNAIL_BLOCK_END

; external perimeters extrusion width = 0.52mm
; perimeters extrusion width = 0.52mm
; infill extrusion width = 0.55mm
; solid infill extrusion width = 0.60mm
; top infill extrusion width = 0.60mm
; first layer extrusion width = 0.58mm

; external perimeters extrusion width = 0.52mm
; perimeters extrusion width = 0.52mm
; infill extrusion width = 0.55mm
; solid infill extrusion width = 0.60mm
; top infill extrusion width = 0.60mm
; first layer extrusion width = 0.58mm

; external perimeters extrusion width = 0.52mm
; perimeters extrusion width = 0.52mm
; infill extrusion width = 0.55mm
; solid infill extrusion width = 0.60mm
; top infill extrusion width = 0.60mm
; first layer extrusion width = 0.58mm

; external perimeters extrusion width = 0.52mm
; perimeters extrusion width = 0.52mm
; infill extrusion width = 0.55mm
; solid infill extrusion width = 0.60mm
; top infill extrusion width = 0.60mm
; first layer extrusion width = 0.58mm

; external perimeters extrusion width = 0.52mm
; perimeters extrusion width = 0.52mm
; infill extrusion width = 0.55mm
; solid infill extrusion width = 0.60mm
; top infill extrusion width = 0.60mm
; first layer extrusion width = 0.58mm

; external perimeters extrusion width = 0.52mm
; perimeters extrusion width = 0.52mm
; infill extrusion width = 0.55mm
; solid infill extrusion width = 0.60mm
; top infill extrusion width = 0.60mm
; first layer extrusion width = 0.58mm

; external perimeters extrusion width = 0.52mm
; perimeters extrusion width = 0.52mm
; infill extrusion width = 0.55mm
; solid infill extrusion width = 0.60mm
; top infill extrusion width = 0.60mm
; first layer extrusion width = 0.58mm

; external perimeters extrusion width = 0.52mm
; perimeters extrusion width = 0.52mm
; infill extrusion width = 0.55mm
; solid infill extrusion width = 0.60mm
; top infill extrusion width = 0.60mm
; first layer extrusion width = 0.58mm

; external perimeters extrusion width = 0.52mm
; perimeters extrusion width = 0.52mm
; infill extrusion width = 0.55mm
; solid infill extrusion width = 0.60mm
; top infill extrusion width = 0.60mm
; first layer extrusion width = 0.58mm

; EXECUTABLE_BLOCK_START
EXCLUDE_OBJECT_DEFINE NAME=flowrate_0_id_0_copy_0 CENTER=165,165 POLYGON=[[145,150],[185,150],[185,170],[175,180],[155,180],[145,170],[145,150]]
EXCLUDE_OBJECT_DEFINE NAME=flowrate_10_id_1_copy_0 CENTER=207,197 POLYGON=[[187,182],[227,182],[227,202],[217,212],[197,212],[187,202],[187,182]]
EXCLUDE_OBJECT_DEFINE NAME=flowrate_15_id_2_copy_0 CENTER=165,197 POLYGON=[[145,182],[185,182],[185,202],[175,212],[155,212],[145,202],[145,182]]
EXCLUDE_OBJECT_DEFINE NAME=flowrate_20_id_3_copy_0 CENTER=123,197 POLYGON=[[103,182],[143,182],[143,202],[133,212],[113,212],[103,202],[103,182]]
EXCLUDE_OBJECT_DEFINE NAME=flowrate_5_id_4_copy_0 CENTER=123,165 POLYGON=[[103,150],[143,150],[143,170],[133,180],[113,180],[103,170],[103,150]]
EXCLUDE_OBJECT_DEFINE NAME=flowrate_m10_id_5_copy_0 CENTER=207,133 POLYGON=[[187,118],[227,118],[227,138],[217,148],[197,148],[187,138],[187,118]]
EXCLUDE_OBJECT_DEFINE NAME=flowrate_m15_id_6_copy_0 CENTER=165,133 POLYGON=[[145,118],[185,118],[185,138],[175,148],[155,148],[145,138],[145,118]]
EXCLUDE_OBJECT_DEFINE NAME=flowrate_m20_id_7_copy_0 CENTER=123,133 POLYGON=[[103,118],[143,118],[143,138],[133,148],[113,148],[103,138],[103,118]]
EXCLUDE_OBJECT_DEFINE NAME=flowrate_m5_id_8_copy_0 CENTER=207,165 POLYGON=[[187,150],[227,150],[227,170],[217,180],[197,180],[187,170],[187,150]]
M73 P0 R12
;TYPE:Custom
M104 S0
M140 S0
START_PRINT BED=75 HOTEND=210
G90
G21
M83 ; use relative distances for extrusion
; filament start gcode
SET_PRESSURE_ADVANCE ADVANCE=0.036; Override pressure advance value
T0
M106 S0
;LAYER_CHANGE
;Z:0.25
;HEIGHT:0.25
;BEFORE_LAYER_CHANGE
;0.25
G92 E0

;_SET_FAN_SPEED_CHANGING_LAYER
SET_VELOCITY_LIMIT ACCEL=10000 ACCEL_TO_DECEL=5000
SET_VELOCITY_LIMIT SQUARE_CORNER_VELOCITY=10
G1 E-.4 F4200
G1 X100.399 Y114.824 F48000
G1 Z.25
G1 E.4 F4200
;TYPE:Skirt
;WIDTH:0.58
G1 F3000
G1 X102.009 Y114.016 E.09854
G1 X103 Y113.895 E.05462
G1 X227 Y113.895 E6.78375
G1 X228.757 Y114.29 E.09854
G1 X230.176 Y115.399 E.09854
G1 X230.984 Y117.009 E.09854
G1 X231.105 Y118 E.05462
G1 X231.105 Y202 E4.59544
G1 X230.71 Y203.757 E.09854
G1 X229.903 Y204.903 E.07667
G1 X219.903 Y214.903 E.77368
G1 X218.381 Y215.866 E.09854
G1 X217 Y216.105 E.07667
G1 X113 Y216.105 E5.6896
G1 X111.243 Y215.71 E.09854
G1 X110.097 Y214.903 E.07667
G1 X100.097 Y204.903 E.77368
G1 X99.134 Y203.381 E.09854
G1 X98.895 Y202 E.07667
G1 X98.895 Y118 E4.59544
M73 P1 R12
G1 X99.29 Y116.243 E.09854
G1 X100.368 Y114.863 E.0958
G1 X100.794 Y115.23 F48000
G1 F3000
G1 X100.912 Y115.093 E.00985
G1 X103 Y114.421 E.12002
G1 X227 Y114.421 E6.78375
G1 X228.633 Y114.815 E.09192
G1 X229.907 Y115.912 E.09192
G1 X230.579 Y118 E.12002
G1 X230.579 Y202 E4.59544
G1 X230.185 Y203.633 E.09192
G1 X229.531 Y204.531 E.06075
G1 X219.531 Y214.531 E.77368
G1 X218.097 Y215.407 E.09192
G1 X217 Y215.579 E.06075
G1 X113 Y215.579 E5.6896
M73 P2 R12
G1 X111.367 Y215.185 E.09192
G1 X110.469 Y214.531 E.06075
G1 X100.469 Y204.531 E.77368
G1 X99.593 Y203.097 E.09192
G1 X99.421 Y202 E.06075
G1 X99.421 Y118 E4.59544
G1 X99.815 Y116.367 E.09192
G1 X100.762 Y115.268 E.07934
G1 X101.161 Y115.655 F48000
G1 F3000
G1 X101.42 Y115.388 E.02033
G1 X103 Y114.947 E.08976
G1 X227 Y114.947 E6.78375
G1 X228.499 Y115.341 E.08479
G1 X229.612 Y116.42 E.08479
G1 X230.053 Y118 E.08976
G1 X230.053 Y202 E4.59544
G1 X229.659 Y203.499 E.08479
G1 X229.159 Y204.159 E.0453
G1 X219.159 Y214.159 E.77368
G1 X217.82 Y214.94 E.08479
M73 P3 R12
G1 X217 Y215.053 E.0453
G1 X113 Y215.053 E5.6896
G1 X111.501 Y214.659 E.08479
G1 X110.841 Y214.159 E.0453
G1 X100.841 Y204.159 E.77368
G1 X100.06 Y202.82 E.08479
G1 X99.947 Y202 E.0453
G1 X99.947 Y118 E4.59544
G1 X100.341 Y116.501 E.08479
G1 X101.126 Y115.691 E.06173
G1 X101.487 Y116.099 F48000
G1 F3000
G1 X101.92 Y115.716 E.03164
G1 X103 Y115.474 E.06054
G1 X227 Y115.474 E6.78375
G1 X228.352 Y115.866 E.077
G1 X229.284 Y116.92 E.077
G1 X229.526 Y118 E.06054
G1 X229.526 Y202 E4.59544
M73 P4 R12
G1 X228.786 Y203.786 E.10578
G1 X218.786 Y213.786 E.77368
G1 X217 Y214.526 E.10578
G1 X113 Y214.526 E5.6896
G1 X111.214 Y213.786 E.10578
G1 X101.214 Y203.786 E.77368
G1 X100.474 Y202 E.10578
G1 X100.474 Y118 E4.59544
G1 X100.866 Y116.648 E.077
G1 X101.45 Y116.132 E.04263
; printing object flowrate_m20 id:7 copy 0
G1 E-.4 F4200
EXCLUDE_OBJECT_START NAME=flowrate_m20_id_7_copy_0
G1 X114.433 Y137.788 F48000
G1 E.4 F4200
;TYPE:Inner wall
;WIDTH:0.579999
G1 F7200
G1 X114.428 Y137.678 E.00481
G1 X114.292 Y137.262 E.01918
G1 X114.061 Y136.947 E.01709
G1 X113.746 Y136.712 E.01719
G1 X113.354 Y136.577 E.01814
G1 X113.127 Y136.557 E.00999
G1 X104.443 Y136.557 E.38007
G1 X104.443 Y119.443 E.74904
G1 X141.557 Y119.443 E1.62436
G1 X141.557 Y136.557 E.74904
G1 X132.873 Y136.557 E.38007
G1 X132.446 Y136.628 E.01894
G1 X132.084 Y136.82 E.01796
G1 X131.783 Y137.137 E.01912
G1 X131.613 Y137.495 E.01734
G1 X131.557 Y137.873 E.01673
G1 X131.557 Y146.557 E.38007
G1 X114.443 Y146.557 E.74904
G1 X114.443 Y138 E.37452
G1 X114.434 Y137.798 E.00886
G1 X113.905 Y137.824 F48000
G1 F7200
G1 X113.897 Y137.7 E.00546
G1 X113.781 Y137.431 E.0128
G1 X113.551 Y137.207 E.01405
G1 X113.263 Y137.096 E.01352
G1 X103.916 Y137.084 E.40908
G1 X103.916 Y118.916 E.79511
G1 X142.084 Y118.916 E1.67043
G1 X142.084 Y137.084 E.79511
G1 X133 Y137.084 E.39756
G1 X132.617 Y137.126 E.01686
G1 X132.354 Y137.278 E.0133
G1 X132.153 Y137.549 E.01476
G1 X132.084 Y137.873 E.0145
G1 X132.084 Y147.084 E.40311
M73 P5 R12
G1 X113.916 Y147.084 E.79511
G1 X113.916 Y138 E.39756
G1 X113.906 Y137.834 E.00727
G1 X113.39 Y137.873 F48000
;TYPE:Outer wall
G1 F7200
G1 X113.337 Y137.715 E.00728
G1 X113.172 Y137.614 E.00848
G1 X103.39 Y137.61 E.42813
G1 X103.39 Y118.39 E.84118
G1 X142.61 Y118.39 E1.71651
G1 X142.61 Y137.61 E.84118
G1 X133 Y137.61 E.42059
G2 X132.674 Y137.701 I-.078 J.35 E.01544
G1 X132.61 Y137.873 E.00802
G1 X132.61 Y147.61 E.42614
G1 X113.39 Y147.61 E.84118
G1 X113.39 Y137.883 E.42571
G1 E-.4 F4200
G1 X141.399 Y120.667 F48000
G1 E.4 F4200
;TYPE:Bottom surface
;WIDTH:0.581061
G1 F4800
G1 X140.57 Y119.837 E.05144
G1 X139.824 Y119.837 E.03271
G1 X141.163 Y121.176 E.08301
G1 X141.163 Y121.922 E.03271
G1 X139.078 Y119.837 E.12927
G1 X138.332 Y119.837 E.03271
G1 X141.163 Y122.668 E.17552
G1 X141.163 Y123.413 E.03271
G1 X137.587 Y119.837 E.22178
G1 X136.841 Y119.837 E.03271
G1 X141.163 Y124.159 E.26804
G1 X141.163 Y124.905 E.03271
G1 X136.095 Y119.837 E.3143
G1 X135.349 Y119.837 E.03271
G1 X141.163 Y125.651 E.36056
G1 X141.163 Y126.397 E.03271
G1 X134.603 Y119.837 E.40682
G1 X133.857 Y119.837 E.03271
G1 X141.163 Y127.143 E.45308
G1 X141.163 Y127.889 E.03271
G1 X133.111 Y119.837 E.49933
G1 X132.365 Y119.837 E.03271
G1 X141.163 Y128.635 E.54559
G1 X141.163 Y129.38 E.03271
G1 X131.62 Y119.837 E.59185
G1 X130.874 Y119.837 E.03271
G1 X141.163 Y130.126 E.63811
G1 X141.163 Y130.872 E.03271
G1 X130.128 Y119.837 E.68437
G1 X129.382 Y119.837 E.03271
G1 X141.163 Y131.618 E.73063
G1 X141.163 Y132.364 E.03271
G1 X128.636 Y119.837 E.77689
G1 X127.89 Y119.837 E.03271
G1 X141.163 Y133.11 E.82314
G1 X141.163 Y133.856 E.03271
G1 X127.144 Y119.837 E.8694
G1 X126.398 Y119.837 E.03271
G1 X141.163 Y134.602 E.91566
G1 X141.163 Y135.347 E.03271
G1 X125.653 Y119.837 E.96192
G1 X124.907 Y119.837 E.03271
G1 X141.163 Y136.093 E1.00818
G1 X141.163 Y136.163 E.00304
G1 X140.486 Y136.163 E.02965
G1 X124.161 Y119.837 E1.01251
G1 X123.415 Y119.837 E.03271
G1 X139.741 Y136.164 E1.01254
G1 X138.996 Y136.164 E.03269
G1 X122.669 Y119.837 E1.01256
G1 X121.923 Y119.837 E.03271
G1 X138.25 Y136.164 E1.01259
M73 P5 R11
G1 X137.505 Y136.165 E.03269
G1 X121.177 Y119.837 E1.01262
G1 X120.431 Y119.837 E.03271
G1 X136.759 Y136.165 E1.01265
G1 X136.014 Y136.166 E.03269
G1 X119.686 Y119.837 E1.01268
G1 X118.94 Y119.837 E.03271
G1 X135.269 Y136.166 E1.01271
M73 P6 R11
G1 X134.523 Y136.167 E.03269
G1 X118.194 Y119.837 E1.01274
G1 X117.448 Y119.837 E.03271
G1 X133.778 Y136.167 E1.01277
G1 X133.032 Y136.168 E.03269
G1 X116.702 Y119.837 E1.0128
G1 X115.956 Y119.837 E.03271
G1 X132.364 Y136.245 E1.01758
G2 X131.87 Y136.497 I.468 J1.527 E.02444
G1 X115.21 Y119.837 E1.03322
G1 X114.465 Y119.837 E.03271
G1 X131.495 Y136.867 E1.05619
G2 X131.247 Y137.366 I1.406 J1.007 E.02452
G1 X113.719 Y119.837 E1.08713
G1 X112.973 Y119.837 E.03271
G1 X131.167 Y138.032 E1.12839
G1 X131.166 Y138.777 E.03269
G1 X112.227 Y119.837 E1.17462
G1 X111.481 Y119.837 E.03271
G1 X131.166 Y139.522 E1.22086
G1 X131.166 Y140.268 E.03269
G1 X110.735 Y119.837 E1.26709
G1 X109.989 Y119.837 E.03271
G1 X131.165 Y141.013 E1.31333
G1 X131.165 Y141.759 E.03269
G1 X109.243 Y119.837 E1.35956
G1 X108.498 Y119.837 E.03271
G1 X131.165 Y142.504 E1.40579
G1 X131.164 Y143.25 E.03269
G1 X107.752 Y119.837 E1.45203
G1 X107.006 Y119.837 E.03271
G1 X131.164 Y143.995 E1.49826
G1 X131.163 Y144.741 E.03269
G1 X106.26 Y119.837 E1.5445
G1 X105.514 Y119.837 E.03271
G1 X131.163 Y145.486 E1.59073
G1 X131.163 Y146.163 E.02965
G1 X131.093 Y146.163 E.00304
G1 X104.837 Y119.907 E1.62837
G1 X104.837 Y120.653 E.03271
G1 X130.347 Y146.163 E1.58211
M73 P7 R11
G1 X129.602 Y146.163 E.03271
G1 X104.837 Y121.398 E1.53585
G1 X104.837 Y122.144 E.03271
G1 X128.856 Y146.163 E1.4896
G1 X128.11 Y146.163 E.03271
G1 X104.837 Y122.89 E1.44334
G1 X104.837 Y123.636 E.03271
G1 X127.364 Y146.163 E1.39708
G1 X126.618 Y146.163 E.03271
G1 X104.837 Y124.382 E1.35082
G1 X104.837 Y125.128 E.03271
G1 X125.872 Y146.163 E1.30456
G1 X125.126 Y146.163 E.03271
G1 X104.837 Y125.874 E1.2583
G1 X104.837 Y126.62 E.03271
G1 X124.38 Y146.163 E1.21204
G1 X123.635 Y146.163 E.03271
G1 X104.837 Y127.365 E1.16579
G1 X104.837 Y128.111 E.03271
G1 X112.894 Y136.168 E.49966
G1 X112.148 Y136.167 E.03273
G1 X104.837 Y128.857 E.45337
G1 X104.837 Y129.603 E.03271
G1 X111.401 Y136.167 E.40708
G1 X110.655 Y136.166 E.03273
G1 X104.837 Y130.349 E.36079
G1 X104.837 Y131.095 E.03271
G1 X109.909 Y136.166 E.3145
G1 X109.162 Y136.165 E.03273
G1 X104.837 Y131.841 E.26822
G1 X104.837 Y132.587 E.03271
G1 X108.416 Y136.165 E.22193
G1 X107.669 Y136.164 E.03273
G1 X104.837 Y133.332 E.17564
G1 X104.837 Y134.078 E.03271
G1 X106.923 Y136.164 E.12935
G1 X106.177 Y136.163 E.03273
G1 X104.837 Y134.824 E.08306
G1 X104.837 Y135.57 E.03271
G1 X105.667 Y136.4 E.05147
G1 E-.4 F4200
G1 X114.596 Y137.87 F48000
G1 E.4 F4200
G1 F4800
G1 X122.889 Y146.163 E.51429
G1 X122.143 Y146.163 E.03271
G1 X114.834 Y138.853 E.45331
G1 X114.834 Y139.6 E.03273
G1 X121.397 Y146.163 E.40703
G1 X120.651 Y146.163 E.03271
G1 X114.834 Y140.346 E.36075
G1 X114.835 Y141.092 E.03273
G1 X119.905 Y146.163 E.31446
G1 X119.159 Y146.163 E.03271
G1 X114.835 Y141.838 E.26818
G1 X114.836 Y142.585 E.03273
G1 X118.413 Y146.163 E.2219
G1 X117.668 Y146.163 E.03271
G1 X114.836 Y143.331 E.17562
G1 X114.836 Y144.077 E.03273
G1 X116.922 Y146.163 E.12933
G1 X116.176 Y146.163 E.03271
G1 X114.837 Y144.823 E.08305
G1 X114.837 Y145.57 E.03273
G1 X115.667 Y146.399 E.05146
; stop printing object flowrate_m20 id:7 copy 0
; printing object flowrate_5 id:4 copy 0
G1 E-.4 F4200
EXCLUDE_OBJECT_END NAME=flowrate_m20_id_7_copy_0
EXCLUDE_OBJECT_START NAME=flowrate_5_id_4_copy_0
G1 X114.407 Y169.628 F48000
G1 E.4 F4200
;TYPE:Inner wall
;WIDTH:0.579999
G1 F7200
G1 X114.387 Y169.495 E.00773
G1 X114.217 Y169.137 E.02276
G1 X113.916 Y168.82 E.0251
G1 X113.554 Y168.628 E.02358
G1 X113.127 Y168.557 E.02485
G1 X104.443 Y168.557 E.49884
G1 X104.443 Y151.443 E.98311
G1 X141.557 Y151.443 E2.13197
G1 X141.557 Y160 E.49156
G1 X141.557 Y168.557 E.49156
G1 X132.873 Y168.557 E.49884
G1 X132.446 Y168.628 E.02485
G1 X132.084 Y168.82 E.02358
G1 X131.783 Y169.137 E.0251
G1 X131.613 Y169.495 E.02276
G1 X131.557 Y169.873 E.02195
G1 X131.557 Y178.557 E.49884
G1 X114.443 Y178.557 E.98311
G1 X114.443 Y169.873 E.49884
G1 X114.408 Y169.638 E.01365
G1 X113.889 Y169.723 F48000
G1 F7200
G1 X113.866 Y169.596 E.00744
G1 X113.687 Y169.317 E.01902
G1 X113.442 Y169.149 E.01708
G1 X113.127 Y169.084 E.0185
G1 X103.916 Y169.084 E.52908
G1 X103.916 Y150.916 E1.04358
M73 P8 R11
G1 X142.084 Y150.916 E2.19244
G1 X142.084 Y160 E.52179
G1 X142.084 Y169.084 E.52179
G1 X133 Y169.084 E.52179
G1 X132.617 Y169.126 E.02213
G1 X132.354 Y169.278 E.01745
G1 X132.153 Y169.549 E.01937
G1 X132.084 Y169.873 E.01903
G1 X132.084 Y179.084 E.52908
G1 X113.916 Y179.084 E1.04358
G1 X113.916 Y169.873 E.52908
G1 X113.891 Y169.733 E.00817
G1 X113.387 Y169.834 F48000
;TYPE:Outer wall
G1 F7200
G2 X113.3 Y169.675 I-.352 J.089 E.01054
G1 X113.127 Y169.61 E.01062
G1 X103.39 Y169.61 E.55931
G1 X103.39 Y150.39 E1.10405
G1 X142.61 Y150.39 E2.25291
G1 X142.61 Y160 E.55203
G1 X142.61 Y169.61 E.55203
G1 X133 Y169.61 E.55203
G2 X132.674 Y169.701 I-.078 J.35 E.02026
G1 X132.61 Y169.873 E.01053
G1 X132.61 Y179.61 E.55931
G1 X113.39 Y179.61 E1.10405
G1 X113.39 Y170 E.55203
G2 X113.389 Y169.844 I-.355 J-.077 E.00905
G1 E-.4 F4200
G1 X141.399 Y152.667 F48000
G1 E.4 F4200
;TYPE:Bottom surface
;WIDTH:0.581061
G1 F4800
G1 X140.57 Y151.837 E.06751
G1 X139.824 Y151.837 E.04293
G1 X141.163 Y153.176 E.10895
G1 X141.163 Y153.922 E.04293
G1 X139.078 Y151.837 E.16966
G1 X138.332 Y151.837 E.04293
G1 X141.163 Y154.668 E.23038
G1 X141.163 Y155.413 E.04293
G1 X137.587 Y151.837 E.29109
G1 X136.841 Y151.837 E.04293
G1 X141.163 Y156.159 E.3518
G1 X141.163 Y156.905 E.04293
G1 X136.095 Y151.837 E.41252
G1 X135.349 Y151.837 E.04293
G1 X141.163 Y157.651 E.47323
G1 X141.163 Y158.397 E.04293
G1 X134.603 Y151.837 E.53395
G1 X133.857 Y151.837 E.04293
G1 X141.163 Y159.143 E.59466
G1 X141.163 Y159.889 E.04293
G1 X133.111 Y151.837 E.65538
G1 X132.365 Y151.837 E.04293
G1 X141.163 Y160.635 E.71609
G1 X141.163 Y161.38 E.04293
G1 X131.62 Y151.837 E.77681
G1 X130.874 Y151.837 E.04293
G1 X141.163 Y162.126 E.83752
G1 X141.163 Y162.872 E.04293
G1 X130.128 Y151.837 E.89823
G1 X129.382 Y151.837 E.04293
