; HEADER_BLOCK_START
; generated by OrcaSlicer 1.6.3 on 2023-11-17 at 01:34:18
; total layer number: 7
; HEADER_BLOCK_END

; THUMBNAIL_BLOCK_START
; THUMBNAIL_BLOCK_END

; external perimeters extrusion width = 0.62mm
; perimeters extrusion width = 0.62mm
; infill extrusion width = 0.65mm
; solid infill extrusion width = 0.72mm
; top infill extrusion width = 0.72mm
; first layer extrusion width = 0.68mm

; external perimeters extrusion width = 0.62mm
; perimeters extrusion width = 0.62mm
; infill extrusion width = 0.65mm
; solid infill extrusion width = 0.72mm
; top infill extrusion width = 0.72mm
; first layer extrusion width = 0.68mm

; external perimeters extrusion width = 0.62mm
; perimeters extrusion width = 0.62mm
; infill extrusion width = 0.65mm
; solid infill extrusion width = 0.72mm
; top infill extrusion width = 0.72mm
; first layer extrusion width = 0.68mm

; external perimeters extrusion width = 0.62mm
; perimeters extrusion width = 0.62mm
; infill extrusion width = 0.65mm
; solid infill extrusion width = 0.72mm
; top infill extrusion width = 0.72mm
; first layer extrusion width = 0.68mm

; external perimeters extrusion width = 0.62mm
; perimeters extrusion width = 0.62mm
; infill extrusion width = 0.65mm
; solid infill extrusion width = 0.72mm
; top infill extrusion width = 0.72mm
; first layer extrusion width = 0.68mm

; external perimeters extrusion width = 0.62mm
; perimeters extrusion width = 0.62mm
; infill extrusion width = 0.65mm
; solid infill extrusion width = 0.72mm
; top infill extrusion width = 0.72mm
; first layer extrusion width = 0.68mm

; external perimeters extrusion width = 0.62mm
; perimeters extrusion width = 0.62mm
; infill extrusion width = 0.65mm
; solid infill extrusion width = 0.72mm
; top infill extrusion width = 0.72mm
; first layer extrusion width = 0.68mm

; external perimeters extrusion width = 0.62mm
; perimeters extrusion width = 0.62mm
; infill extrusion width = 0.65mm
; solid infill extrusion width = 0.72mm
; top infill extrusion width = 0.72mm
; first layer extrusion width = 0.68mm

; external perimeters extrusion width = 0.62mm
; perimeters extrusion width = 0.62mm
; infill extrusion width = 0.65mm
; solid infill extrusion width = 0.72mm
; top infill extrusion width = 0.72mm
; first layer extrusion width = 0.68mm

; EXECUTABLE_BLOCK_START
EXCLUDE_OBJECT_DEFINE NAME=flowrate_0_id_0_copy_0 CENTER=165,165 POLYGON=[[145,150],[185,150],[185,170],[175,180],[155,180],[145,170],[145,150]]
EXCLUDE_OBJECT_DEFINE NAME=flowrate_10_id_1_copy_0 CENTER=207,197 POLYGON=[[187,182],[227,182],[227,202],[217,212],[197,212],[187,202],[187,182]]
EXCLUDE_OBJECT_DEFINE NAME=flowrate_15_id_2_copy_0 CENTER=165,197 POLYGON=[[145,182],[185,182],[185,202],[175,212],[155,212],[145,202],[145,182]]
EXCLUDE_OBJECT_DEFINE NAME=flowrate_20_id_3_copy_0 CENTER=123,197 POLYGON=[[103,182],[143,182],[143,202],[133,212],[113,212],[103,202],[103,182]]
EXCLUDE_OBJECT_DEFINE NAME=flowrate_5_id_4_copy_0 CENTER=123,165 POLYGON=[[103,150],[143,150],[143,170],[133,180],[113,180],[103,170],[103,150]]
EXCLUDE_OBJECT_DEFINE NAME=flowrate_m10_id_5_copy_0 CENTER=207,133 POLYGON=[[187,118],[227,118],[227,138],[217,148],[197,148],[187,138],[187,118]]
EXCLUDE_OBJECT_DEFINE NAME=flowrate_m15_id_6_copy_0 CENTER=165,133 POLYGON=[[145,118],[185,118],[185,138],[175,148],[155,148],[145,138],[145,118]]
EXCLUDE_OBJECT_DEFINE NAME=flowrate_m20_id_7_copy_0 CENTER=123,133 POLYGON=[[103,118],[143,118],[143,138],[133,148],[113,148],[103,138],[103,118]]
EXCLUDE_OBJECT_DEFINE NAME=flowrate_m5_id_8_copy_0 CENTER=207,165 POLYGON=[[187,150],[227,150],[227,170],[217,180],[197,180],[187,170],[187,150]]
M73 P0 R12
;TYPE:Custom
M104 S0
M140 S0
START_PRINT BED=75 HOTEND=225
G90
G21
M83 ; use relative distances for extrusion
; filament start gcode
SET_PRESSURE_ADVANCE ADVANCE=0.32; Override pressure advance value
M106 S0
;LAYER_CHANGE
;Z:0.3
;HEIGHT:0.3
;BEFORE_LAYER_CHANGE
;0.3
G92 E0

;DSLR_SNAPSHOT
TIMELAPSE_TAKE_FRAME
M204 S5000
G1 E-.4 F4200
G1 X101.836 Y115.658 F36000
G1 Z.3
G1 E.4 F4200
;TYPE:Skirt
;WIDTH:0.68
G1 F7200
G1 X103 Y115.384 E.08262
G1 X227 Y115.384 E8.56903
G1 X228.378 Y115.777 E.099
G1 X229.342 Y116.836 E.099
G1 X229.616 Y118 E.08262
G1 X229.616 Y202 E5.80483
G1 X228.85 Y203.85 E.13834
G1 X218.85 Y213.85 E.97729
G1 X217 Y214.616 E.13834
G1 X113 Y214.616 E7.18693
G1 X111.15 Y213.85 E.13834
G1 X101.15 Y203.85 E.97729
G1 X100.384 Y202 E.13834
G1 X100.384 Y118 E5.80483
G1 X100.777 Y116.622 E.099
G1 X101.77 Y115.718 E.09278
; printing object flowrate_m20 id:7 copy 0
EXCLUDE_OBJECT_START NAME=flowrate_m20_id_7_copy_0
G1 E-.4 F4200
G1 X104.671 Y119.671 F36000
G1 E.4 F4200
;TYPE:Inner wall
;WIDTH:0.68
G1 F7200
G1 X141.329 Y119.671 E2.02658
G1 X141.329 Y128 E.46045
G1 X141.329 Y136.329 E.46045
G1 X133 Y136.329 E.46045
G2 X131.856 Y136.708 I-.06 J1.733 E.06806
G1 X131.592 Y137.007 E.02202
G1 X131.394 Y137.426 E.02562
G1 X131.329 Y137.868 E.02471
G1 X131.329 Y146.329 E.46776
G1 X114.671 Y146.329 E.9209
G1 X114.671 Y138 E.46045
G1 X114.654 Y137.64 E.01995
G1 X114.536 Y137.236 E.02324
G1 X114.298 Y136.863 E.02446
G1 X113.96 Y136.57 E.02475
G1 X113.511 Y136.376 E.02702
G1 X113.132 Y136.329 E.02111
G1 X104.671 Y136.329 E.46776
G1 X104.671 Y119.683 E.92023
G1 X104.056 Y119.056 F36000
G1 F7200
G1 X141.944 Y119.056 E2.09464
G1 X141.944 Y128 E.49448
G1 X141.944 Y136.944 E.49448
G1 X132.791 Y136.948 E.50604
G1 X132.433 Y137.053 E.02062
G1 X132.168 Y137.265 E.01876
G1 X132.003 Y137.544 E.0179
G1 X131.944 Y137.868 E.01822
G1 X131.944 Y146.944 E.50179
G1 X114.056 Y146.944 E.98896
G1 X114.056 Y138 E.49448
G2 X113.501 Y137.021 I-.986 J-.088 E.06615
G1 X113.132 Y136.944 E.02082
G1 X104.056 Y136.944 E.50179
G1 X104.056 Y119.068 E.9883
G1 X103.44 Y118.44 F36000
;TYPE:Outer wall
G1 F7200
G1 X142.56 Y118.44 E2.16271
M73 P1 R12
G1 X142.56 Y128 E.52852
G1 X142.56 Y137.56 E.52852
G1 X133 Y137.56 E.52852
G1 X132.792 Y137.569 E.01151
G1 X132.622 Y137.683 E.01133
G1 X132.56 Y137.868 E.01076
G1 X132.56 Y147.56 E.53582
G1 X113.44 Y147.56 E1.05703
G1 X113.44 Y138 E.52852
G1 X113.427 Y137.779 E.01222
G1 X113.317 Y137.622 E.01064
G1 X113.132 Y137.56 E.01076
G1 X103.44 Y137.56 E.53582
G1 X103.44 Y118.452 E1.05637
G1 X103.552 Y118.483
G1 E-.4 F4200
G1 X141.144 Y121.112 F36000
G1 E.4 F4200
;TYPE:Bottom surface
;WIDTH:0.685449
G1 F7200
G1 X140.165 Y120.133 E.07722
G1 X139.287 Y120.133 E.04899
G1 X140.867 Y121.713 E.12464
G1 X140.867 Y122.592 E.04899
G1 X138.408 Y120.133 E.19392
G1 X137.53 Y120.133 E.04899
G1 X140.867 Y123.47 E.2632
G1 X140.867 Y124.348 E.04899
G1 X136.652 Y120.133 E.33248
G1 X135.774 Y120.133 E.04899
G1 X140.867 Y125.226 E.40176
G1 X140.867 Y126.105 E.04899
G1 X134.895 Y120.133 E.47103
G1 X134.017 Y120.133 E.04899
G1 X140.867 Y126.983 E.54031
G1 X140.867 Y127.861 E.04899
G1 X133.139 Y120.133 E.60959
G1 X132.26 Y120.133 E.04899
G1 X140.867 Y128.74 E.67887
G1 X140.867 Y129.618 E.04899
G1 X131.382 Y120.133 E.74815
G1 X130.504 Y120.133 E.04899
G1 X140.867 Y130.496 E.81742
G1 X140.867 Y131.375 E.04899
G1 X129.625 Y120.133 E.8867
G1 X128.747 Y120.133 E.04899
G1 X140.867 Y132.253 E.95598
G1 X140.867 Y133.131 E.04899
G1 X127.869 Y120.133 E1.02526
G1 X126.99 Y120.133 E.04899
G1 X140.867 Y134.01 E1.09454
G1 X140.867 Y134.888 E.04899
G1 X126.112 Y120.133 E1.16382
G1 X125.234 Y120.133 E.04899
G1 X140.867 Y135.766 E1.23309
G1 X140.867 Y135.867 E.00562
G1 X140.09 Y135.868 E.04333
G1 X124.355 Y120.133 E1.24109
G1 X123.477 Y120.133 E.04899
G1 X139.213 Y135.868 E1.24115
G1 X138.335 Y135.869 E.04895
G1 X122.599 Y120.133 E1.2412
G1 X121.72 Y120.133 E.04899
G1 X137.457 Y135.87 E1.24125
G1 X136.58 Y135.87 E.04895
G1 X120.842 Y120.133 E1.24131
G1 X119.964 Y120.133 E.04899
G1 X135.702 Y135.871 E1.24136
G1 X134.824 Y135.872 E.04895
G1 X119.085 Y120.133 E1.24141
G1 X118.207 Y120.133 E.04899
G1 X133.947 Y135.873 E1.24147
G1 X133.069 Y135.873 E.04895
G1 X117.329 Y120.133 E1.24152
G1 X116.45 Y120.133 E.04899
G1 X132.279 Y135.961 E1.24846
G2 X131.696 Y136.257 I.546 J1.796 E.03662
G1 X115.572 Y120.133 E1.27179
G1 X114.694 Y120.133 E.04899
G1 X131.254 Y136.693 E1.3062
G1 X131.209 Y136.748 E.00393
G2 X130.964 Y137.282 I1.295 J.918 E.03297
G1 X113.815 Y120.133 E1.35261
G1 X112.937 Y120.133 E.04899
G1 X130.872 Y138.068 E1.41462
M73 P2 R12
G1 X130.871 Y138.946 E.04896
G1 X112.059 Y120.133 E1.48386
G1 X111.18 Y120.133 E.04899
G1 X130.871 Y139.823 E1.55309
G1 X130.87 Y140.701 E.04896
G1 X110.302 Y120.133 E1.62233
G1 X109.424 Y120.133 E.04899
G1 X130.87 Y141.579 E1.69156
G1 X130.869 Y142.457 E.04896
G1 X108.546 Y120.133 E1.7608
G1 X107.667 Y120.133 E.04899
G1 X130.869 Y143.334 E1.83003
G1 X130.868 Y144.212 E.04896
G1 X106.789 Y120.133 E1.89927
G1 X105.911 Y120.133 E.04899
G1 X130.868 Y145.09 E1.9685
G1 X130.867 Y145.867 E.04334
G1 X130.766 Y145.867 E.00562
G1 X105.133 Y120.234 E2.02185
G1 X105.133 Y121.112 E.04899
G1 X129.888 Y145.867 E1.95257
G1 X129.01 Y145.867 E.04899
G1 X105.133 Y121.99 E1.88329
G1 X105.133 Y122.869 E.04899
G1 X128.131 Y145.867 E1.81401
G1 X127.253 Y145.867 E.04899
G1 X105.133 Y123.747 E1.74473
G1 X105.133 Y124.625 E.04899
G1 X126.375 Y145.867 E1.67545
G1 X125.496 Y145.867 E.04899
G1 X105.133 Y125.504 E1.60618
G1 X105.133 Y126.382 E.04899
G1 X124.618 Y145.867 E1.5369
G1 X123.74 Y145.867 E.04899
G1 X105.133 Y127.26 E1.46762
G1 X105.133 Y128.139 E.04899
G1 X112.868 Y135.873 E.61007
G1 X111.989 Y135.872 E.04902
G1 X105.133 Y129.017 E.54074
G1 X105.133 Y129.895 E.04899
G1 X111.11 Y135.872 E.4714
G1 X110.231 Y135.871 E.04902
G1 X105.133 Y130.774 E.40207
G1 X105.133 Y131.652 E.04899
G1 X109.352 Y135.87 E.33274
G1 X108.473 Y135.87 E.04902
G1 X105.133 Y132.53 E.26341
G1 X105.133 Y133.409 E.04899
G1 X107.594 Y135.869 E.19408
G1 X106.715 Y135.868 E.04902
G1 X105.133 Y134.287 E.12475
G1 X105.133 Y135.165 E.04899
G1 X106.113 Y136.145 E.07728
G1 E-.4 F4200
G1 X114.851 Y137.856 F36000
G1 E.4 F4200
G1 F7200
G1 X122.861 Y145.867 E.63184
G1 X121.983 Y145.867 E.04899
G1 X115.129 Y139.013 E.54065
G1 X115.129 Y139.891 E.04902
G1 X121.105 Y145.867 E.47133
G1 X120.226 Y145.867 E.04899
G1 X115.13 Y140.77 E.40201
G1 X115.13 Y141.649 E.04902
G1 X119.348 Y145.867 E.33269
G1 X118.47 Y145.867 E.04899
G1 X115.131 Y142.528 E.26337
G1 X115.131 Y143.407 E.04902
G1 X117.591 Y145.867 E.19405
G1 X116.713 Y145.867 E.04899
G1 X115.132 Y144.286 E.12473
G1 X115.132 Y145.165 E.04902
G1 X116.112 Y146.144 E.07726
; stop printing object flowrate_m20 id:7 copy 0
EXCLUDE_OBJECT_END NAME=flowrate_m20_id_7_copy_0
; printing object flowrate_5 id:4 copy 0
EXCLUDE_OBJECT_START NAME=flowrate_5_id_4_copy_0
G1 E-.4 F4200
G1 X114.586 Y169.406 F36000
G1 E.4 F4200
;TYPE:Inner wall
;WIDTH:0.68
G1 F7200
G1 X114.536 Y169.236 E.01284
G1 X114.298 Y168.863 E.0321
G1 X113.96 Y168.57 E.03249
G1 X113.511 Y168.376 E.03546
G1 X113.132 Y168.329 E.0277
G1 X104.671 Y168.329 E.61393
M73 P3 R12
G1 X104.671 Y151.671 E1.20868
G1 X141.329 Y151.671 E2.65988
G1 X141.329 Y160 E.60434
G1 X141.329 Y168.329 E.60434
G1 X133 Y168.329 E.60434
G2 X131.856 Y168.708 I-.06 J1.733 E.08933
G1 X131.592 Y169.007 E.0289
G1 X131.394 Y169.426 E.03363
G1 X131.329 Y169.868 E.03243
G1 X131.329 Y178.329 E.61393
G1 X114.671 Y178.329 E1.20868
G1 X114.671 Y170 E.60434
G1 X114.654 Y169.64 E.02619
G1 X114.589 Y169.418 E.01679
G1 X114.004 Y169.604 F36000
G1 F7200
G1 X113.966 Y169.493 E.00855
G2 X113.501 Y169.021 I-.896 J.419 E.04901
G1 X113.132 Y168.944 E.02733
G1 X104.056 Y168.944 E.6586
G1 X104.056 Y151.056 E1.29801
G1 X141.944 Y151.056 E2.74922
G1 X141.944 Y160 E.64901
G1 X141.944 Y168.944 E.64901
G1 X132.791 Y168.948 E.66417
G1 X132.433 Y169.053 E.02706
G1 X132.168 Y169.265 E.02462
G1 X132.003 Y169.544 E.0235
G1 X131.944 Y169.868 E.02391
G1 X131.944 Y178.944 E.6586
G1 X114.056 Y178.944 E1.29801
G1 X114.056 Y170 E.64901
G2 X114.053 Y169.799 I-.986 J-.088 E.01463
G1 X114.007 Y169.616 E.01368
G1 X113.427 Y169.779 F36000
;TYPE:Outer wall
G1 F7200
G1 X113.317 Y169.622 E.01396
G1 X113.132 Y169.56 E.01413
G1 X103.44 Y169.56 E.70327
G1 X103.44 Y150.44 E1.38735
G1 X142.56 Y150.44 E2.83856
G1 X142.56 Y160 E.69368
G1 X142.56 Y169.56 E.69368
G1 X133 Y169.56 E.69368
G1 X132.792 Y169.569 E.01511
G1 X132.622 Y169.683 E.01487
G1 X132.56 Y169.868 E.01413
G1 X132.56 Y179.56 E.70327
G1 X113.44 Y179.56 E1.38735
G1 X113.44 Y170 E.69368
G1 X113.428 Y169.791 E.01517
G1 X113.45 Y169.749
G1 E-.4 F4200
G1 X141.144 Y153.112 F36000
G1 E.4 F4200
;TYPE:Bottom surface
;WIDTH:0.685449
G1 F7200
G1 X140.165 Y152.133 E.10135
G1 X139.287 Y152.133 E.0643
G1 X140.867 Y153.713 E.16359
G1 X140.867 Y154.592 E.0643
G1 X138.408 Y152.133 E.25452
G1 X137.53 Y152.133 E.0643
G1 X140.867 Y155.47 E.34545
G1 X140.867 Y156.348 E.0643
G1 X136.652 Y152.133 E.43638
G1 X135.774 Y152.133 E.0643
G1 X140.867 Y157.226 E.5273
G1 X140.867 Y158.105 E.0643
G1 X134.895 Y152.133 E.61823
G1 X134.017 Y152.133 E.0643
G1 X140.867 Y158.983 E.70916
G1 X140.867 Y159.861 E.0643
G1 X133.139 Y152.133 E.80009
G1 X132.26 Y152.133 E.0643
G1 X140.867 Y160.74 E.89101
G1 X140.867 Y161.618 E.0643
G1 X131.382 Y152.133 E.98194
G1 X130.504 Y152.133 E.0643
G1 X140.867 Y162.496 E1.07287
G1 X140.867 Y163.375 E.0643
G1 X129.625 Y152.133 E1.1638
G1 X128.747 Y152.133 E.0643
G1 X140.867 Y164.253 E1.25473
G1 X140.867 Y165.131 E.0643
G1 X127.869 Y152.133 E1.34565
G1 X126.99 Y152.133 E.0643
G1 X140.867 Y166.01 E1.43658
G1 X140.867 Y166.888 E.0643
G1 X126.112 Y152.133 E1.52751
G1 X125.234 Y152.133 E.0643
G1 X140.867 Y167.766 E1.61844
G1 X140.867 Y167.867 E.00738
G1 X140.09 Y167.868 E.05687
G1 X124.355 Y152.133 E1.62893
M73 P3 R11
G1 X123.477 Y152.133 E.0643
G1 X139.213 Y167.868 E1.629
G1 X138.335 Y167.869 E.06425
G1 X122.599 Y152.133 E1.62907
M73 P4 R11
G1 X121.72 Y152.133 E.0643
G1 X137.457 Y167.87 E1.62914
G1 X136.58 Y167.87 E.06425
G1 X120.842 Y152.133 E1.62921
G1 X119.964 Y152.133 E.0643
G1 X135.702 Y167.871 E1.62928
G1 X134.824 Y167.872 E.06425
G1 X119.085 Y152.133 E1.62935
G1 X118.207 Y152.133 E.0643
G1 X133.947 Y167.873 E1.62942
G1 X133.069 Y167.873 E.06425
G1 X117.329 Y152.133 E1.62949
G1 X116.45 Y152.133 E.0643
G1 X132.279 Y167.961 E1.6386
G2 X131.696 Y168.257 I.546 J1.796 E.04807
G1 X115.572 Y152.133 E1.66923
G1 X114.694 Y152.133 E.0643
G1 X131.254 Y168.693 E1.71438
G1 X131.209 Y168.748 E.00515
G2 X130.964 Y169.282 I1.295 J.918 E.04327
G1 X113.815 Y152.133 E1.7753
G1 X112.937 Y152.133 E.0643
G1 X130.872 Y170.068 E1.85669
G1 X130.871 Y170.946 E.06426
G1 X112.059 Y152.133 E1.94756
G1 X111.18 Y152.133 E.0643
G1 X130.871 Y171.823 E2.03844
G1 X130.87 Y172.701 E.06426
G1 X110.302 Y152.133 E2.12931
G1 X109.424 Y152.133 E.0643
G1 X130.87 Y173.579 E2.22018
G1 X130.869 Y174.457 E.06426
G1 X108.546 Y152.133 E2.31105
G1 X107.667 Y152.133 E.0643
G1 X130.869 Y175.334 E2.40192
G1 X130.868 Y176.212 E.06426
G1 X106.789 Y152.133 E2.49279
G1 X105.911 Y152.133 E.0643
G1 X130.868 Y177.09 E2.58366
G1 X130.867 Y177.867 E.05688
G1 X130.766 Y177.867 E.00738
G1 X105.133 Y152.234 E2.65367
G1 X105.133 Y153.112 E.0643
G1 X129.888 Y177.867 E2.56274
G1 X129.01 Y177.867 E.0643
G1 X105.133 Y153.99 E2.47182
G1 X105.133 Y154.869 E.0643
G1 X128.131 Y177.867 E2.38089
G1 X127.253 Y177.867 E.0643
G1 X105.133 Y155.747 E2.28996
G1 X105.133 Y156.625 E.0643
G1 X126.375 Y177.867 E2.19903
G1 X125.496 Y177.867 E.0643
G1 X105.133 Y157.504 E2.10811
G1 X105.133 Y158.382 E.0643
M73 P5 R11
G1 X124.618 Y177.867 E2.01718
G1 X123.74 Y177.867 E.0643
G1 X105.133 Y159.26 E1.92625
G1 X105.133 Y160.139 E.0643
G1 X112.868 Y167.873 E.80071
G1 X111.989 Y167.872 E.06435
G1 X105.133 Y161.017 E.70972
G1 X105.133 Y161.895 E.0643
G1 X111.11 Y167.872 E.61872
G1 X110.231 Y167.871 E.06435
G1 X105.133 Y162.774 E.52772
G1 X105.133 Y163.652 E.0643
G1 X109.352 Y167.87 E.43672
G1 X108.473 Y167.87 E.06435
G1 X105.133 Y164.53 E.34573
G1 X105.133 Y165.409 E.0643
G1 X107.594 Y167.869 E.25473
G1 X106.715 Y167.868 E.06435
G1 X105.133 Y166.287 E.16373
G1 X105.133 Y167.165 E.0643
G1 X106.113 Y168.145 E.10143
G1 E-.4 F4200
G1 X114.851 Y169.856 F36000
G1 E.4 F4200
G1 F7200
G1 X122.861 Y177.867 E.82929
G1 X121.983 Y177.867 E.0643
G1 X115.129 Y171.013 E.70961
G1 X115.129 Y171.891 E.06434
