; HEADER_BLOCK_START
; generated by OrcaSlicer 1.8.1 on 2024-01-10 at 18:19:59
; total layer number: 7
; HEADER_BLOCK_END

; THUMBNAIL_BLOCK_START

;
; THUMBNAIL_BLOCK_END

; external perimeters extrusion width = 0.52mm
; perimeters extrusion width = 0.52mm
; infill extrusion width = 0.55mm
; solid infill extrusion width = 0.72mm
; top infill extrusion width = 0.72mm
; first layer extrusion width = 0.58mm

; external perimeters extrusion width = 0.52mm
; perimeters extrusion width = 0.52mm
; infill extrusion width = 0.55mm
; solid infill extrusion width = 0.72mm
; top infill extrusion width = 0.72mm
; first layer extrusion width = 0.58mm

; external perimeters extrusion width = 0.52mm
; perimeters extrusion width = 0.52mm
; infill extrusion width = 0.55mm
; solid infill extrusion width = 0.72mm
; top infill extrusion width = 0.72mm
; first layer extrusion width = 0.58mm

; external perimeters extrusion width = 0.52mm
; perimeters extrusion width = 0.52mm
; infill extrusion width = 0.55mm
; solid infill extrusion width = 0.72mm
; top infill extrusion width = 0.72mm
; first layer extrusion width = 0.58mm

; external perimeters extrusion width = 0.52mm
; perimeters extrusion width = 0.52mm
; infill extrusion width = 0.55mm
; solid infill extrusion width = 0.72mm
; top infill extrusion width = 0.72mm
; first layer extrusion width = 0.58mm

; external perimeters extrusion width = 0.52mm
; perimeters extrusion width = 0.52mm
; infill extrusion width = 0.55mm
; solid infill extrusion width = 0.72mm
; top infill extrusion width = 0.72mm
; first layer extrusion width = 0.58mm

; external perimeters extrusion width = 0.52mm
; perimeters extrusion width = 0.52mm
; infill extrusion width = 0.55mm
; solid infill extrusion width = 0.72mm
; top infill extrusion width = 0.72mm
; first layer extrusion width = 0.58mm

; external perimeters extrusion width = 0.52mm
; perimeters extrusion width = 0.52mm
; infill extrusion width = 0.55mm
; solid infill extrusion width = 0.72mm
; top infill extrusion width = 0.72mm
; first layer extrusion width = 0.58mm

; external perimeters extrusion width = 0.52mm
; perimeters extrusion width = 0.52mm
; infill extrusion width = 0.55mm
; solid infill extrusion width = 0.72mm
; top infill extrusion width = 0.72mm
; first layer extrusion width = 0.58mm

; EXECUTABLE_BLOCK_START
EXCLUDE_OBJECT_DEFINE NAME=flowrate_0_id_0_copy_0 CENTER=165,165 POLYGON=[[145,150],[185,150],[185,170],[175,180],[155,180],[145,170],[145,150]]
EXCLUDE_OBJECT_DEFINE NAME=flowrate_10_id_1_copy_0 CENTER=207,197 POLYGON=[[187,182],[227,182],[227,202],[217,212],[197,212],[187,202],[187,182]]
EXCLUDE_OBJECT_DEFINE NAME=flowrate_15_id_2_copy_0 CENTER=165,197 POLYGON=[[145,182],[185,182],[185,202],[175,212],[155,212],[145,202],[145,182]]
EXCLUDE_OBJECT_DEFINE NAME=flowrate_20_id_3_copy_0 CENTER=123,197 POLYGON=[[103,182],[143,182],[143,202],[133,212],[113,212],[103,202],[103,182]]
EXCLUDE_OBJECT_DEFINE NAME=flowrate_5_id_4_copy_0 CENTER=123,165 POLYGON=[[103,150],[143,150],[143,170],[133,180],[113,180],[103,170],[103,150]]
EXCLUDE_OBJECT_DEFINE NAME=flowrate_m10_id_5_copy_0 CENTER=207,133 POLYGON=[[187,118],[227,118],[227,138],[217,148],[197,148],[187,138],[187,118]]
EXCLUDE_OBJECT_DEFINE NAME=flowrate_m15_id_6_copy_0 CENTER=165,133 POLYGON=[[145,118],[185,118],[185,138],[175,148],[155,148],[145,138],[145,118]]
EXCLUDE_OBJECT_DEFINE NAME=flowrate_m20_id_7_copy_0 CENTER=123,133 POLYGON=[[103,118],[143,118],[143,138],[133,148],[113,148],[103,138],[103,118]]
EXCLUDE_OBJECT_DEFINE NAME=flowrate_m5_id_8_copy_0 CENTER=207,165 POLYGON=[[187,150],[227,150],[227,170],[217,180],[197,180],[187,170],[187,150]]
M73 P0 R13
;TYPE:Custom
M190 S75
M109 S220
START_PRINT HOTEND=220 BED=75
G90
G21
M83 ; use relative distances for extrusion
; filament start gcode
SET_PRESSURE_ADVANCE ADVANCE=0.032; Override pressure advance value
M106 S0
;LAYER_CHANGE
;Z:0.3
;HEIGHT:0.3
;BEFORE_LAYER_CHANGE
;0.3
G92 E0

G1 E-.5 F1800
;DSLR_SNAPSHOT
TIMELAPSE_TAKE_FRAME
;_SET_FAN_SPEED_CHANGING_LAYER
SET_VELOCITY_LIMIT ACCEL=10000 ACCEL_TO_DECEL=5000
SET_VELOCITY_LIMIT SQUARE_CORNER_VELOCITY=10
G1 X100.441 Y114.845 F48000
G1 Z.3
G1 E.5 F4800
;TYPE:Skirt
;WIDTH:0.58
G1 F3000
G1 X102.047 Y114.051 E.1037
G1 X103 Y113.938 E.05554
G1 X227 Y113.938 E7.1771
G1 X228.748 Y114.333 E.1037
G1 X230.155 Y115.441 E.1037
G1 X230.949 Y117.047 E.1037
G1 X231.062 Y118 E.05554
G1 X231.062 Y202 E4.8619
G1 X230.667 Y203.748 E.1037
G1 X229.873 Y204.873 E.07973
G1 X219.873 Y214.873 E.81854
G1 X218.358 Y215.829 E.1037
G1 X217 Y216.062 E.07973
G1 X113 Y216.062 E6.0195
G1 X111.252 Y215.667 E.1037
G1 X110.127 Y214.873 E.07973
G1 X100.127 Y204.873 E.81854
G1 X99.171 Y203.358 E.1037
G1 X98.938 Y202 E.07973
G1 X98.938 Y118 E4.8619
M73 P1 R13
G1 X99.333 Y116.252 E.1037
G1 X100.404 Y114.892 E.10023
G1 X100.82 Y115.253 F48000
G1 F3000
G1 X100.943 Y115.111 E.01087
G1 X103 Y114.453 E.125
G1 X227 Y114.453 E7.1771
G1 X228.625 Y114.848 E.09681
G1 X229.889 Y115.943 E.09681
G1 X230.547 Y118 E.125
G1 X230.547 Y202 E4.8619
G1 X230.152 Y203.625 E.09681
G1 X229.508 Y204.508 E.06325
G1 X219.508 Y214.508 E.81854
G1 X218.08 Y215.378 E.09681
G1 X217 Y215.547 E.06325
G1 X113 Y215.547 E6.0195
G1 X111.375 Y215.152 E.09681
G1 X110.492 Y214.508 E.06325
G1 X100.492 Y204.508 E.81854
G1 X99.622 Y203.08 E.09681
G1 X99.453 Y202 E.06325
G1 X99.453 Y118 E4.8619
M73 P2 R13
G1 X99.848 Y116.375 E.09681
G1 X100.781 Y115.298 E.08247
G1 X101.17 Y115.678 F48000
G1 F3000
G1 X101.44 Y115.401 E.02238
G1 X103 Y114.969 E.09368
G1 X227 Y114.969 E7.1771
G1 X228.493 Y115.362 E.08939
G1 X229.599 Y116.44 E.08939
G1 X230.031 Y118 E.09368
G1 X230.031 Y202 E4.8619
G1 X229.638 Y203.493 E.08939
G1 X229.143 Y204.143 E.04727
G1 X219.143 Y214.143 E.81854
G1 X217.809 Y214.921 E.08939
G1 X217 Y215.031 E.04727
G1 X113 Y215.031 E6.0195
M73 P3 R13
G1 X111.507 Y214.638 E.08939
G1 X110.857 Y214.143 E.04727
G1 X100.857 Y204.143 E.81854
G1 X100.079 Y202.809 E.08939
G1 X99.969 Y202 E.04727
G1 X99.969 Y118 E4.8619
G1 X100.362 Y116.507 E.08939
G1 X101.128 Y115.721 E.06353
G1 X101.48 Y116.12 F48000
G1 F3000
G1 X101.93 Y115.723 E.03474
G1 X103 Y115.484 E.06343
G1 X227 Y115.484 E7.1771
G1 X228.349 Y115.876 E.08129
G1 X229.277 Y116.93 E.08129
G1 X229.516 Y118 E.06343
G1 X229.516 Y202 E4.8619
G1 X228.779 Y203.779 E.11144
G1 X218.779 Y213.779 E.81854
G1 X217 Y214.516 E.11144
G1 X113 Y214.516 E6.0195
M73 P4 R13
G1 X111.221 Y213.779 E.11144
G1 X101.221 Y203.779 E.81854
G1 X100.484 Y202 E.11144
G1 X100.484 Y118 E4.8619
G1 X100.876 Y116.651 E.08129
G1 X101.435 Y116.16 E.04307
; printing object flowrate_m20 id:7 copy 0
G1 E-.35 F1800
;WIPE_START
G1 F3000
G1 X101.93 Y115.723 E-.09904
G1 X102.262 Y115.649 E-.05096
;WIPE_END
EXCLUDE_OBJECT_START NAME=flowrate_m20_id_7_copy_0
G1 X131.602 Y137.708 F48000
G1 E.5 F4800
;TYPE:Inner wall
;WIDTH:0.58
G1 F7200
G1 X131.579 Y137.868 E.00746
G1 X131.579 Y146.579 E.40335
G1 X114.421 Y146.579 E.79446
G1 X114.421 Y137.868 E.40335
G1 X114.367 Y137.497 E.01733
G1 X114.201 Y137.147 E.01797
G1 X113.906 Y136.837 E.01982
G1 X113.55 Y136.648 E.01862
G1 X113.132 Y136.579 E.01963
G1 X104.421 Y136.579 E.40335
G1 X104.421 Y119.421 E.79446
G1 X141.579 Y119.421 E1.72053
G1 X141.579 Y128 E.39723
G1 X141.579 Y136.579 E.39723
G1 X132.868 Y136.579 E.40335
G1 X132.45 Y136.648 E.01963
G1 X132.094 Y136.837 E.01862
G1 X131.799 Y137.147 E.01982
G1 X131.633 Y137.497 E.01797
G1 X131.604 Y137.696 E.00932
G1 X132.116 Y137.768 F48000
G1 F7200
G1 X132.094 Y137.868 E.00474
G1 X132.094 Y147.094 E.42723
G1 X113.906 Y147.094 E.84221
G1 X113.906 Y137.868 E.42723
G1 X113.856 Y137.596 E.01278
G1 X113.681 Y137.323 E.01502
G1 X113.441 Y137.159 E.01348
G1 X113.132 Y137.094 E.01461
G1 X103.906 Y137.094 E.42723
G1 X103.906 Y118.906 E.84221
G1 X142.094 Y118.906 E1.76829
G1 X142.094 Y128 E.4211
G1 X142.094 Y137.094 E.4211
G1 X133 Y137.094 E.4211
G1 X132.617 Y137.136 E.01784
G1 X132.359 Y137.285 E.01378
G1 X132.163 Y137.55 E.0153
G1 X132.118 Y137.756 E.00974
G1 X132.61 Y137.868 F48000
;TYPE:Outer wall
G1 F7200
G1 X132.61 Y147.61 E.4511
G1 X113.39 Y147.61 E.88996
G1 X113.389 Y137.845 E.45214
G1 X113.302 Y137.674 E.00892
G1 X113.132 Y137.61 E.00838
G1 X103.39 Y137.61 E.4511
G1 X103.39 Y118.39 E.88996
G1 X142.61 Y118.39 E1.81604
G1 X142.61 Y128 E.44498
G1 X142.61 Y137.61 E.44498
G1 X133 Y137.61 E.44498
G2 X132.673 Y137.7 I-.08 J.35 E.01637
G1 X132.614 Y137.857 E.00776
G1 E-.5 F1800
G1 X141.424 Y120.63 F48000
G1 E.5 F4800
;TYPE:Bottom surface
;WIDTH:0.585502
G1 X140.602 Y119.808 E.0544
G1 X139.865 Y119.808 E.03449
G1 X141.192 Y121.135 E.08782
G1 X141.192 Y121.872 E.03449
G1 X139.128 Y119.808 E.13659
G1 X138.391 Y119.808 E.03449
G1 X141.192 Y122.609 E.18537
G1 X141.192 Y123.346 E.03449
G1 X137.654 Y119.808 E.23414
G1 X136.917 Y119.808 E.03449
G1 X141.192 Y124.083 E.28292
G1 X141.192 Y124.82 E.03449
G1 X136.18 Y119.808 E.33169
G1 X135.443 Y119.808 E.03449
G1 X141.192 Y125.557 E.38047
G1 X141.192 Y126.294 E.03449
G1 X134.706 Y119.808 E.42924
G1 X133.969 Y119.808 E.03449
G1 X141.192 Y127.031 E.47801
G1 X141.192 Y127.768 E.03449
G1 X133.232 Y119.808 E.52679
G1 X132.495 Y119.808 E.03449
G1 X141.192 Y128.505 E.57556
G1 X141.192 Y129.242 E.03449
G1 X131.758 Y119.808 E.62434
M73 P5 R13
G1 X131.021 Y119.808 E.03449
G1 X141.192 Y129.979 E.67311
G1 X141.192 Y130.716 E.03449
G1 X130.284 Y119.808 E.72189
G1 X129.547 Y119.808 E.03449
G1 X141.192 Y131.453 E.77066
G1 X141.192 Y132.189 E.03449
G1 X128.811 Y119.808 E.81944
G1 X128.074 Y119.808 E.03449
G1 X141.192 Y132.926 E.86821
G1 X141.192 Y133.663 E.03449
G1 X127.337 Y119.808 E.91699
G1 X126.6 Y119.808 E.03449
G1 X141.192 Y134.4 E.96576
G1 X141.192 Y135.137 E.03449
G1 X125.863 Y119.808 E1.01454
G1 X125.126 Y119.808 E.03449
G1 X141.192 Y135.874 E1.06331
G1 X141.192 Y136.192 E.01487
G1 X140.773 Y136.192 E.01961
G1 X124.389 Y119.808 E1.08436
G1 X123.652 Y119.808 E.03449
G1 X140.037 Y136.193 E1.08439
G1 X139.3 Y136.193 E.03447
G1 X122.915 Y119.808 E1.08442
G1 X122.178 Y119.808 E.03449
G1 X138.564 Y136.194 E1.08445
G1 X137.827 Y136.194 E.03447
G1 X121.441 Y119.808 E1.08448
G1 X120.704 Y119.808 E.03449
G1 X137.091 Y136.195 E1.08451
G1 X136.354 Y136.195 E.03447
G1 X119.967 Y119.808 E1.08454
G1 X119.23 Y119.808 E.03449
G1 X135.617 Y136.196 E1.08457
G1 X134.881 Y136.196 E.03447
G1 X118.493 Y119.808 E1.0846
G1 X117.756 Y119.808 E.03449
G1 X134.144 Y136.197 E1.08463
G1 X133.408 Y136.197 E.03447
G1 X117.019 Y119.808 E1.08466
G1 X116.282 Y119.808 E.03449
G1 X132.68 Y136.206 E1.08523
G2 X132.113 Y136.376 I.218 J1.746 E.02781
G1 X115.545 Y119.808 E1.09654
G1 X114.808 Y119.808 E.03449
G1 X131.678 Y136.687 E1.11679
G2 X131.376 Y137.113 I1.027 J1.047 E.02459
G1 X114.071 Y119.808 E1.14531
G1 X113.334 Y119.808 E.03449
G1 X131.206 Y137.68 E1.18279
G1 X131.196 Y138.407 E.03404
G1 X112.597 Y119.808 E1.23092
G1 X111.86 Y119.808 E.03449
G1 X131.196 Y139.144 E1.27967
G1 X131.195 Y139.88 E.03447
G1 X111.123 Y119.808 E1.32842
M73 P6 R13
G1 X110.386 Y119.808 E.03449
G1 X131.195 Y140.617 E1.37717
G1 X131.195 Y141.353 E.03447
G1 X109.649 Y119.808 E1.42592
G1 X108.912 Y119.808 E.03449
G1 X131.194 Y142.09 E1.47468
G1 X131.194 Y142.827 E.03447
G1 X108.175 Y119.808 E1.52343
G1 X107.438 Y119.808 E.03449
G1 X131.193 Y143.563 E1.57218
G1 X131.193 Y144.3 E.03447
G1 X106.701 Y119.808 E1.62093
G1 X105.964 Y119.808 E.03449
G1 X131.193 Y145.036 E1.66968
G1 X131.192 Y145.773 E.03447
G1 X105.227 Y119.808 E1.71843
G1 X104.808 Y119.808 E.01962
G1 X104.808 Y120.126 E.01487
G1 X130.874 Y146.192 E1.72514
G1 X130.137 Y146.192 E.03449
G1 X104.808 Y120.863 E1.67636
G1 X104.808 Y121.6 E.03449
G1 X129.4 Y146.192 E1.62759
G1 X128.663 Y146.192 E.03449
G1 X104.808 Y122.337 E1.57881
G1 X104.808 Y123.074 E.03449
G1 X127.926 Y146.192 E1.53004
G1 X127.19 Y146.192 E.03449
G1 X104.808 Y123.81 E1.48126
G1 X104.808 Y124.547 E.03449
G1 X126.453 Y146.192 E1.43249
G1 X125.716 Y146.192 E.03449
G1 X104.808 Y125.284 E1.38371
G1 X104.808 Y126.021 E.03449
G1 X124.979 Y146.192 E1.33494
G1 X124.242 Y146.192 E.03449
G1 X104.808 Y126.758 E1.28616
M73 P6 R12
G1 X104.808 Y127.495 E.03449
G1 X123.505 Y146.192 E1.23739
G1 X122.768 Y146.192 E.03449
M73 P7 R12
G1 X114.804 Y138.228 E.52706
G1 X114.804 Y138.966 E.03451
G1 X122.031 Y146.192 E.47826
G1 X121.294 Y146.192 E.03449
G1 X114.805 Y139.703 E.42946
G1 X114.805 Y140.44 E.03451
G1 X120.557 Y146.192 E.38066
G1 X119.82 Y146.192 E.03449
G1 X114.805 Y141.178 E.33186
G1 X114.806 Y141.915 E.03451
G1 X119.083 Y146.192 E.28306
G1 X118.346 Y146.192 E.03449
G1 X114.806 Y142.652 E.23427
G1 X114.806 Y143.39 E.03451
G1 X117.609 Y146.192 E.18547
G1 X116.872 Y146.192 E.03449
G1 X114.807 Y144.127 E.13667
G1 X114.807 Y144.864 E.03451
G1 X116.135 Y146.192 E.08787
G1 X115.398 Y146.192 E.03449
G1 X114.575 Y145.37 E.05443
G1 E-.5 F1800
G1 X113.774 Y145.37 F48000
G1 X113.773 Y137.227
G1 X113.005 Y137.226
G1 X113.005 Y136.429
G1 E.5 F4800
G1 X104.808 Y128.232 E.54249
G1 X104.808 Y128.969 E.03449
G1 X112.035 Y136.197 E.47832
G1 X111.298 Y136.196 E.03451
G1 X104.808 Y129.706 E.42951
G1 X104.808 Y130.443 E.03449
G1 X110.56 Y136.196 E.38071
G1 X109.823 Y136.195 E.03451
G1 X104.808 Y131.18 E.3319
G1 X104.808 Y131.917 E.03449
G1 X109.086 Y136.195 E.2831
G1 X108.348 Y136.194 E.03451
G1 X104.808 Y132.654 E.23429
G1 X104.808 Y133.391 E.03449
G1 X107.611 Y136.194 E.18549
G1 X106.873 Y136.193 E.03451
G1 X104.808 Y134.128 E.13668
G1 X104.808 Y134.865 E.03449
G1 X106.136 Y136.193 E.08788
G1 X105.398 Y136.192 E.03451
G1 X104.576 Y135.37 E.05443
; stop printing object flowrate_m20 id:7 copy 0
; printing object flowrate_5 id:4 copy 0
G1 E-.35 F1800
;WIPE_START
G1 F4800
G1 X105.283 Y136.077 E-.15
;WIPE_END
EXCLUDE_OBJECT_END NAME=flowrate_m20_id_7_copy_0
EXCLUDE_OBJECT_START NAME=flowrate_5_id_4_copy_0
G1 X114.39 Y169.656 F48000
G1 E.5 F4800
;TYPE:Inner wall
;WIDTH:0.58
G1 F7200
G1 X114.367 Y169.497 E.00975
G1 X114.201 Y169.147 E.02359
G1 X113.906 Y168.837 E.02601
G1 X113.55 Y168.648 E.02444
G1 X113.132 Y168.579 E.02576
G1 X104.421 Y168.579 E.5294
G1 X104.421 Y151.421 E1.04273
G1 X118.888 Y151.421 E.87922
G1 X141.579 Y151.421 E1.37898
G1 X141.579 Y168.579 E1.04273
G1 X132.868 Y168.579 E.5294
G1 X132.45 Y168.648 E.02576
G1 X132.094 Y168.837 E.02444
G1 X131.799 Y169.147 E.02601
G1 X131.633 Y169.497 E.02359
G1 X131.579 Y169.868 E.02275
G1 X131.579 Y178.579 E.5294
G1 X114.421 Y178.579 E1.04273
G1 X114.421 Y169.868 E.5294
G1 X114.392 Y169.668 E.01228
G1 X113.883 Y169.743 F48000
G1 F7200
G1 X113.856 Y169.596 E.00904
G1 X113.681 Y169.323 E.01971
G1 X113.441 Y169.159 E.0177
G1 X113.132 Y169.094 E.01917
G1 X103.906 Y169.094 E.56073
G1 X103.906 Y150.906 E1.1054
G1 X118.888 Y150.906 E.91056
G1 X142.094 Y150.906 E1.41031
G1 X142.094 Y169.094 E1.1054
G1 X133 Y169.094 E.5527
G1 X132.617 Y169.136 E.02342
G1 X132.359 Y169.285 E.01809
G1 X132.163 Y169.55 E.02007
G1 X132.094 Y169.868 E.01973
G1 X132.094 Y179.094 E.56073
G1 X113.906 Y179.094 E1.1054
G1 X113.906 Y169.868 E.56073
G1 X113.885 Y169.754 E.007
G1 X113.389 Y169.845 F48000
;TYPE:Outer wall
G1 F7200
G1 X113.302 Y169.674 E.01171
G1 X113.132 Y169.61 E.011
G1 X103.39 Y169.61 E.59207
G1 X103.39 Y150.39 E1.16807
G1 X118.888 Y150.39 E.9419
G1 X142.61 Y150.39 E1.44165
G1 X142.61 Y169.61 E1.16807
G1 X133 Y169.61 E.58404
G2 X132.673 Y169.7 I-.08 J.35 E.02149
G1 X132.61 Y169.868 E.01091
G1 X132.61 Y179.61 E.59207
G1 X113.39 Y179.61 E1.16807
G1 X113.389 Y169.857 E.59271
G1 E-.5 F1800
G1 X141.424 Y152.63 F48000
G1 E.5 F4800
;TYPE:Bottom surface
;WIDTH:0.585502
G1 X140.602 Y151.808 E.0714
G1 X139.865 Y151.808 E.04527
G1 X141.192 Y153.135 E.11526
G1 X141.192 Y153.872 E.04527
G1 X139.128 Y151.808 E.17928
G1 X138.391 Y151.808 E.04527
G1 X141.192 Y154.609 E.24329
G1 X141.192 Y155.346 E.04527
G1 X137.654 Y151.808 E.30731
G1 X136.917 Y151.808 E.04527
G1 X141.192 Y156.083 E.37133
G1 X141.192 Y156.82 E.04527
G1 X136.18 Y151.808 E.43534
G1 X135.443 Y151.808 E.04527
G1 X141.192 Y157.557 E.49936
G1 X141.192 Y158.294 E.04527
G1 X134.706 Y151.808 E.56338
G1 X133.969 Y151.808 E.04527
G1 X141.192 Y159.031 E.62739
G1 X141.192 Y159.768 E.04527
G1 X133.232 Y151.808 E.69141
