; HEADER_BLOCK_START
; generated by OrcaSlicer 1.6.3 on 2023-11-04 at 16:22:24
; total layer number: 7
; HEADER_BLOCK_END

; THUMBNAIL_BLOCK_START
; THUMBNAIL_BLOCK_END

; external perimeters extrusion width = 0.62mm
; perimeters extrusion width = 0.62mm
; infill extrusion width = 0.65mm
; solid infill extrusion width = 0.72mm
; top infill extrusion width = 0.72mm
; first layer extrusion width = 0.68mm

; external perimeters extrusion width = 0.62mm
; perimeters extrusion width = 0.62mm
; infill extrusion width = 0.65mm
; solid infill extrusion width = 0.72mm
; top infill extrusion width = 0.72mm
; first layer extrusion width = 0.68mm

; external perimeters extrusion width = 0.62mm
; perimeters extrusion width = 0.62mm
; infill extrusion width = 0.65mm
; solid infill extrusion width = 0.72mm
; top infill extrusion width = 0.72mm
; first layer extrusion width = 0.68mm

; external perimeters extrusion width = 0.62mm
; perimeters extrusion width = 0.62mm
; infill extrusion width = 0.65mm
; solid infill extrusion width = 0.72mm
; top infill extrusion width = 0.72mm
; first layer extrusion width = 0.68mm

; external perimeters extrusion width = 0.62mm
; perimeters extrusion width = 0.62mm
; infill extrusion width = 0.65mm
; solid infill extrusion width = 0.72mm
; top infill extrusion width = 0.72mm
; first layer extrusion width = 0.68mm

; external perimeters extrusion width = 0.62mm
; perimeters extrusion width = 0.62mm
; infill extrusion width = 0.65mm
; solid infill extrusion width = 0.72mm
; top infill extrusion width = 0.72mm
; first layer extrusion width = 0.68mm

; external perimeters extrusion width = 0.62mm
; perimeters extrusion width = 0.62mm
; infill extrusion width = 0.65mm
; solid infill extrusion width = 0.72mm
; top infill extrusion width = 0.72mm
; first layer extrusion width = 0.68mm

; external perimeters extrusion width = 0.62mm
; perimeters extrusion width = 0.62mm
; infill extrusion width = 0.65mm
; solid infill extrusion width = 0.72mm
; top infill extrusion width = 0.72mm
; first layer extrusion width = 0.68mm

; external perimeters extrusion width = 0.62mm
; perimeters extrusion width = 0.62mm
; infill extrusion width = 0.65mm
; solid infill extrusion width = 0.72mm
; top infill extrusion width = 0.72mm
; first layer extrusion width = 0.68mm

; external perimeters extrusion width = 0.62mm
; perimeters extrusion width = 0.62mm
; infill extrusion width = 0.65mm
; solid infill extrusion width = 0.72mm
; top infill extrusion width = 0.72mm
; first layer extrusion width = 0.68mm

; EXECUTABLE_BLOCK_START
EXCLUDE_OBJECT_DEFINE NAME=flowrate_0_id_0_copy_0 CENTER=165,213 POLYGON=[[145,198],[185,198],[185,218],[175,228],[155,228],[145,218],[145,198]]
EXCLUDE_OBJECT_DEFINE NAME=flowrate_m1_id_1_copy_0 CENTER=123,181 POLYGON=[[103,166],[143,166],[143,186],[133,196],[113,196],[103,186],[103,166]]
EXCLUDE_OBJECT_DEFINE NAME=flowrate_m2_id_2_copy_0 CENTER=165,181 POLYGON=[[145,166],[185,166],[185,186],[175,196],[155,196],[145,186],[145,166]]
EXCLUDE_OBJECT_DEFINE NAME=flowrate_m3_id_3_copy_0 CENTER=207,181 POLYGON=[[187,166],[227,166],[227,186],[217,196],[197,196],[187,186],[187,166]]
EXCLUDE_OBJECT_DEFINE NAME=flowrate_m4_id_4_copy_0 CENTER=123,149 POLYGON=[[103,134],[143,134],[143,154],[133,164],[113,164],[103,154],[103,134]]
EXCLUDE_OBJECT_DEFINE NAME=flowrate_m5_id_5_copy_0 CENTER=165,149 POLYGON=[[145,134],[185,134],[185,154],[175,164],[155,164],[145,154],[145,134]]
EXCLUDE_OBJECT_DEFINE NAME=flowrate_m6_id_6_copy_0 CENTER=207,149 POLYGON=[[187,134],[227,134],[227,154],[217,164],[197,164],[187,154],[187,134]]
EXCLUDE_OBJECT_DEFINE NAME=flowrate_m7_id_7_copy_0 CENTER=207,117 POLYGON=[[187,102],[227,102],[227,122],[217,132],[197,132],[187,122],[187,102]]
EXCLUDE_OBJECT_DEFINE NAME=flowrate_m8_id_8_copy_0 CENTER=165,117 POLYGON=[[145,102],[185,102],[185,122],[175,132],[155,132],[145,122],[145,102]]
EXCLUDE_OBJECT_DEFINE NAME=flowrate_m9_id_9_copy_0 CENTER=123,117 POLYGON=[[103,102],[143,102],[143,122],[133,132],[113,132],[103,122],[103,102]]
M73 P0 R13
;TYPE:Custom
M104 S0
M140 S0
START_PRINT BED=75 HOTEND=240
G90
G21
M83 ; use relative distances for extrusion
; filament start gcode
SET_PRESSURE_ADVANCE ADVANCE=0.04; Override pressure advance value
M106 S0
;LAYER_CHANGE
;Z:0.3
;HEIGHT:0.3
;BEFORE_LAYER_CHANGE
;0.3
G92 E0

;DSLR_SNAPSHOT
TIMELAPSE_TAKE_FRAME
M204 S5000
G1 E-.4 F4200
G1 X100.777 Y100.622 F48000
G1 Z.3
G1 E.4 F4200
;TYPE:Skirt
;WIDTH:0.68
G1 F7200
G1 X101.836 Y99.658 E.1078
G1 X103 Y99.384 E.08996
G1 X227 Y99.384 E9.33072
M73 P0 R12
G1 X228.378 Y99.777 E.1078
G1 X229.342 Y100.836 E.1078
G1 X229.616 Y102 E.08996
G1 X229.616 Y186 E6.32081
G1 X228.85 Y187.85 E.15064
G1 X218.585 Y198.081 E1.09052
G1 X176.585 Y230.081 E3.9732
G1 X175 Y230.616 E.12589
G1 X155 Y230.616 E1.50496
G1 X153.415 Y230.081 E.12589
G1 X111.415 Y198.081 E3.9732
G1 X101.15 Y187.85 E1.09052
G1 X100.384 Y186 E.15064
G1 X100.384 Y102 E6.32081
G1 X100.752 Y100.709 E.10103
; printing object flowrate_m3 id:3 copy 0
EXCLUDE_OBJECT_START NAME=flowrate_m3_id_3_copy_0
G1 E-.4 F4200
G1 X198.586 Y185.406 F48000
G1 E.4 F4200
;TYPE:Inner wall
;WIDTH:0.68
G1 F7200
G1 X198.536 Y185.236 E.01291
G1 X198.298 Y184.863 E.03229
G1 X197.96 Y184.57 E.03268
G1 X197.511 Y184.376 E.03567
G1 X197.132 Y184.329 E.02787
G1 X188.671 Y184.329 E.61757
G1 X188.671 Y167.671 E1.21584
G1 X225.329 Y167.671 E2.67564
G1 X225.329 Y176 E.60792
G1 X225.329 Y184.329 E.60792
G1 X217 Y184.329 E.60792
G2 X215.856 Y184.708 I-.06 J1.733 E.08986
G1 X215.592 Y185.007 E.02907
G1 X215.394 Y185.426 E.03383
G1 X215.329 Y185.868 E.03263
G1 X215.329 Y194.329 E.61757
G1 X198.671 Y194.329 E1.21584
G1 X198.671 Y186 E.60792
G1 X198.654 Y185.64 E.02634
G1 X198.589 Y185.418 E.01689
G1 X198.004 Y185.604 F48000
G1 F7200
G1 X197.966 Y185.493 E.0086
G2 X197.501 Y185.021 I-.896 J.419 E.0493
G1 X197.132 Y184.944 E.02749
G1 X188.056 Y184.944 E.6625
G1 X188.056 Y167.056 E1.30571
G1 X225.944 Y167.056 E2.76551
G1 X225.944 Y176 E.65285
G1 X225.944 Y184.944 E.65285
G1 X216.791 Y184.948 E.66811
G1 X216.433 Y185.053 E.02722
G1 X216.168 Y185.265 E.02477
G1 X216.003 Y185.544 E.02364
G1 X215.944 Y185.868 E.02405
G1 X215.944 Y194.944 E.6625
G1 X198.056 Y194.944 E1.30571
G1 X198.056 Y186 E.65285
M73 P1 R12
G2 X198.053 Y185.799 I-.986 J-.088 E.01472
G1 X198.007 Y185.616 E.01376
G1 X197.427 Y185.779 F48000
;TYPE:Outer wall
G1 F7200
G1 X197.317 Y185.622 E.01405
G1 X197.132 Y185.56 E.01421
G1 X187.44 Y185.56 E.70744
G1 X187.44 Y166.44 E1.39557
G1 X226.56 Y166.44 E2.85538
G1 X226.56 Y176 E.69779
G1 X226.56 Y185.56 E.69779
G1 X217 Y185.56 E.69779
G1 X216.792 Y185.569 E.01519
G1 X216.622 Y185.683 E.01495
G1 X216.56 Y185.868 E.01421
G1 X216.56 Y195.56 E.70744
G1 X197.44 Y195.56 E1.39557
G1 X197.44 Y186 E.69779
G1 X197.428 Y185.791 E.01526
G1 X197.45 Y185.749
G1 E-.4 F4200
G1 X225.144 Y169.112 F48000
G1 E.4 F4200
;TYPE:Bottom surface
;WIDTH:0.685449
G1 F7200
G1 X224.165 Y168.133 E.10195
G1 X223.287 Y168.133 E.06468
G1 X224.867 Y169.713 E.16456
G1 X224.867 Y170.592 E.06468
G1 X222.408 Y168.133 E.25603
G1 X221.53 Y168.133 E.06468
G1 X224.867 Y171.47 E.3475
G1 X224.867 Y172.348 E.06468
G1 X220.652 Y168.133 E.43896
G1 X219.774 Y168.133 E.06468
G1 X224.867 Y173.226 E.53043
G1 X224.867 Y174.105 E.06468
G1 X218.895 Y168.133 E.6219
G1 X218.017 Y168.133 E.06468
G1 X224.867 Y174.983 E.71336
G1 X224.867 Y175.861 E.06468
G1 X217.139 Y168.133 E.80483
G1 X216.26 Y168.133 E.06468
G1 X224.867 Y176.74 E.8963
G1 X224.867 Y177.618 E.06468
G1 X215.382 Y168.133 E.98776
G1 X214.504 Y168.133 E.06468
G1 X224.867 Y178.496 E1.07923
G1 X224.867 Y179.375 E.06468
G1 X213.625 Y168.133 E1.17069
G1 X212.747 Y168.133 E.06468
G1 X224.867 Y180.253 E1.26216
G1 X224.867 Y181.131 E.06468
G1 X211.869 Y168.133 E1.35363
G1 X210.99 Y168.133 E.06468
G1 X224.867 Y182.01 E1.44509
G1 X224.867 Y182.888 E.06468
G1 X210.112 Y168.133 E1.53656
G1 X209.234 Y168.133 E.06468
G1 X224.867 Y183.766 E1.62803
G1 X224.867 Y183.867 E.00742
G1 X224.09 Y183.868 E.05721
G1 X208.355 Y168.133 E1.63859
G1 X207.477 Y168.133 E.06468
G1 X223.213 Y183.868 E1.63866
G1 X222.335 Y183.869 E.06463
G1 X206.599 Y168.133 E1.63873
G1 X205.72 Y168.133 E.06468
G1 X221.457 Y183.87 E1.6388
G1 X220.58 Y183.87 E.06463
G1 X204.842 Y168.133 E1.63887
G1 X203.964 Y168.133 E.06468
G1 X219.702 Y183.871 E1.63894
G1 X218.824 Y183.872 E.06463
G1 X203.085 Y168.133 E1.63901
G1 X202.207 Y168.133 E.06468
G1 X217.947 Y183.873 E1.63908
G1 X217.069 Y183.873 E.06463
G1 X201.329 Y168.133 E1.63915
G1 X200.45 Y168.133 E.06468
G1 X216.279 Y183.961 E1.64831
G2 X215.696 Y184.257 I.546 J1.796 E.04835
G1 X199.572 Y168.133 E1.67912
G1 X198.694 Y168.133 E.06468
G1 X215.254 Y184.693 E1.72454
G1 X215.209 Y184.748 E.00518
G2 X214.964 Y185.282 I1.295 J.918 E.04352
G1 X197.815 Y168.133 E1.78582
G1 X196.937 Y168.133 E.06468
G1 X214.872 Y186.068 E1.8677
G1 X214.871 Y186.946 E.06464
G1 X196.059 Y168.133 E1.95911
M73 P2 R12
G1 X195.18 Y168.133 E.06468
G1 X214.871 Y187.823 E2.05052
G1 X214.87 Y188.701 E.06464
G1 X194.302 Y168.133 E2.14192
G1 X193.424 Y168.133 E.06468
G1 X214.87 Y189.579 E2.23333
G1 X214.869 Y190.457 E.06464
G1 X192.546 Y168.133 E2.32474
G1 X191.667 Y168.133 E.06468
G1 X214.869 Y191.334 E2.41615
G1 X214.868 Y192.212 E.06464
G1 X190.789 Y168.133 E2.50756
G1 X189.911 Y168.133 E.06468
G1 X214.868 Y193.09 E2.59897
G1 X214.867 Y193.867 E.05722
G1 X214.766 Y193.867 E.00742
G1 X189.133 Y168.234 E2.6694
G1 X189.133 Y169.112 E.06468
G1 X213.888 Y193.867 E2.57793
G1 X213.01 Y193.867 E.06468
G1 X189.133 Y169.99 E2.48646
G1 X189.133 Y170.869 E.06468
G1 X212.131 Y193.867 E2.395
G1 X211.253 Y193.867 E.06468
G1 X189.133 Y171.747 E2.30353
G1 X189.133 Y172.625 E.06468
G1 X210.375 Y193.867 E2.21207
G1 X209.496 Y193.867 E.06468
G1 X189.133 Y173.504 E2.1206
G1 X189.133 Y174.382 E.06468
G1 X208.618 Y193.867 E2.02913
G1 X207.74 Y193.867 E.06468
G1 X189.133 Y175.26 E1.93767
G1 X189.133 Y176.139 E.06468
G1 X196.868 Y183.873 E.80546
G1 X195.989 Y183.872 E.06473
G1 X189.133 Y177.017 E.71392
G1 X189.133 Y177.895 E.06468
G1 X195.11 Y183.872 E.62238
G1 X194.231 Y183.871 E.06473
G1 X189.133 Y178.774 E.53085
G1 X189.133 Y179.652 E.06468
G1 X193.352 Y183.87 E.43931
G1 X192.473 Y183.87 E.06473
G1 X189.133 Y180.53 E.34777
G1 X189.133 Y181.409 E.06468
G1 X191.594 Y183.869 E.25624
G1 X190.715 Y183.868 E.06473
G1 X189.133 Y182.287 E.1647
G1 X189.133 Y183.165 E.06468
G1 X190.113 Y184.145 E.10203
G1 E-.4 F4200
G1 X198.851 Y185.856 F48000
G1 E.4 F4200
G1 F7200
G1 X206.861 Y193.867 E.8342
G1 X205.983 Y193.867 E.06468
G1 X199.129 Y187.013 E.71381
G1 X199.129 Y187.891 E.06472
G1 X205.105 Y193.867 E.62229
G1 X204.226 Y193.867 E.06468
G1 X199.13 Y188.77 E.53077
G1 X199.13 Y189.649 E.06472
G1 X203.348 Y193.867 E.43924
G1 X202.47 Y193.867 E.06468
G1 X199.131 Y190.528 E.34772
G1 X199.131 Y191.407 E.06472
G1 X201.591 Y193.867 E.2562
G1 X200.713 Y193.867 E.06468
G1 X199.132 Y192.286 E.16467
G1 X199.132 Y193.165 E.06472
G1 X200.112 Y194.144 E.102
; stop printing object flowrate_m3 id:3 copy 0
EXCLUDE_OBJECT_END NAME=flowrate_m3_id_3_copy_0
; printing object flowrate_m6 id:6 copy 0
EXCLUDE_OBJECT_START NAME=flowrate_m6_id_6_copy_0
G1 E-.4 F4200
G1 X215.671 Y152.918 F48000
G1 E.4 F4200
;TYPE:Inner wall
;WIDTH:0.68
G1 F7200
G1 X215.592 Y153.007 E.0084
G1 X215.394 Y153.426 E.03278
G1 X215.329 Y153.868 E.03162
G1 X215.329 Y162.329 E.59847
G1 X198.671 Y162.329 E1.17823
G1 X198.671 Y154 E.58912
G1 X198.654 Y153.64 E.02553
G1 X198.536 Y153.236 E.02973
G1 X198.298 Y152.863 E.03129
G1 X197.96 Y152.57 E.03167
G1 X197.511 Y152.376 E.03457
G1 X197.132 Y152.329 E.02701
G1 X188.671 Y152.329 E.59847
G1 X188.671 Y135.671 E1.17823
M73 P3 R12
G1 X225.329 Y135.671 E2.59289
G1 X225.329 Y144 E.58912
G1 X225.329 Y152.329 E.58912
G1 X217 Y152.329 E.58912
G2 X215.856 Y152.708 I-.06 J1.733 E.08708
G1 X215.679 Y152.909 E.01892
G1 X216.126 Y153.337 F48000
G1 F7200
G1 X216.003 Y153.544 E.01702
G1 X215.944 Y153.868 E.02331
G1 X215.944 Y162.944 E.64201
G1 X198.056 Y162.944 E1.26532
G1 X198.056 Y154 E.63266
G2 X197.501 Y153.021 I-.986 J-.088 E.08464
G1 X197.132 Y152.944 E.02664
G1 X188.056 Y152.944 E.64201
G1 X188.056 Y135.056 E1.26532
G1 X225.944 Y135.056 E2.67998
G1 X225.944 Y144 E.63266
G1 X225.944 Y152.944 E.63266
G1 X216.791 Y152.948 E.64745
G1 X216.433 Y153.053 E.02638
G1 X216.168 Y153.265 E.024
G1 X216.132 Y153.326 E.00504
G1 X216.622 Y153.683 F48000
;TYPE:Outer wall
G1 F7200
G1 X216.56 Y153.868 E.01377
G1 X216.56 Y163.56 E.68556
G1 X197.44 Y163.56 E1.35241
G1 X197.44 Y154 E.67621
G1 X197.427 Y153.779 E.01563
G1 X197.317 Y153.622 E.01361
G1 X197.132 Y153.56 E.01377
G1 X187.44 Y153.56 E.68556
G1 X187.44 Y134.44 E1.35241
G1 X226.56 Y134.44 E2.76707
G1 X226.56 Y144 E.67621
G1 X226.56 Y153.56 E.67621
G1 X217 Y153.56 E.67621
G1 X216.792 Y153.569 E.01472
G1 X216.632 Y153.676 E.01364
G1 X216.583 Y153.679
G1 E-.4 F4200
G1 X225.144 Y137.112 F48000
G1 E.4 F4200
;TYPE:Bottom surface
;WIDTH:0.685449
G1 F7200
G1 X224.165 Y136.133 E.09879
G1 X223.287 Y136.133 E.06268
G1 X224.867 Y137.713 E.15947
G1 X224.867 Y138.592 E.06268
G1 X222.408 Y136.133 E.24811
G1 X221.53 Y136.133 E.06268
G1 X224.867 Y139.47 E.33675
G1 X224.867 Y140.348 E.06268
G1 X220.652 Y136.133 E.42539
G1 X219.774 Y136.133 E.06268
G1 X224.867 Y141.226 E.51402
G1 X224.867 Y142.105 E.06268
G1 X218.895 Y136.133 E.60266
G1 X218.017 Y136.133 E.06268
G1 X224.867 Y142.983 E.6913
G1 X224.867 Y143.861 E.06268
G1 X217.139 Y136.133 E.77994
G1 X216.26 Y136.133 E.06268
G1 X224.867 Y144.74 E.86857
G1 X224.867 Y145.618 E.06268
G1 X215.382 Y136.133 E.95721
G1 X214.504 Y136.133 E.06268
G1 X224.867 Y146.496 E1.04585
G1 X224.867 Y147.375 E.06268
G1 X213.625 Y136.133 E1.13449
G1 X212.747 Y136.133 E.06268
G1 X224.867 Y148.253 E1.22312
G1 X224.867 Y149.131 E.06268
G1 X211.869 Y136.133 E1.31176
G1 X210.99 Y136.133 E.06268
G1 X224.867 Y150.01 E1.4004
G1 X224.867 Y150.888 E.06268
G1 X210.112 Y136.133 E1.48904
G1 X209.234 Y136.133 E.06268
G1 X224.867 Y151.766 E1.57767
G1 X224.867 Y151.867 E.00719
G1 X224.09 Y151.868 E.05544
G1 X208.355 Y136.133 E1.58791
G1 X207.477 Y136.133 E.06268
G1 X223.213 Y151.868 E1.58798
G1 X222.335 Y151.869 E.06263
G1 X206.599 Y136.133 E1.58805
G1 X205.72 Y136.133 E.06268
G1 X221.457 Y151.87 E1.58811
G1 X220.58 Y151.87 E.06263
G1 X204.842 Y136.133 E1.58818
G1 X203.964 Y136.133 E.06268
G1 X219.702 Y151.871 E1.58825
G1 X218.824 Y151.872 E.06263
M73 P4 R12
G1 X203.085 Y136.133 E1.58832
G1 X202.207 Y136.133 E.06268
G1 X217.947 Y151.873 E1.58839
G1 X217.069 Y151.873 E.06263
G1 X201.329 Y136.133 E1.58845
G1 X200.45 Y136.133 E.06268
G1 X216.279 Y151.961 E1.59733
G2 X215.696 Y152.257 I.546 J1.796 E.04686
G1 X199.572 Y136.133 E1.62719
G1 X198.694 Y136.133 E.06268
G1 X215.254 Y152.693 E1.67121
G1 X215.209 Y152.748 E.00502
G2 X214.964 Y153.282 I1.295 J.918 E.04218
G1 X197.815 Y136.133 E1.73059
G1 X196.937 Y136.133 E.06268
G1 X214.872 Y154.068 E1.80993
G1 X214.871 Y154.946 E.06264
G1 X196.059 Y136.133 E1.89851
G1 X195.18 Y136.133 E.06268
G1 X214.871 Y155.823 E1.9871
G1 X214.87 Y156.701 E.06264
G1 X194.302 Y136.133 E2.07568
G1 X193.424 Y136.133 E.06268
G1 X214.87 Y157.579 E2.16426
G1 X214.869 Y158.457 E.06264
G1 X192.546 Y136.133 E2.25284
G1 X191.667 Y136.133 E.06268
G1 X214.869 Y159.334 E2.34143
G1 X214.868 Y160.212 E.06264
G1 X190.789 Y136.133 E2.43001
G1 X189.911 Y136.133 E.06268
G1 X214.868 Y161.09 E2.51859
G1 X214.867 Y161.867 E.05545
G1 X214.766 Y161.867 E.00719
G1 X189.133 Y136.234 E2.58684
G1 X189.133 Y137.112 E.06268
G1 X213.888 Y161.867 E2.4982
G1 X213.01 Y161.867 E.06268
G1 X189.133 Y137.99 E2.40956
G1 X189.133 Y138.869 E.06268
G1 X212.131 Y161.867 E2.32093
G1 X211.253 Y161.867 E.06268
G1 X189.133 Y139.747 E2.23229
G1 X189.133 Y140.625 E.06268
G1 X210.375 Y161.867 E2.14365
G1 X209.496 Y161.867 E.06268
G1 X189.133 Y141.504 E2.05501
G1 X189.133 Y142.382 E.06268
G1 X208.618 Y161.867 E1.96638
G1 X207.74 Y161.867 E.06268
G1 X189.133 Y143.26 E1.87774
G1 X189.133 Y144.139 E.06268
G1 X196.868 Y151.873 E.78055
G1 X195.989 Y151.872 E.06272
G1 X189.133 Y145.017 E.69184
G1 X189.133 Y145.895 E.06268
G1 X195.11 Y151.872 E.60314
