; HEADER_BLOCK_START
; generated by OrcaSlicer 1.8.1 on 2023-12-14 at 22:54:09
; total layer number: 7
; HEADER_BLOCK_END

; THUMBNAIL_BLOCK_START

;
; THUMBNAIL_BLOCK_END

; external perimeters extrusion width = 0.52mm
; perimeters extrusion width = 0.52mm
; infill extrusion width = 0.55mm
; solid infill extrusion width = 0.60mm
; top infill extrusion width = 0.60mm
; first layer extrusion width = 0.58mm

; external perimeters extrusion width = 0.52mm
; perimeters extrusion width = 0.52mm
; infill extrusion width = 0.55mm
; solid infill extrusion width = 0.60mm
; top infill extrusion width = 0.60mm
; first layer extrusion width = 0.58mm

; external perimeters extrusion width = 0.52mm
; perimeters extrusion width = 0.52mm
; infill extrusion width = 0.55mm
; solid infill extrusion width = 0.60mm
; top infill extrusion width = 0.60mm
; first layer extrusion width = 0.58mm

; external perimeters extrusion width = 0.52mm
; perimeters extrusion width = 0.52mm
; infill extrusion width = 0.55mm
; solid infill extrusion width = 0.60mm
; top infill extrusion width = 0.60mm
; first layer extrusion width = 0.58mm

; external perimeters extrusion width = 0.52mm
; perimeters extrusion width = 0.52mm
; infill extrusion width = 0.55mm
; solid infill extrusion width = 0.60mm
; top infill extrusion width = 0.60mm
; first layer extrusion width = 0.58mm

; external perimeters extrusion width = 0.52mm
; perimeters extrusion width = 0.52mm
; infill extrusion width = 0.55mm
; solid infill extrusion width = 0.60mm
; top infill extrusion width = 0.60mm
; first layer extrusion width = 0.58mm

; external perimeters extrusion width = 0.52mm
; perimeters extrusion width = 0.52mm
; infill extrusion width = 0.55mm
; solid infill extrusion width = 0.60mm
; top infill extrusion width = 0.60mm
; first layer extrusion width = 0.58mm

; external perimeters extrusion width = 0.52mm
; perimeters extrusion width = 0.52mm
; infill extrusion width = 0.55mm
; solid infill extrusion width = 0.60mm
; top infill extrusion width = 0.60mm
; first layer extrusion width = 0.58mm

; external perimeters extrusion width = 0.52mm
; perimeters extrusion width = 0.52mm
; infill extrusion width = 0.55mm
; solid infill extrusion width = 0.60mm
; top infill extrusion width = 0.60mm
; first layer extrusion width = 0.58mm

; EXECUTABLE_BLOCK_START
EXCLUDE_OBJECT_DEFINE NAME=flowrate_0_id_0_copy_0 CENTER=165,165 POLYGON=[[145,150],[185,150],[185,170],[175,180],[155,180],[145,170],[145,150]]
EXCLUDE_OBJECT_DEFINE NAME=flowrate_10_id_1_copy_0 CENTER=207,197 POLYGON=[[187,182],[227,182],[227,202],[217,212],[197,212],[187,202],[187,182]]
EXCLUDE_OBJECT_DEFINE NAME=flowrate_15_id_2_copy_0 CENTER=165,197 POLYGON=[[145,182],[185,182],[185,202],[175,212],[155,212],[145,202],[145,182]]
EXCLUDE_OBJECT_DEFINE NAME=flowrate_20_id_3_copy_0 CENTER=123,197 POLYGON=[[103,182],[143,182],[143,202],[133,212],[113,212],[103,202],[103,182]]
EXCLUDE_OBJECT_DEFINE NAME=flowrate_5_id_4_copy_0 CENTER=123,165 POLYGON=[[103,150],[143,150],[143,170],[133,180],[113,180],[103,170],[103,150]]
EXCLUDE_OBJECT_DEFINE NAME=flowrate_m10_id_5_copy_0 CENTER=207,133 POLYGON=[[187,118],[227,118],[227,138],[217,148],[197,148],[187,138],[187,118]]
EXCLUDE_OBJECT_DEFINE NAME=flowrate_m15_id_6_copy_0 CENTER=165,133 POLYGON=[[145,118],[185,118],[185,138],[175,148],[155,148],[145,138],[145,118]]
EXCLUDE_OBJECT_DEFINE NAME=flowrate_m20_id_7_copy_0 CENTER=123,133 POLYGON=[[103,118],[143,118],[143,138],[133,148],[113,148],[103,138],[103,118]]
EXCLUDE_OBJECT_DEFINE NAME=flowrate_m5_id_8_copy_0 CENTER=207,165 POLYGON=[[187,150],[227,150],[227,170],[217,180],[197,180],[187,170],[187,150]]
M73 P0 R11
;TYPE:Custom
M104 S0
M140 S0
START_PRINT BED=75 HOTEND=215
G90
G21
M83 ; use relative distances for extrusion
; filament start gcode
SET_PRESSURE_ADVANCE ADVANCE=0.032; Override pressure advance value
M106 S0
;LAYER_CHANGE
;Z:0.25
;HEIGHT:0.25
;BEFORE_LAYER_CHANGE
;0.25
G92 E0

;DSLR_SNAPSHOT
TIMELAPSE_TAKE_FRAME
;_SET_FAN_SPEED_CHANGING_LAYER
SET_VELOCITY_LIMIT ACCEL=10000 ACCEL_TO_DECEL=5000
SET_VELOCITY_LIMIT SQUARE_CORNER_VELOCITY=10
G1 E-.4 F4200
G1 X101.92 Y115.716 F24000
G1 Z.25
G1 E.4 F4200
;TYPE:Skirt
;WIDTH:0.58
G1 F3000
G1 X103 Y115.474 E.05448
G1 X227 Y115.474 E6.10538
G1 X228.352 Y115.866 E.0693
G1 X229.284 Y116.92 E.0693
G1 X229.526 Y118 E.05448
G1 X229.526 Y202 E4.1359
G1 X228.786 Y203.786 E.0952
G1 X218.786 Y213.786 E.69632
G1 X217 Y214.526 E.0952
G1 X113 Y214.526 E5.12064
M73 P1 R11
G1 X111.214 Y213.786 E.0952
G1 X101.214 Y203.786 E.69632
G1 X100.474 Y202 E.0952
G1 X100.474 Y118 E4.1359
G1 X100.866 Y116.648 E.0693
G1 X101.883 Y115.749 E.06684
; printing object flowrate_m20 id:7 copy 0
G1 E-.4 F4200
EXCLUDE_OBJECT_START NAME=flowrate_m20_id_7_copy_0
G1 X104.443 Y119.443 F24000
G1 E.4 F4200
;TYPE:Inner wall
;WIDTH:0.579999
G1 F7200
G1 X141.557 Y119.443 E1.46193
G1 X141.557 Y128 E.33707
G1 X141.557 Y136.557 E.33707
G1 X132.873 Y136.557 E.34206
G1 X132.446 Y136.628 E.01704
G1 X132.084 Y136.82 E.01617
G1 X131.783 Y137.137 E.01721
G1 X131.613 Y137.495 E.01561
G1 X131.557 Y137.873 E.01505
G1 X131.557 Y146.557 E.34206
G1 X114.443 Y146.557 E.67414
G1 X114.443 Y137.873 E.34206
G1 X114.387 Y137.495 E.01505
G1 X114.217 Y137.137 E.01561
G1 X113.916 Y136.82 E.01721
G1 X113.554 Y136.628 E.01617
G1 X113.127 Y136.557 E.01704
G1 X104.443 Y136.557 E.34206
G1 X104.443 Y119.453 E.67374
G1 X103.916 Y118.916 F24000
G1 F7200
G1 X142.084 Y118.916 E1.50339
G1 X142.084 Y128 E.3578
G1 X142.084 Y137.084 E.3578
G1 X133 Y137.084 E.3578
G1 X132.617 Y137.126 E.01518
G1 X132.354 Y137.278 E.01197
G1 X132.153 Y137.549 E.01328
G1 X132.084 Y137.873 E.01305
G1 X132.084 Y147.084 E.3628
G1 X113.916 Y147.084 E.7156
G1 X113.916 Y137.873 E.3628
G1 X113.866 Y137.596 E.0111
G1 X113.687 Y137.317 E.01304
G1 X113.442 Y137.149 E.01171
G1 X113.127 Y137.084 E.01269
G1 X103.916 Y137.084 E.3628
G1 X103.916 Y118.926 E.71521
G1 X103.39 Y118.39 F24000
;TYPE:Outer wall
G1 F7200
G1 X142.61 Y118.39 E1.54486
G1 X142.61 Y128 E.37853
G1 X142.61 Y137.61 E.37853
G1 X133 Y137.61 E.37853
G2 X132.674 Y137.701 I-.078 J.35 E.0139
G1 X132.61 Y137.873 E.00722
G1 X132.61 Y147.61 E.38353
G1 X113.39 Y147.61 E.75707
G1 X113.39 Y138 E.37853
G2 X113.3 Y137.675 I-.355 J-.077 E.01382
G1 X113.127 Y137.61 E.00728
G1 X103.39 Y137.61 E.38353
G1 X103.39 Y118.4 E.75667
G1 E-.4 F4200
G1 X141.399 Y120.667 F24000
G1 E.4 F4200
;TYPE:Bottom surface
;WIDTH:0.581061
G1 F7200
G1 X140.57 Y119.837 E.04629
G1 X139.824 Y119.837 E.02944
G1 X141.163 Y121.176 E.07471
G1 X141.163 Y121.922 E.02944
G1 X139.078 Y119.837 E.11634
G1 X138.332 Y119.837 E.02944
G1 X141.163 Y122.668 E.15797
G1 X141.163 Y123.413 E.02944
G1 X137.587 Y119.837 E.1996
G1 X136.841 Y119.837 E.02944
G1 X141.163 Y124.159 E.24124
G1 X141.163 Y124.905 E.02944
G1 X136.095 Y119.837 E.28287
G1 X135.349 Y119.837 E.02944
G1 X141.163 Y125.651 E.3245
G1 X141.163 Y126.397 E.02944
G1 X134.603 Y119.837 E.36614
G1 X133.857 Y119.837 E.02944
G1 X141.163 Y127.143 E.40777
G1 X141.163 Y127.889 E.02944
G1 X133.111 Y119.837 E.4494
M73 P2 R11
G1 X132.365 Y119.837 E.02944
G1 X141.163 Y128.635 E.49103
G1 X141.163 Y129.38 E.02944
G1 X131.62 Y119.837 E.53267
G1 X130.874 Y119.837 E.02944
G1 X141.163 Y130.126 E.5743
G1 X141.163 Y130.872 E.02944
G1 X130.128 Y119.837 E.61593
G1 X129.382 Y119.837 E.02944
G1 X141.163 Y131.618 E.65756
G1 X141.163 Y132.364 E.02944
G1 X128.636 Y119.837 E.6992
G1 X127.89 Y119.837 E.02944
G1 X141.163 Y133.11 E.74083
G1 X141.163 Y133.856 E.02944
G1 X127.144 Y119.837 E.78246
G1 X126.398 Y119.837 E.02944
G1 X141.163 Y134.602 E.8241
G1 X141.163 Y135.347 E.02944
G1 X125.653 Y119.837 E.86573
G1 X124.907 Y119.837 E.02944
G1 X141.163 Y136.093 E.90736
G1 X141.163 Y136.163 E.00274
G1 X140.486 Y136.163 E.02669
G1 X124.161 Y119.837 E.91125
G1 X123.415 Y119.837 E.02944
G1 X139.741 Y136.164 E.91128
G1 X138.996 Y136.164 E.02942
G1 X122.669 Y119.837 E.91131
G1 X121.923 Y119.837 E.02944
G1 X138.25 Y136.164 E.91133
G1 X137.505 Y136.165 E.02942
G1 X121.177 Y119.837 E.91136
G1 X120.431 Y119.837 E.02944
G1 X136.759 Y136.165 E.91139
G1 X136.014 Y136.166 E.02942
G1 X119.686 Y119.837 E.91141
G1 X118.94 Y119.837 E.02944
G1 X135.269 Y136.166 E.91144
G1 X134.523 Y136.167 E.02942
G1 X118.194 Y119.837 E.91147
G1 X117.448 Y119.837 E.02944
G1 X133.778 Y136.167 E.91149
G1 X133.032 Y136.168 E.02942
G1 X116.702 Y119.837 E.91152
G1 X115.956 Y119.837 E.02944
G1 X132.364 Y136.245 E.91583
G2 X131.87 Y136.497 I.468 J1.527 E.02199
G1 X115.21 Y119.837 E.9299
G1 X114.465 Y119.837 E.02944
G1 X131.495 Y136.867 E.95057
G2 X131.247 Y137.366 I1.406 J1.007 E.02207
G1 X113.719 Y119.837 E.97841
G1 X112.973 Y119.837 E.02944
G1 X131.167 Y138.032 E1.01555
G1 X131.166 Y138.777 E.02942
G1 X112.227 Y119.837 E1.05716
G1 X111.481 Y119.837 E.02944
G1 X131.166 Y139.522 E1.09877
G1 X131.166 Y140.268 E.02942
G1 X110.735 Y119.837 E1.14038
G1 X109.989 Y119.837 E.02944
G1 X131.165 Y141.013 E1.18199
G1 X131.165 Y141.759 E.02942
G1 X109.243 Y119.837 E1.2236
G1 X108.498 Y119.837 E.02944
G1 X131.165 Y142.504 E1.26522
M73 P3 R11
G1 X131.164 Y143.25 E.02942
G1 X107.752 Y119.837 E1.30683
G1 X107.006 Y119.837 E.02944
G1 X131.164 Y143.995 E1.34844
G1 X131.163 Y144.741 E.02942
G1 X106.26 Y119.837 E1.39005
G1 X105.514 Y119.837 E.02944
G1 X131.163 Y145.486 E1.43166
G1 X131.163 Y146.163 E.02669
G1 X131.093 Y146.163 E.00274
G1 X104.837 Y119.907 E1.46553
G1 X104.837 Y120.653 E.02944
G1 X130.347 Y146.163 E1.4239
G1 X129.602 Y146.163 E.02944
G1 X104.837 Y121.398 E1.38227
G1 X104.837 Y122.144 E.02944
G1 X128.856 Y146.163 E1.34064
G1 X128.11 Y146.163 E.02944
G1 X104.837 Y122.89 E1.299
G1 X104.837 Y123.636 E.02944
G1 X127.364 Y146.163 E1.25737
G1 X126.618 Y146.163 E.02944
G1 X104.837 Y124.382 E1.21574
G1 X104.837 Y125.128 E.02944
G1 X125.872 Y146.163 E1.1741
G1 X125.126 Y146.163 E.02944
G1 X104.837 Y125.874 E1.13247
G1 X104.837 Y126.62 E.02944
G1 X124.38 Y146.163 E1.09084
G1 X123.635 Y146.163 E.02944
G1 X104.837 Y127.365 E1.04921
G1 X104.837 Y128.111 E.02944
G1 X112.894 Y136.168 E.44969
G1 X112.148 Y136.167 E.02946
G1 X104.837 Y128.857 E.40803
G1 X104.837 Y129.603 E.02944
G1 X111.401 Y136.167 E.36637
G1 X110.655 Y136.166 E.02946
G1 X104.837 Y130.349 E.32471
G1 X104.837 Y131.095 E.02944
G1 X109.909 Y136.166 E.28305
G1 X109.162 Y136.165 E.02946
G1 X104.837 Y131.841 E.24139
G1 X104.837 Y132.587 E.02944
G1 X108.416 Y136.165 E.19973
G1 X107.669 Y136.164 E.02946
G1 X104.837 Y133.332 E.15808
G1 X104.837 Y134.078 E.02944
G1 X106.923 Y136.164 E.11642
G1 X106.177 Y136.163 E.02946
G1 X104.837 Y134.824 E.07476
G1 X104.837 Y135.57 E.02944
G1 X105.667 Y136.4 E.04633
G1 E-.4 F4200
G1 X114.596 Y137.87 F24000
G1 E.4 F4200
G1 F7200
G1 X122.889 Y146.163 E.46286
G1 X122.143 Y146.163 E.02944
G1 X114.834 Y138.853 E.40798
G1 X114.834 Y139.6 E.02945
G1 X121.397 Y146.163 E.36633
G1 X120.651 Y146.163 E.02944
G1 X114.834 Y140.346 E.32467
G1 X114.835 Y141.092 E.02945
G1 X119.905 Y146.163 E.28302
G1 X119.159 Y146.163 E.02944
G1 X114.835 Y141.838 E.24136
G1 X114.836 Y142.585 E.02945
G1 X118.413 Y146.163 E.19971
G1 X117.668 Y146.163 E.02944
G1 X114.836 Y143.331 E.15806
G1 X114.836 Y144.077 E.02945
G1 X116.922 Y146.163 E.1164
G1 X116.176 Y146.163 E.02944
G1 X114.837 Y144.823 E.07475
G1 X114.837 Y145.57 E.02945
G1 X115.667 Y146.399 E.04631
; stop printing object flowrate_m20 id:7 copy 0
; printing object flowrate_5 id:4 copy 0
G1 E-.4 F4200
EXCLUDE_OBJECT_END NAME=flowrate_m20_id_7_copy_0
EXCLUDE_OBJECT_START NAME=flowrate_5_id_4_copy_0
G1 X114.365 Y169.481 F24000
G1 E.4 F4200
;TYPE:Inner wall
;WIDTH:0.579999
G1 F7200
G1 X114.327 Y169.333 E.0079
G1 X114.124 Y169.014 E.01955
G1 X113.834 Y168.764 E.01979
G1 X113.554 Y168.628 E.0161
G1 X113.127 Y168.557 E.02237
G1 X104.443 Y168.557 E.44896
G1 X104.443 Y151.443 E.8848
G1 X141.557 Y151.443 E1.91878
M73 P4 R11
G1 X141.557 Y168.557 E.8848
G1 X132.873 Y168.557 E.44896
G1 X132.446 Y168.628 E.02237
G1 X132.084 Y168.82 E.02122
G1 X131.783 Y169.137 E.02259
G1 X131.613 Y169.495 E.02049
G1 X131.557 Y169.873 E.01976
G1 X131.557 Y178.557 E.44896
G1 X114.443 Y178.557 E.8848
G1 X114.438 Y169.758 E.45489
G1 X114.368 Y169.491 E.0143
G1 X113.858 Y169.609 F24000
G1 F7200
G1 X113.781 Y169.431 E.01
G1 X113.551 Y169.207 E.0166
G1 X113.442 Y169.149 E.00639
G1 X113.127 Y169.084 E.01665
G1 X103.916 Y169.084 E.47617
G1 X103.916 Y150.916 E.93923
G1 X142.084 Y150.916 E1.9732
G1 X142.084 Y169.084 E.93923
G1 X133 Y169.084 E.46961
G1 X132.617 Y169.126 E.01992
G1 X132.354 Y169.278 E.01571
G1 X132.153 Y169.549 E.01743
G1 X132.084 Y169.873 E.01713
G1 X132.084 Y179.084 E.47617
G1 X113.916 Y179.084 E.93923
G1 X113.916 Y170 E.46961
G1 X113.897 Y169.7 E.01555
G1 X113.862 Y169.618 E.0046
G1 X113.379 Y169.798 F24000
;TYPE:Outer wall
G1 F7200
G1 X113.268 Y169.651 E.00948
G1 X113.127 Y169.61 E.00762
G1 X103.39 Y169.61 E.50338
G1 X103.39 Y150.39 E.99365
G1 X142.61 Y150.39 E2.02762
G1 X142.61 Y169.61 E.99365
G1 X133 Y169.61 E.49682
G2 X132.674 Y169.701 I-.078 J.35 E.01824
G1 X132.61 Y169.873 E.00947
G1 X132.61 Y179.61 E.50338
G1 X113.39 Y179.61 E.99365
G1 X113.39 Y170 E.49682
G1 X113.379 Y169.808 E.00997
G1 E-.4 F4200
G1 X141.399 Y152.667 F24000
G1 E.4 F4200
;TYPE:Bottom surface
;WIDTH:0.581061
G1 F7200
G1 X140.57 Y151.837 E.06076
G1 X139.824 Y151.837 E.03864
G1 X141.163 Y153.176 E.09805
G1 X141.163 Y153.922 E.03864
G1 X139.078 Y151.837 E.15269
G1 X138.332 Y151.837 E.03864
G1 X141.163 Y154.668 E.20734
G1 X141.163 Y155.413 E.03864
G1 X137.587 Y151.837 E.26198
G1 X136.841 Y151.837 E.03864
G1 X141.163 Y156.159 E.31662
G1 X141.163 Y156.905 E.03864
G1 X136.095 Y151.837 E.37127
G1 X135.349 Y151.837 E.03864
G1 X141.163 Y157.651 E.42591
G1 X141.163 Y158.397 E.03864
G1 X134.603 Y151.837 E.48055
G1 X133.857 Y151.837 E.03864
G1 X141.163 Y159.143 E.5352
G1 X141.163 Y159.889 E.03864
G1 X133.111 Y151.837 E.58984
G1 X132.365 Y151.837 E.03864
G1 X141.163 Y160.635 E.64448
G1 X141.163 Y161.38 E.03864
G1 X131.62 Y151.837 E.69912
G1 X130.874 Y151.837 E.03864
G1 X141.163 Y162.126 E.75377
G1 X141.163 Y162.872 E.03864
G1 X130.128 Y151.837 E.80841
G1 X129.382 Y151.837 E.03864
G1 X141.163 Y163.618 E.86305
G1 X141.163 Y164.364 E.03864
G1 X128.636 Y151.837 E.9177
G1 X127.89 Y151.837 E.03864
G1 X141.163 Y165.11 E.97234
G1 X141.163 Y165.856 E.03864
G1 X127.144 Y151.837 E1.02698
G1 X126.398 Y151.837 E.03864
G1 X141.163 Y166.602 E1.08163
G1 X141.163 Y167.347 E.03864
G1 X125.653 Y151.837 E1.13627
G1 X124.907 Y151.837 E.03864
G1 X141.163 Y168.093 E1.19091
G1 X141.163 Y168.163 E.00359
G1 X140.486 Y168.163 E.03502
G1 X124.161 Y151.837 E1.19602
G1 X123.415 Y151.837 E.03864
G1 X139.741 Y168.164 E1.19606
G1 X138.996 Y168.164 E.03861
G1 X122.669 Y151.837 E1.19609
M73 P4 R10
G1 X121.923 Y151.837 E.03864
G1 X138.25 Y168.164 E1.19613
G1 X137.505 Y168.165 E.03861
G1 X121.177 Y151.837 E1.19616
M73 P5 R10
G1 X120.431 Y151.837 E.03864
G1 X136.759 Y168.165 E1.1962
G1 X136.014 Y168.166 E.03861
G1 X119.686 Y151.837 E1.19623
G1 X118.94 Y151.837 E.03864
G1 X135.269 Y168.166 E1.19627
G1 X134.523 Y168.167 E.03861
G1 X118.194 Y151.837 E1.1963
G1 X117.448 Y151.837 E.03864
G1 X133.778 Y168.167 E1.19634
G1 X133.032 Y168.168 E.03861
G1 X116.702 Y151.837 E1.19637
G1 X115.956 Y151.837 E.03864
G1 X132.364 Y168.245 E1.20202
G2 X131.87 Y168.497 I.468 J1.527 E.02887
G1 X115.21 Y151.837 E1.22049
G1 X114.465 Y151.837 E.03864
G1 X131.495 Y168.867 E1.24763
G2 X131.247 Y169.366 I1.406 J1.007 E.02896
G1 X113.719 Y151.837 E1.28417
G1 X112.973 Y151.837 E.03864
G1 X131.167 Y170.032 E1.33291
G1 X131.166 Y170.777 E.03862
G1 X112.227 Y151.837 E1.38752
G1 X111.481 Y151.837 E.03864
G1 X131.166 Y171.522 E1.44214
G1 X131.166 Y172.268 E.03862
G1 X110.735 Y151.837 E1.49675
G1 X109.989 Y151.837 E.03864
G1 X131.165 Y173.013 E1.55137
G1 X131.165 Y173.759 E.03862
G1 X109.243 Y151.837 E1.60598
G1 X108.498 Y151.837 E.03864
G1 X131.165 Y174.504 E1.66059
G1 X131.164 Y175.25 E.03862
G1 X107.752 Y151.837 E1.71521
G1 X107.006 Y151.837 E.03864
G1 X131.164 Y175.995 E1.76982
G1 X131.163 Y176.741 E.03862
G1 X106.26 Y151.837 E1.82444
G1 X105.514 Y151.837 E.03864
G1 X131.163 Y177.486 E1.87905
G1 X131.163 Y178.163 E.03503
