; HEADER_BLOCK_START
; generated by OrcaSlicer 1.6.3 on 2023-11-04 at 14:11:10
; total layer number: 7
; HEADER_BLOCK_END

; THUMBNAIL_BLOCK_START
; THUMBNAIL_BLOCK_END

; external perimeters extrusion width = 0.62mm
; perimeters extrusion width = 0.62mm
; infill extrusion width = 0.65mm
; solid infill extrusion width = 0.72mm
; top infill extrusion width = 0.72mm
; first layer extrusion width = 0.68mm

; external perimeters extrusion width = 0.62mm
; perimeters extrusion width = 0.62mm
; infill extrusion width = 0.65mm
; solid infill extrusion width = 0.72mm
; top infill extrusion width = 0.72mm
; first layer extrusion width = 0.68mm

; external perimeters extrusion width = 0.62mm
; perimeters extrusion width = 0.62mm
; infill extrusion width = 0.65mm
; solid infill extrusion width = 0.72mm
; top infill extrusion width = 0.72mm
; first layer extrusion width = 0.68mm

; external perimeters extrusion width = 0.62mm
; perimeters extrusion width = 0.62mm
; infill extrusion width = 0.65mm
; solid infill extrusion width = 0.72mm
; top infill extrusion width = 0.72mm
; first layer extrusion width = 0.68mm

; external perimeters extrusion width = 0.62mm
; perimeters extrusion width = 0.62mm
; infill extrusion width = 0.65mm
; solid infill extrusion width = 0.72mm
; top infill extrusion width = 0.72mm
; first layer extrusion width = 0.68mm

; external perimeters extrusion width = 0.62mm
; perimeters extrusion width = 0.62mm
; infill extrusion width = 0.65mm
; solid infill extrusion width = 0.72mm
; top infill extrusion width = 0.72mm
; first layer extrusion width = 0.68mm

; external perimeters extrusion width = 0.62mm
; perimeters extrusion width = 0.62mm
; infill extrusion width = 0.65mm
; solid infill extrusion width = 0.72mm
; top infill extrusion width = 0.72mm
; first layer extrusion width = 0.68mm

; external perimeters extrusion width = 0.62mm
; perimeters extrusion width = 0.62mm
; infill extrusion width = 0.65mm
; solid infill extrusion width = 0.72mm
; top infill extrusion width = 0.72mm
; first layer extrusion width = 0.68mm

; external perimeters extrusion width = 0.62mm
; perimeters extrusion width = 0.62mm
; infill extrusion width = 0.65mm
; solid infill extrusion width = 0.72mm
; top infill extrusion width = 0.72mm
; first layer extrusion width = 0.68mm

; EXECUTABLE_BLOCK_START
EXCLUDE_OBJECT_DEFINE NAME=flowrate_0_id_0_copy_0 CENTER=165,165 POLYGON=[[145,150],[185,150],[185,170],[175,180],[155,180],[145,170],[145,150]]
EXCLUDE_OBJECT_DEFINE NAME=flowrate_10_id_1_copy_0 CENTER=207,197 POLYGON=[[187,182],[227,182],[227,202],[217,212],[197,212],[187,202],[187,182]]
EXCLUDE_OBJECT_DEFINE NAME=flowrate_15_id_2_copy_0 CENTER=165,197 POLYGON=[[145,182],[185,182],[185,202],[175,212],[155,212],[145,202],[145,182]]
EXCLUDE_OBJECT_DEFINE NAME=flowrate_20_id_3_copy_0 CENTER=123,197 POLYGON=[[103,182],[143,182],[143,202],[133,212],[113,212],[103,202],[103,182]]
EXCLUDE_OBJECT_DEFINE NAME=flowrate_5_id_4_copy_0 CENTER=123,165 POLYGON=[[103,150],[143,150],[143,170],[133,180],[113,180],[103,170],[103,150]]
EXCLUDE_OBJECT_DEFINE NAME=flowrate_m10_id_5_copy_0 CENTER=207,133 POLYGON=[[187,118],[227,118],[227,138],[217,148],[197,148],[187,138],[187,118]]
EXCLUDE_OBJECT_DEFINE NAME=flowrate_m15_id_6_copy_0 CENTER=165,133 POLYGON=[[145,118],[185,118],[185,138],[175,148],[155,148],[145,138],[145,118]]
EXCLUDE_OBJECT_DEFINE NAME=flowrate_m20_id_7_copy_0 CENTER=123,133 POLYGON=[[103,118],[143,118],[143,138],[133,148],[113,148],[103,138],[103,118]]
EXCLUDE_OBJECT_DEFINE NAME=flowrate_m5_id_8_copy_0 CENTER=207,165 POLYGON=[[187,150],[227,150],[227,170],[217,180],[197,180],[187,170],[187,150]]
M73 P0 R12
;TYPE:Custom
M104 S0
M140 S0
START_PRINT BED=75 HOTEND=240
G90
G21
M83 ; use relative distances for extrusion
; filament start gcode
SET_PRESSURE_ADVANCE ADVANCE=0.04; Override pressure advance value
M106 S0
;LAYER_CHANGE
;Z:0.3
;HEIGHT:0.3
;BEFORE_LAYER_CHANGE
;0.3
G92 E0

;DSLR_SNAPSHOT
TIMELAPSE_TAKE_FRAME
M204 S5000
G1 E-.4 F4200
G1 X101.836 Y115.658 F48000
G1 Z.3
G1 E.4 F4200
;TYPE:Skirt
;WIDTH:0.68
G1 F7200
G1 X103 Y115.384 E.08996
G1 X227 Y115.384 E9.33072
G1 X228.378 Y115.777 E.1078
G1 X229.342 Y116.836 E.1078
G1 X229.616 Y118 E.08996
G1 X229.616 Y202 E6.32081
M73 P0 R11
G1 X228.85 Y203.85 E.15064
G1 X218.85 Y213.85 E1.06416
G1 X217 Y214.616 E.15064
G1 X113 Y214.616 E7.82577
G1 X111.15 Y213.85 E.15064
G1 X101.15 Y203.85 E1.06416
G1 X100.384 Y202 E.15064
G1 X100.384 Y118 E6.32081
G1 X100.777 Y116.622 E.1078
G1 X101.77 Y115.718 E.10103
; printing object flowrate_m20 id:7 copy 0
EXCLUDE_OBJECT_START NAME=flowrate_m20_id_7_copy_0
G1 E-.4 F4200
G1 X104.671 Y119.671 F48000
G1 E.4 F4200
;TYPE:Inner wall
;WIDTH:0.68
G1 F7200
G1 X141.329 Y119.671 E2.20672
G1 X141.329 Y128 E.50138
G1 X141.329 Y136.329 E.50138
G1 X133 Y136.329 E.50138
G2 X131.856 Y136.708 I-.06 J1.733 E.07411
G1 X131.592 Y137.007 E.02398
G1 X131.394 Y137.426 E.0279
G1 X131.329 Y137.868 E.02691
G1 X131.329 Y146.329 E.50933
G1 X114.671 Y146.329 E1.00275
G1 X114.671 Y138 E.50138
G1 X114.654 Y137.64 E.02173
G1 X114.536 Y137.236 E.0253
G1 X114.298 Y136.863 E.02663
G1 X113.96 Y136.57 E.02695
G1 X113.511 Y136.376 E.02942
G1 X113.132 Y136.329 E.02298
G1 X104.671 Y136.329 E.50933
G1 X104.671 Y119.683 E1.00203
G1 X104.056 Y119.056 F48000
G1 F7200
G1 X141.944 Y119.056 E2.28083
G1 X141.944 Y128 E.53844
G1 X141.944 Y136.944 E.53844
G1 X132.791 Y136.948 E.55102
G1 X132.433 Y137.053 E.02245
G1 X132.168 Y137.265 E.02043
G1 X132.003 Y137.544 E.01949
G1 X131.944 Y137.868 E.01984
G1 X131.944 Y146.944 E.54639
G1 X114.056 Y146.944 E1.07687
G1 X114.056 Y138 E.53844
G2 X113.501 Y137.021 I-.986 J-.088 E.07203
G1 X113.132 Y136.944 E.02268
G1 X104.056 Y136.944 E.54639
G1 X104.056 Y119.068 E1.07615
M73 P1 R11
G1 X103.44 Y118.44 F48000
;TYPE:Outer wall
G1 F7200
G1 X142.56 Y118.44 E2.35495
G1 X142.56 Y128 E.57549
G1 X142.56 Y137.56 E.57549
G1 X133 Y137.56 E.57549
G1 X132.792 Y137.569 E.01253
G1 X132.622 Y137.683 E.01233
G1 X132.56 Y137.868 E.01172
G1 X132.56 Y147.56 E.58345
G1 X113.44 Y147.56 E1.15099
G1 X113.44 Y138 E.57549
G1 X113.427 Y137.779 E.01331
G1 X113.317 Y137.622 E.01158
G1 X113.132 Y137.56 E.01172
G1 X103.44 Y137.56 E.58345
G1 X103.44 Y118.452 E1.15027
G1 X103.552 Y118.483
G1 E-.4 F4200
G1 X141.144 Y121.112 F48000
G1 E.4 F4200
;TYPE:Bottom surface
;WIDTH:0.685449
G1 F7200
G1 X140.165 Y120.133 E.08408
G1 X139.287 Y120.133 E.05334
G1 X140.867 Y121.713 E.13572
G1 X140.867 Y122.592 E.05334
G1 X138.408 Y120.133 E.21116
G1 X137.53 Y120.133 E.05334
G1 X140.867 Y123.47 E.2866
G1 X140.867 Y124.348 E.05334
G1 X136.652 Y120.133 E.36203
G1 X135.774 Y120.133 E.05334
G1 X140.867 Y125.226 E.43747
G1 X140.867 Y126.105 E.05334
G1 X134.895 Y120.133 E.5129
G1 X134.017 Y120.133 E.05334
G1 X140.867 Y126.983 E.58834
G1 X140.867 Y127.861 E.05334
G1 X133.139 Y120.133 E.66378
G1 X132.26 Y120.133 E.05334
G1 X140.867 Y128.74 E.73921
G1 X140.867 Y129.618 E.05334
G1 X131.382 Y120.133 E.81465
G1 X130.504 Y120.133 E.05334
G1 X140.867 Y130.496 E.89008
G1 X140.867 Y131.375 E.05334
G1 X129.625 Y120.133 E.96552
G1 X128.747 Y120.133 E.05334
G1 X140.867 Y132.253 E1.04096
G1 X140.867 Y133.131 E.05334
G1 X127.869 Y120.133 E1.11639
G1 X126.99 Y120.133 E.05334
G1 X140.867 Y134.01 E1.19183
G1 X140.867 Y134.888 E.05334
G1 X126.112 Y120.133 E1.26727
G1 X125.234 Y120.133 E.05334
G1 X140.867 Y135.766 E1.3427
G1 X140.867 Y135.867 E.00612
G1 X140.09 Y135.868 E.04718
G1 X124.355 Y120.133 E1.35141
G1 X123.477 Y120.133 E.05334
G1 X139.213 Y135.868 E1.35147
G1 X138.335 Y135.869 E.0533
G1 X122.599 Y120.133 E1.35153
G1 X121.72 Y120.133 E.05334
G1 X137.457 Y135.87 E1.35159
G1 X136.58 Y135.87 E.0533
G1 X120.842 Y120.133 E1.35164
G1 X119.964 Y120.133 E.05334
G1 X135.702 Y135.871 E1.3517
G1 X134.824 Y135.872 E.0533
G1 X119.085 Y120.133 E1.35176
G1 X118.207 Y120.133 E.05334
G1 X133.947 Y135.873 E1.35182
G1 X133.069 Y135.873 E.0533
G1 X117.329 Y120.133 E1.35188
G1 X116.45 Y120.133 E.05334
G1 X132.279 Y135.961 E1.35943
G2 X131.696 Y136.257 I.546 J1.796 E.03988
G1 X115.572 Y120.133 E1.38484
G1 X114.694 Y120.133 E.05334
G1 X131.254 Y136.693 E1.4223
M73 P2 R11
G1 X131.209 Y136.748 E.00427
G2 X130.964 Y137.282 I1.295 J.918 E.0359
G1 X113.815 Y120.133 E1.47284
G1 X112.937 Y120.133 E.05334
G1 X130.872 Y138.068 E1.54037
G1 X130.871 Y138.946 E.05331
G1 X112.059 Y120.133 E1.61576
G1 X111.18 Y120.133 E.05334
G1 X130.871 Y139.823 E1.69115
G1 X130.87 Y140.701 E.05331
G1 X110.302 Y120.133 E1.76654
G1 X109.424 Y120.133 E.05334
G1 X130.87 Y141.579 E1.84192
G1 X130.869 Y142.457 E.05331
G1 X108.546 Y120.133 E1.91731
G1 X107.667 Y120.133 E.05334
G1 X130.869 Y143.334 E1.9927
G1 X130.868 Y144.212 E.05331
G1 X106.789 Y120.133 E2.06809
G1 X105.911 Y120.133 E.05334
G1 X130.868 Y145.09 E2.14348
G1 X130.867 Y145.867 E.04719
G1 X130.766 Y145.867 E.00612
G1 X105.133 Y120.234 E2.20157
G1 X105.133 Y121.112 E.05334
G1 X129.888 Y145.867 E2.12613
G1 X129.01 Y145.867 E.05334
G1 X105.133 Y121.99 E2.05069
G1 X105.133 Y122.869 E.05334
G1 X128.131 Y145.867 E1.97526
G1 X127.253 Y145.867 E.05334
G1 X105.133 Y123.747 E1.89982
G1 X105.133 Y124.625 E.05334
G1 X126.375 Y145.867 E1.82438
G1 X125.496 Y145.867 E.05334
G1 X105.133 Y125.504 E1.74895
G1 X105.133 Y126.382 E.05334
G1 X124.618 Y145.867 E1.67351
G1 X123.74 Y145.867 E.05334
G1 X105.133 Y127.26 E1.59808
G1 X105.133 Y128.139 E.05334
G1 X112.868 Y135.873 E.6643
G1 X111.989 Y135.872 E.05338
G1 X105.133 Y129.017 E.5888
G1 X105.133 Y129.895 E.05334
G1 X111.11 Y135.872 E.51331
G1 X110.231 Y135.871 E.05338
G1 X105.133 Y130.774 E.43781
G1 X105.133 Y131.652 E.05334
G1 X109.352 Y135.87 E.36232
G1 X108.473 Y135.87 E.05338
G1 X105.133 Y132.53 E.28682
G1 X105.133 Y133.409 E.05334
G1 X107.594 Y135.869 E.21133
G1 X106.715 Y135.868 E.05338
G1 X105.133 Y134.287 E.13584
G1 X105.133 Y135.165 E.05334
G1 X106.113 Y136.145 E.08415
G1 E-.4 F4200
G1 X114.851 Y137.856 F48000
G1 E.4 F4200
G1 F7200
G1 X122.861 Y145.867 E.688
G1 X121.983 Y145.867 E.05334
G1 X115.129 Y139.013 E.58871
G1 X115.129 Y139.891 E.05337
G1 X121.105 Y145.867 E.51323
G1 X120.226 Y145.867 E.05334
G1 X115.13 Y140.77 E.43775
M73 P3 R11
G1 X115.13 Y141.649 E.05337
G1 X119.348 Y145.867 E.36226
G1 X118.47 Y145.867 E.05334
G1 X115.131 Y142.528 E.28678
G1 X115.131 Y143.407 E.05337
G1 X117.591 Y145.867 E.2113
G1 X116.713 Y145.867 E.05334
G1 X115.132 Y144.286 E.13581
G1 X115.132 Y145.165 E.05337
G1 X116.112 Y146.144 E.08412
; stop printing object flowrate_m20 id:7 copy 0
EXCLUDE_OBJECT_END NAME=flowrate_m20_id_7_copy_0
; printing object flowrate_5 id:4 copy 0
EXCLUDE_OBJECT_START NAME=flowrate_5_id_4_copy_0
G1 E-.4 F4200
G1 X114.586 Y169.406 F48000
G1 E.4 F4200
;TYPE:Inner wall
;WIDTH:0.68
G1 F7200
G1 X114.536 Y169.236 E.01398
G1 X114.298 Y168.863 E.03495
G1 X113.96 Y168.57 E.03537
G1 X113.511 Y168.376 E.03861
G1 X113.132 Y168.329 E.03017
G1 X104.671 Y168.329 E.6685
G1 X104.671 Y151.671 E1.31611
G1 X141.329 Y151.671 E2.89632
G1 X141.329 Y160 E.65806
G1 X141.329 Y168.329 E.65806
G1 X133 Y168.329 E.65806
G2 X131.856 Y168.708 I-.06 J1.733 E.09727
G1 X131.592 Y169.007 E.03147
G1 X131.394 Y169.426 E.03662
G1 X131.329 Y169.868 E.03532
G1 X131.329 Y178.329 E.6685
G1 X114.671 Y178.329 E1.31611
G1 X114.671 Y170 E.65806
G1 X114.654 Y169.64 E.02851
G1 X114.589 Y169.418 E.01828
G1 X114.004 Y169.604 F48000
G1 F7200
G1 X113.966 Y169.493 E.00931
G2 X113.501 Y169.021 I-.896 J.419 E.05336
G1 X113.132 Y168.944 E.02976
G1 X104.056 Y168.944 E.71714
G1 X104.056 Y151.056 E1.41339
G1 X141.944 Y151.056 E2.9936
G1 X141.944 Y160 E.7067
G1 X141.944 Y168.944 E.7067
G1 X132.791 Y168.948 E.72321
G1 X132.433 Y169.053 E.02947
G1 X132.168 Y169.265 E.02681
G1 X132.003 Y169.544 E.02559
G1 X131.944 Y169.868 E.02604
G1 X131.944 Y178.944 E.71714
G1 X114.056 Y178.944 E1.41339
G1 X114.056 Y170 E.7067
G2 X114.053 Y169.799 I-.986 J-.088 E.01593
G1 X114.007 Y169.616 E.01489
G1 X113.427 Y169.779 F48000
;TYPE:Outer wall
G1 F7200
G1 X113.317 Y169.622 E.0152
G1 X113.132 Y169.56 E.01538
G1 X103.44 Y169.56 E.76578
G1 X103.44 Y150.44 E1.51067
G1 X142.56 Y150.44 E3.09088
G1 X142.56 Y160 E.75534
G1 X142.56 Y169.56 E.75534
G1 X133 Y169.56 E.75534
G1 X132.792 Y169.569 E.01645
G1 X132.622 Y169.683 E.01619
G1 X132.56 Y169.868 E.01538
G1 X132.56 Y179.56 E.76578
G1 X113.44 Y179.56 E1.51067
G1 X113.44 Y170 E.75534
G1 X113.428 Y169.791 E.01651
G1 X113.45 Y169.749
G1 E-.4 F4200
G1 X141.144 Y153.112 F48000
G1 E.4 F4200
;TYPE:Bottom surface
;WIDTH:0.685449
G1 F7200
G1 X140.165 Y152.133 E.11036
G1 X139.287 Y152.133 E.07001
G1 X140.867 Y153.713 E.17814
G1 X140.867 Y154.592 E.07001
G1 X138.408 Y152.133 E.27715
G1 X137.53 Y152.133 E.07001
G1 X140.867 Y155.47 E.37616
G1 X140.867 Y156.348 E.07001
G1 X136.652 Y152.133 E.47517
G1 X135.774 Y152.133 E.07001
G1 X140.867 Y157.226 E.57418
G1 X140.867 Y158.105 E.07001
G1 X134.895 Y152.133 E.67319
G1 X134.017 Y152.133 E.07001
G1 X140.867 Y158.983 E.7722
G1 X140.867 Y159.861 E.07001
G1 X133.139 Y152.133 E.87121
G1 X132.26 Y152.133 E.07001
G1 X140.867 Y160.74 E.97022
G1 X140.867 Y161.618 E.07001
G1 X131.382 Y152.133 E1.06923
G1 X130.504 Y152.133 E.07001
G1 X140.867 Y162.496 E1.16824
G1 X140.867 Y163.375 E.07001
G1 X129.625 Y152.133 E1.26725
G1 X128.747 Y152.133 E.07001
G1 X140.867 Y164.253 E1.36626
G1 X140.867 Y165.131 E.07001
G1 X127.869 Y152.133 E1.46527
G1 X126.99 Y152.133 E.07001
G1 X140.867 Y166.01 E1.56428
M73 P4 R11
G1 X140.867 Y166.888 E.07001
G1 X126.112 Y152.133 E1.66329
G1 X125.234 Y152.133 E.07001
G1 X140.867 Y167.766 E1.7623
G1 X140.867 Y167.867 E.00804
G1 X140.09 Y167.868 E.06193
G1 X124.355 Y152.133 E1.77373
G1 X123.477 Y152.133 E.07001
G1 X139.213 Y167.868 E1.7738
G1 X138.335 Y167.869 E.06996
G1 X122.599 Y152.133 E1.77388
G1 X121.72 Y152.133 E.07001
G1 X137.457 Y167.87 E1.77396
G1 X136.58 Y167.87 E.06996
G1 X120.842 Y152.133 E1.77403
G1 X119.964 Y152.133 E.07001
G1 X135.702 Y167.871 E1.77411
G1 X134.824 Y167.872 E.06996
G1 X119.085 Y152.133 E1.77419
G1 X118.207 Y152.133 E.07001
G1 X133.947 Y167.873 E1.77426
G1 X133.069 Y167.873 E.06996
G1 X117.329 Y152.133 E1.77434
G1 X116.45 Y152.133 E.07001
G1 X132.279 Y167.961 E1.78426
G2 X131.696 Y168.257 I.546 J1.796 E.05234
G1 X115.572 Y152.133 E1.8176
G1 X114.694 Y152.133 E.07001
G1 X131.254 Y168.693 E1.86677
G1 X131.209 Y168.748 E.00561
G2 X130.964 Y169.282 I1.295 J.918 E.04711
G1 X113.815 Y152.133 E1.9331
G1 X112.937 Y152.133 E.07001
G1 X130.872 Y170.068 E2.02173
G1 X130.871 Y170.946 E.06997
G1 X112.059 Y152.133 E2.12068
G1 X111.18 Y152.133 E.07001
G1 X130.871 Y171.823 E2.21963
G1 X130.87 Y172.701 E.06997
G1 X110.302 Y152.133 E2.31858
G1 X109.424 Y152.133 E.07001
G1 X130.87 Y173.579 E2.41753
G1 X130.869 Y174.457 E.06997
G1 X108.546 Y152.133 E2.51647
G1 X107.667 Y152.133 E.07001
G1 X130.869 Y175.334 E2.61542
G1 X130.868 Y176.212 E.06997
G1 X106.789 Y152.133 E2.71437
G1 X105.911 Y152.133 E.07001
G1 X130.868 Y177.09 E2.81332
G1 X130.867 Y177.867 E.06194
G1 X130.766 Y177.867 E.00804
G1 X105.133 Y152.234 E2.88955
G1 X105.133 Y153.112 E.07001
G1 X129.888 Y177.867 E2.79054
G1 X129.01 Y177.867 E.07001
G1 X105.133 Y153.99 E2.69153
M73 P5 R11
G1 X105.133 Y154.869 E.07001
G1 X128.131 Y177.867 E2.59252
G1 X127.253 Y177.867 E.07001
G1 X105.133 Y155.747 E2.49351
G1 X105.133 Y156.625 E.07001
G1 X126.375 Y177.867 E2.3945
G1 X125.496 Y177.867 E.07001
G1 X105.133 Y157.504 E2.29549
G1 X105.133 Y158.382 E.07001
G1 X124.618 Y177.867 E2.19648
G1 X123.74 Y177.867 E.07001
G1 X105.133 Y159.26 E2.09747
G1 X105.133 Y160.139 E.07001
G1 X112.868 Y167.873 E.87189
G1 X111.989 Y167.872 E.07006
G1 X105.133 Y161.017 E.7728
G1 X105.133 Y161.895 E.07001
G1 X111.11 Y167.872 E.67372
G1 X110.231 Y167.871 E.07006
G1 X105.133 Y162.774 E.57463
G1 X105.133 Y163.652 E.07001
G1 X109.352 Y167.87 E.47554
G1 X108.473 Y167.87 E.07006
G1 X105.133 Y164.53 E.37646
G1 X105.133 Y165.409 E.07001
G1 X107.594 Y167.869 E.27737
G1 X106.715 Y167.868 E.07006
G1 X105.133 Y166.287 E.17828
G1 X105.133 Y167.165 E.07001
G1 X106.113 Y168.145 E.11045
G1 E-.4 F4200
G1 X114.851 Y169.856 F48000
G1 E.4 F4200
G1 F7200
G1 X122.861 Y177.867 E.903
G1 X121.983 Y177.867 E.07001
G1 X115.129 Y171.013 E.77269
