; HEADER_BLOCK_START
; generated by OrcaSlicer 1.8.1 on 2024-02-23 at 22:37:24
; total layer number: 6
; HEADER_BLOCK_END

; THUMBNAIL_BLOCK_START

;
; THUMBNAIL_BLOCK_END

; external perimeters extrusion width = 0.52mm
; perimeters extrusion width = 0.52mm
; infill extrusion width = 0.55mm
; solid infill extrusion width = 0.60mm
; top infill extrusion width = 0.60mm
; first layer extrusion width = 0.58mm

; external perimeters extrusion width = 0.52mm
; perimeters extrusion width = 0.52mm
; infill extrusion width = 0.55mm
; solid infill extrusion width = 0.60mm
; top infill extrusion width = 0.60mm
; first layer extrusion width = 0.58mm

; external perimeters extrusion width = 0.52mm
; perimeters extrusion width = 0.52mm
; infill extrusion width = 0.55mm
; solid infill extrusion width = 0.60mm
; top infill extrusion width = 0.60mm
; first layer extrusion width = 0.58mm

; external perimeters extrusion width = 0.52mm
; perimeters extrusion width = 0.52mm
; infill extrusion width = 0.55mm
; solid infill extrusion width = 0.60mm
; top infill extrusion width = 0.60mm
; first layer extrusion width = 0.58mm

; external perimeters extrusion width = 0.52mm
; perimeters extrusion width = 0.52mm
; infill extrusion width = 0.55mm
; solid infill extrusion width = 0.60mm
; top infill extrusion width = 0.60mm
; first layer extrusion width = 0.58mm

; external perimeters extrusion width = 0.52mm
; perimeters extrusion width = 0.52mm
; infill extrusion width = 0.55mm
; solid infill extrusion width = 0.60mm
; top infill extrusion width = 0.60mm
; first layer extrusion width = 0.58mm

; external perimeters extrusion width = 0.52mm
; perimeters extrusion width = 0.52mm
; infill extrusion width = 0.55mm
; solid infill extrusion width = 0.60mm
; top infill extrusion width = 0.60mm
; first layer extrusion width = 0.58mm

; external perimeters extrusion width = 0.52mm
; perimeters extrusion width = 0.52mm
; infill extrusion width = 0.55mm
; solid infill extrusion width = 0.60mm
; top infill extrusion width = 0.60mm
; first layer extrusion width = 0.58mm

; external perimeters extrusion width = 0.52mm
; perimeters extrusion width = 0.52mm
; infill extrusion width = 0.55mm
; solid infill extrusion width = 0.60mm
; top infill extrusion width = 0.60mm
; first layer extrusion width = 0.58mm

; EXECUTABLE_BLOCK_START
EXCLUDE_OBJECT_DEFINE NAME=flowrate_0_id_0_copy_0 CENTER=167.643,166.053 POLYGON=[[147.643,151.053],[187.643,151.053],[187.643,171.053],[177.643,181.053],[157.643,181.053],[147.643,171.053],[147.643,151.053]]
EXCLUDE_OBJECT_DEFINE NAME=flowrate_10_id_1_copy_0 CENTER=209.643,198.053 POLYGON=[[189.643,183.053],[229.643,183.053],[229.643,203.053],[219.643,213.053],[199.643,213.053],[189.643,203.053],[189.643,183.053]]
EXCLUDE_OBJECT_DEFINE NAME=flowrate_15_id_2_copy_0 CENTER=167.643,198.053 POLYGON=[[147.643,183.053],[187.643,183.053],[187.643,203.053],[177.643,213.053],[157.643,213.053],[147.643,203.053],[147.643,183.053]]
EXCLUDE_OBJECT_DEFINE NAME=flowrate_20_id_3_copy_0 CENTER=125.643,198.053 POLYGON=[[105.643,183.053],[145.643,183.053],[145.643,203.053],[135.643,213.053],[115.643,213.053],[105.643,203.053],[105.643,183.053]]
EXCLUDE_OBJECT_DEFINE NAME=flowrate_5_id_4_copy_0 CENTER=125.643,166.053 POLYGON=[[105.643,151.053],[145.643,151.053],[145.643,171.053],[135.643,181.053],[115.643,181.053],[105.643,171.053],[105.643,151.053]]
EXCLUDE_OBJECT_DEFINE NAME=flowrate_m10_id_5_copy_0 CENTER=209.643,134.053 POLYGON=[[189.643,119.053],[229.643,119.053],[229.643,139.053],[219.643,149.053],[199.643,149.053],[189.643,139.053],[189.643,119.053]]
EXCLUDE_OBJECT_DEFINE NAME=flowrate_m15_id_6_copy_0 CENTER=167.643,134.053 POLYGON=[[147.643,119.053],[187.643,119.053],[187.643,139.053],[177.643,149.053],[157.643,149.053],[147.643,139.053],[147.643,119.053]]
EXCLUDE_OBJECT_DEFINE NAME=flowrate_m20_id_7_copy_0 CENTER=125.643,134.053 POLYGON=[[105.643,119.053],[145.643,119.053],[145.643,139.053],[135.643,149.053],[115.643,149.053],[105.643,139.053],[105.643,119.053]]
EXCLUDE_OBJECT_DEFINE NAME=flowrate_m5_id_8_copy_0 CENTER=209.643,166.053 POLYGON=[[189.643,151.053],[229.643,151.053],[229.643,171.053],[219.643,181.053],[199.643,181.053],[189.643,171.053],[189.643,151.053]]
M73 P0 R11
;TYPE:Custom
M104 S0
M140 S0
START_PRINT BED=75 HOTEND=210
G90
G21
M83 ; use relative distances for extrusion
; filament start gcode
SET_PRESSURE_ADVANCE ADVANCE=0.036; Override pressure advance value
T0
M106 S0
;LAYER_CHANGE
;Z:0.25
;HEIGHT:0.25
;BEFORE_LAYER_CHANGE
;0.25
G92 E0

;_SET_FAN_SPEED_CHANGING_LAYER
SET_VELOCITY_LIMIT ACCEL=10000 ACCEL_TO_DECEL=5000
SET_VELOCITY_LIMIT SQUARE_CORNER_VELOCITY=10
G1 E-.4 F4200
G1 X103.042 Y115.876 F48000
G1 Z.25
G1 E.4 F4200
;TYPE:Skirt
;WIDTH:0.58
G1 F3000
G1 X104.652 Y115.069 E.10248
G1 X105.643 Y114.947 E.0568
G1 X229.643 Y114.947 E7.0551
G1 X231.4 Y115.342 E.10248
G1 X232.819 Y116.452 E.10248
G1 X233.627 Y118.062 E.10248
G1 X233.748 Y119.053 E.0568
G1 X233.748 Y203.053 E4.77926
G1 X233.353 Y204.81 E.10248
G1 X232.546 Y205.956 E.07974
G1 X222.546 Y215.956 E.80463
G1 X221.024 Y216.919 E.10248
G1 X219.643 Y217.158 E.07974
G1 X115.643 Y217.158 E5.91718
M73 P1 R11
G1 X113.886 Y216.763 E.10248
G1 X112.74 Y215.956 E.07974
G1 X102.74 Y205.956 E.80463
G1 X101.777 Y204.434 E.10248
G1 X101.538 Y203.053 E.07974
G1 X101.538 Y119.053 E4.77926
G1 X101.933 Y117.295 E.10248
G1 X103.011 Y115.916 E.09964
G1 X103.437 Y116.282 F48000
G1 F3000
G1 X103.555 Y116.146 E.01024
G1 X105.643 Y115.474 E.12483
G1 X229.643 Y115.474 E7.0551
G1 X231.276 Y115.868 E.0956
G1 X232.55 Y116.964 E.0956
G1 X233.222 Y119.053 E.12483
G1 X233.222 Y203.053 E4.77926
M73 P2 R11
G1 X232.828 Y204.686 E.0956
G1 X232.174 Y205.583 E.06318
G1 X222.174 Y215.583 E.80463
G1 X220.74 Y216.459 E.0956
G1 X219.643 Y216.632 E.06318
G1 X115.643 Y216.632 E5.91718
G1 X114.01 Y216.237 E.0956
G1 X113.112 Y215.583 E.06318
G1 X103.112 Y205.583 E.80463
G1 X102.236 Y204.15 E.0956
G1 X102.064 Y203.053 E.06318
G1 X102.064 Y119.053 E4.77926
M73 P2 R10
G1 X102.458 Y117.419 E.0956
G1 X103.405 Y116.32 E.08251
G1 X103.804 Y116.708 F48000
G1 F3000
G1 X104.063 Y116.441 E.02114
G1 X105.643 Y116 E.09335
G1 X229.643 Y116 E7.0551
M73 P3 R10
G1 X231.142 Y116.393 E.08818
G1 X232.255 Y117.472 E.08818
G1 X232.696 Y119.053 E.09335
G1 X232.696 Y203.053 E4.77926
G1 X232.302 Y204.552 E.08818
G1 X231.802 Y205.211 E.04711
G1 X221.802 Y215.211 E.80463
G1 X220.463 Y215.993 E.08818
G1 X219.643 Y216.105 E.04711
G1 X115.643 Y216.105 E5.91718
G1 X114.144 Y215.712 E.08818
G1 X113.484 Y215.211 E.04711
G1 X103.484 Y205.211 E.80463
G1 X102.703 Y203.873 E.08818
G1 X102.59 Y203.053 E.04711
G1 X102.59 Y119.053 E4.77926
M73 P4 R10
G1 X102.984 Y117.554 E.08818
G1 X103.769 Y116.743 E.0642
G1 X104.13 Y117.152 F48000
G1 F3000
G1 X104.563 Y116.769 E.0329
G1 X105.643 Y116.526 E.06296
G1 X229.643 Y116.526 E7.0551
G1 X230.995 Y116.918 E.08008
G1 X231.927 Y117.973 E.08008
G1 X232.169 Y119.053 E.06296
G1 X232.169 Y203.053 E4.77926
G1 X231.429 Y204.839 E.11001
G1 X221.429 Y214.839 E.80463
G1 X219.643 Y215.579 E.11001
G1 X115.643 Y215.579 E5.91718
M73 P5 R10
G1 X113.857 Y214.839 E.11001
G1 X103.857 Y204.839 E.80463
G1 X103.117 Y203.053 E.11001
G1 X103.117 Y119.053 E4.77926
G1 X103.509 Y117.701 E.08008
G1 X104.093 Y117.185 E.04433
; printing object flowrate_m20 id:7 copy 0
G1 E-.4 F4200
EXCLUDE_OBJECT_START NAME=flowrate_m20_id_7_copy_0
G1 X116.928 Y137.025 F48000
G1 E.4 F4200
;TYPE:Inner wall
;WIDTH:0.579999
G1 F7200
G1 X112.791 Y137.025 E.18829
G1 X112.538 Y137.066 E.01169
G1 X112.223 Y137.266 E.01695
G1 X112.084 Y137.61 E.01689
G1 X107.086 Y137.61 E.22752
G1 X107.086 Y120.495 E.779
G1 X144.2 Y120.495 E1.68934
G1 X144.2 Y128.76 E.37618
G1 X144.2 Y137.61 E.40282
G1 X139.202 Y137.61 E.22752
G1 X139.063 Y137.266 E.01689
G1 X138.748 Y137.066 E.01695
G1 X138.495 Y137.025 E.01169
G1 X116.938 Y137.025 E.98119
G1 X116.672 Y137.551 F48000
G1 F7200
G1 X112.791 Y137.551 E.17664
G1 X112.751 Y137.554 E.00182
G1 X112.602 Y137.631 E.00766
G1 X112.528 Y137.814 E.00897
G1 X112.528 Y138.136 E.01466
G1 X106.559 Y138.136 E.27168
G1 X106.559 Y119.969 E.82692
G1 X144.727 Y119.969 E1.73725
G1 X144.727 Y128.76 E.40014
G1 X144.727 Y138.136 E.42678
G1 X138.758 Y138.136 E.27168
G1 X138.758 Y137.814 E.01466
G1 X138.684 Y137.631 E.00897
G2 X138.495 Y137.551 I-.189 J.183 E.00962
G1 X116.682 Y137.551 E.99283
G1 E-.4 F4200
G1 X116.028 Y138.876 F48000
G1 E.4 F4200
;TYPE:Outer wall
G1 F7200
G1 X115.946 Y138.73 E.00762
G1 X115.77 Y138.663 E.00858
G1 X106.033 Y138.663 E.44319
G1 X106.033 Y119.443 E.87483
G1 X145.253 Y119.443 E1.78517
G1 X145.253 Y129.053 E.43742
G1 X145.253 Y138.663 E.43742
G1 X135.643 Y138.663 E.43742
G2 X135.324 Y138.746 I-.072 J.375 E.0155
G1 X135.253 Y138.926 E.00881
G1 X135.253 Y148.663 E.44319
G1 X116.033 Y148.663 E.87483
G2 X116.028 Y138.886 I-1121.96 J-4.349 E.445
G1 E-.4 F4200
G1 X116.433 Y138.886 F48000
G1 X126.344 Y140.188
G1 X127.222 Y140.495
G1 X127.131 Y141.372
G1 X127.033 Y142.13
G1 X126.344 Y142.313
G1 X125.927 Y142.35
G1 X125.092 Y142.08
G1 X124.675 Y141.939
G1 X124.551 Y142.143
G1 X124.55 Y142.142
G1 E.4 F4200
G1 F7200
G1 X125.042 Y142.571 E.02975
G1 X125.749 Y143.068 E.03933
G3 X126.375 Y143.726 I-7.318 J7.582 E.04134
G1 X126.667 Y144.225 E.02633
;WIDTH:0.626945
G1 X126.747 Y144.341 E.00699
;WIDTH:0.673891
G1 X126.828 Y144.457 E.00756
;WIDTH:0.720837
G1 X126.908 Y144.573 E.00814
;WIDTH:0.767783
G1 X126.989 Y144.689 E.00871
;WIDTH:0.78514
G1 X127.012 Y144.723 E.00266
G1 X127.028 Y144.608 E.00736
;WIDTH:0.744112
G1 X127.045 Y144.493 E.00695
;WIDTH:0.703084
G1 X127.061 Y144.378 E.00654
;WIDTH:0.662056
G1 X127.077 Y144.262 E.00612
;WIDTH:0.621028
G1 X127.093 Y144.147 E.00571
;WIDTH:0.579999
G3 X127.041 Y143.321 I17.605 J-1.529 E.03766
G1 X127.125 Y142.769 E.02544
G1 X127.254 Y142.477 E.01452
;WIDTH:0.55055
G2 X127.528 Y141.783 I-5.007 J-2.381 E.03209
;WIDTH:0.579999
G1 X127.674 Y141.381 E.01947
G1 X128.018 Y140.981 E.024
G1 X128.381 Y140.719 E.02038
G1 X128.878 Y140.55 E.02389
G1 X129.376 Y140.487 E.02283
G1 X129.795 Y140.518 E.01915
G1 X130.3 Y140.653 E.02379
G1 X130.761 Y140.919 E.02422
G1 X131.265 Y141.477 E.03424
G1 X131.581 Y142.135 E.0332
G1 X131.749 Y142.845 E.03322
G3 X131.688 Y145.521 I-7.855 J1.159 E.12242
G1 X131.493 Y146.09 E.02737
G1 X131.115 Y146.753 E.03471
G1 X130.727 Y147.128 E.02459
G1 X130.249 Y147.389 E.0248
G1 X129.706 Y147.522 E.02544
G1 X129.089 Y147.518 E.02811
G1 X128.552 Y147.384 E.02516
G1 X128.064 Y147.107 E.02556
G3 X127.543 Y146.444 I1.542 J-1.751 E.03859
G1 X127.328 Y145.845 E.02899
;WIDTH:0.622423
G1 X127.268 Y145.687 E.00828
;WIDTH:0.664846
G1 X127.208 Y145.53 E.0089
;WIDTH:0.707269
G1 X127.148 Y145.373 E.00952
;WIDTH:0.732825
G1 X127.124 Y145.305 E.0042
;WIDTH:0.758381
G1 X127.1 Y145.238 E.00435
G1 X127.07 Y145.373 E.00839
;WIDTH:0.713786
G1 X127.04 Y145.507 E.00786
;WIDTH:0.66919
G1 X127.01 Y145.642 E.00733
;WIDTH:0.624595
G1 X126.981 Y145.776 E.0068
;WIDTH:0.579999
G1 X126.836 Y146.339 E.02646
G1 X126.563 Y146.792 E.02409
G1 X126.432 Y146.958 E.00962
G1 X125.924 Y147.3 E.02788
G1 X125.427 Y147.477 E.024
G1 X124.813 Y147.541 E.02809
G1 X124.174 Y147.485 E.0292
G1 X123.672 Y147.324 E.02399
G1 X123.152 Y147.012 E.02761
G1 X122.932 Y146.775 E.01472
G1 X122.614 Y146.306 E.02577
G1 X122.445 Y145.811 E.02383
G1 X122.346 Y145.205 E.02795
G1 X122.375 Y145.037 E.00772
;WIDTH:0.623809
G1 X122.411 Y144.984 E.00318
;WIDTH:0.667618
G1 X122.446 Y144.93 E.00342
;WIDTH:0.711427
G1 X122.482 Y144.877 E.00367
;WIDTH:0.755236
G1 X122.518 Y144.823 E.00391
G1 X122.741 Y144.821 E.01349
;WIDTH:0.711427
G1 X122.963 Y144.819 E.01265
;WIDTH:0.667618
G1 X123.185 Y144.818 E.01181
;WIDTH:0.623809
G1 X123.408 Y144.816 E.01097
;WIDTH:0.620696
G1 X123.517 Y144.797 E.00545
;WIDTH:0.661393
G1 X123.627 Y144.779 E.00584
;WIDTH:0.70209
G1 X123.737 Y144.76 E.00623
;WIDTH:0.742787
G1 X123.846 Y144.742 E.00662
;WIDTH:0.783484
G1 X123.956 Y144.723 E.00701
G1 X124.072 Y144.833 E.01009
;WIDTH:0.775664
G1 X124.076 Y144.972 E.00872
;WIDTH:0.726748
G1 X124.08 Y145.112 E.00813
;WIDTH:0.677832
G1 X124.084 Y145.251 E.00754
;WIDTH:0.628916
G1 X124.088 Y145.391 E.00695
;WIDTH:0.579999
G1 X124.112 Y145.582 E.00878
G1 X124.255 Y145.815 E.01242
G1 X124.474 Y145.953 E.0118
G1 X124.863 Y145.984 E.01777
G1 X125.046 Y145.956 E.00844
G1 X125.316 Y145.756 E.0153
G1 X125.411 Y145.562 E.00981
G1 X125.403 Y145.279 E.01288
G1 X125.226 Y144.909 E.01869
;WIDTH:0.622963
G1 X125.05 Y144.724 E.01256
;WIDTH:0.665926
G1 X124.874 Y144.539 E.0135
;WIDTH:0.705112
G1 X124.712 Y144.408 E.01175
;WIDTH:0.744298
G1 X124.551 Y144.276 E.01245
;WIDTH:0.783484
G3 X124.31 Y144.044 I.396 J-.651 E.02126
;WIDTH:0.73361
G1 X124.231 Y143.944 E.0075
;WIDTH:0.683736
G1 X124.152 Y143.844 E.00695
;WIDTH:0.633862
G1 X124.073 Y143.743 E.0064
;WIDTH:0.583988
G1 X123.68 Y143.405 E.02378
;WIDTH:0.579999
G1 X123.245 Y142.934 E.02919
G1 X123.064 Y142.671 E.01455
;WIDTH:0.5488
G2 X122.648 Y142.089 I-10.386 J6.981 E.03062
;WIDTH:0.579999
G1 X122.414 Y141.77 E.018
G1 X122.275 Y141.368 E.01937
G1 X122.231 Y140.872 E.02266
G1 X122.301 Y140.676 E.00948
G1 X122.475 Y140.592 E.00875
G3 X126.282 Y140.591 I1.985 J337.603 E.17332
G1 X126.855 Y140.613 E.02606
G1 X127.024 Y140.683 E.00835
G1 X127.094 Y140.79 E.0058
G3 X127.04 Y141.559 I-4.255 J.089 E.03516
;WIDTH:0.55347
G1 X127 Y141.879 E.01393
;WIDTH:0.52694
G1 X126.965 Y141.98 E.0044
;WIDTH:0.550472
G1 X126.881 Y142.05 E.00468
;WIDTH:0.579843
G1 X126.798 Y142.12 E.00496
;WIDTH:0.579999
G3 X125.265 Y142.126 I-.785 J-4.659 E.07009
G1 X124.56 Y142.142 E.03211
G1 E-.4 F4200
G1 X124.554 Y142.138 F48000
G1 X125.907 Y142.952
G1 X126.22 Y143.218
G1 X126.413 Y143.615
G1 X126.521 Y143.857
G1 X126.617 Y144.095
G1 X126.664 Y144.224
G1 X126.702 Y144.347
G1 X126.774 Y144.588
G1 X126.821 Y144.792
G1 X126.843 Y144.894
G1 X126.863 Y144.999
G1 X126.88 Y145.104
G1 X126.893 Y145.207
G1 X126.899 Y145.255
G1 X127.099 Y145.23
G1 E.4 F4200
;WIDTH:0.78514
G1 F7200
G1 X127.012 Y144.723 E.03249
G1 E-.4 F4200
G1 X126.816 Y144.769 F48000
G1 X126.821 Y144.792
G1 X126.843 Y144.894
G1 X126.863 Y144.999
G1 X126.88 Y145.104
G1 X126.893 Y145.207
G1 X126.919 Y145.415
G1 X126.928 Y145.613
G1 X126.934 Y145.8
G1 X126.93 Y145.995
G1 X126.92 Y146.106
G1 X126.906 Y146.217
G1 X126.886 Y146.332
G1 X126.859 Y146.45
G1 X126.803 Y146.659
G1 X126.738 Y146.861
G1 X126.627 Y147.113
G1 X126.452 Y147.359
G1 X126.298 Y147.549
G1 X126.078 Y147.673
G1 X125.937 Y147.738
G1 X125.796 Y147.791
G1 X125.655 Y147.834
G1 X125.509 Y147.861
G1 X125.266 Y147.885
G1 X125.038 Y147.897
G1 X124.788 Y147.906
G1 X124.541 Y147.898
G1 X124.318 Y147.887
G1 X124.081 Y147.866
G1 X123.939 Y147.844
G1 X123.801 Y147.806
M73 P6 R10
G1 X123.664 Y147.758
G1 X123.525 Y147.698
G1 X123.306 Y147.585
G1 X123.11 Y147.464
G1 X122.846 Y147.288
G1 X119.055 Y144.459
G1 X119.055 Y143.796
G1 X119.454 Y143.796
G1 E.4 F4200
;WIDTH:0.579999
G1 F7200
G1 X119.454 Y142.652 E.05209
G1 X119.544 Y142.454 E.0099
G1 X119.717 Y142.388 E.00843
G3 X121.786 Y142.422 I.366 J41.379 E.09419
G1 X122.316 Y142.505 E.0244
;WIDTH:0.557549
G1 X122.489 Y142.65 E.00983
;WIDTH:0.5488
G1 X122.543 Y142.904 E.0111
;WIDTH:0.579999
G1 X122.598 Y143.157 E.0118
G1 X122.637 Y143.768 E.02787
G1 X122.626 Y143.862 E.00429
;WIDTH:0.623501
G1 X122.583 Y143.928 E.00387
;WIDTH:0.667003
G1 X122.54 Y143.994 E.00416
;WIDTH:0.710505
G1 X122.497 Y144.059 E.00446
;WIDTH:0.754006
G1 X122.455 Y144.125 E.00475
G1 X122.286 Y144.108 E.01027
;WIDTH:0.710505
G1 X122.117 Y144.091 E.00963
;WIDTH:0.667003
G1 X121.948 Y144.075 E.009
;WIDTH:0.623501
G1 X121.78 Y144.058 E.00836
;WIDTH:0.579999
G1 X119.717 Y144.059 E.09387
G1 X119.529 Y143.98 E.00928
G1 X119.458 Y143.805 E.0086
G1 E-.4 F4200
G1 X119.055 Y143.805 F48000
G1 X119.055 Y144.459
G1 X121.457 Y144.459
G1 X122.839 Y144.25
G1 X122.577 Y142.075
G1 X122.303 Y141.748
G1 X122.195 Y141.589
G1 X122.094 Y141.417
G1 X122.009 Y141.23
G1 X121.808 Y140.188
G1 X126.344 Y140.188
G1 X127.222 Y140.495
G1 X127.131 Y141.372
G1 X127.033 Y142.13
G1 X126.154 Y143.162
G1 X126.892 Y143.085
G1 X126.905 Y143.09
G1 E.4 F4200
;TYPE:Bottom surface
;WIDTH:0.608386
