; HEADER_BLOCK_START
; generated by OrcaSlicer 1.8.1 on 2023-12-26 at 19:56:37
; total layer number: 18
; HEADER_BLOCK_END

; THUMBNAIL_BLOCK_START

;
; THUMBNAIL_BLOCK_END

; external perimeters extrusion width = 0.52mm
; perimeters extrusion width = 0.52mm
; infill extrusion width = 0.55mm
; solid infill extrusion width = 0.55mm
; top infill extrusion width = 0.55mm
; first layer extrusion width = 0.58mm

; external perimeters extrusion width = 0.52mm
; perimeters extrusion width = 0.52mm
; infill extrusion width = 0.55mm
; solid infill extrusion width = 0.55mm
; top infill extrusion width = 0.55mm
; first layer extrusion width = 0.58mm

; external perimeters extrusion width = 0.52mm
; perimeters extrusion width = 0.52mm
; infill extrusion width = 0.55mm
; solid infill extrusion width = 0.55mm
; top infill extrusion width = 0.55mm
; first layer extrusion width = 0.58mm

; external perimeters extrusion width = 0.52mm
; perimeters extrusion width = 0.52mm
; infill extrusion width = 0.55mm
; solid infill extrusion width = 0.55mm
; top infill extrusion width = 0.55mm
; first layer extrusion width = 0.58mm

; EXECUTABLE_BLOCK_START
EXCLUDE_OBJECT_DEFINE NAME=KEY.stl_id_0_copy_0 CENTER=176.504,165 POLYGON=[[169.009,112.185],[169.054,111.593],[169.145,111.007],[169.283,110.429],[169.466,109.864],[169.693,109.316],[169.962,108.787],[170.273,108.281],[170.623,107.801],[171.009,107.35],[171.43,106.932],[171.883,106.548],[172.365,106.201],[172.872,105.893],[173.403,105.626],[173.953,105.402],[174.519,105.223],[175.097,105.088],[175.684,105],[177.324,105],[177.911,105.088],[178.489,105.223],[179.055,105.402],[179.605,105.626],[180.135,105.893],[180.643,106.201],[181.125,106.548],[181.578,106.932],[181.999,107.35],[182.385,107.801],[182.735,108.281],[183.046,108.787],[183.315,109.316],[183.542,109.864],[183.725,110.429],[183.863,111.007],[183.954,111.593],[183.999,112.185],[183.997,112.779],[182.004,222.955],[179.004,225],[174.004,225],[169.011,112.779],[169.009,112.185]]
EXCLUDE_OBJECT_DEFINE NAME=SPACER.stl_id_1_copy_0 CENTER=160.509,216.25 POLYGON=[[153.009,207.5],[168.009,207.5],[168.009,222.5],[164.009,225],[158.009,225],[153.009,222.5],[153.009,207.5]]
EXCLUDE_OBJECT_DEFINE NAME=SPACER.stl_id_2_copy_0 CENTER=160.509,197.75 POLYGON=[[153.009,189],[168.009,189],[168.009,204],[164.009,206.5],[158.009,206.5],[153.009,204],[153.009,189]]
EXCLUDE_OBJECT_DEFINE NAME=BOLT.stl_id_3_copy_0 CENTER=158.501,184.1 POLYGON=[[146.001,180.2],[171.001,180.2],[171.001,188],[166.001,188],[149.001,185],[146.001,183.5],[146.001,180.2]]
M73 P0 R6
;TYPE:Custom
M104 S0
M140 S0
START_PRINT BED=75 HOTEND=215
G90
G21
M83 ; use relative distances for extrusion
; filament start gcode
SET_PRESSURE_ADVANCE ADVANCE=0.032; Override pressure advance value
M106 S0
;LAYER_CHANGE
;Z:0.2
;HEIGHT:0.2
;BEFORE_LAYER_CHANGE
;0.2
G92 E0

;DSLR_SNAPSHOT
TIMELAPSE_TAKE_FRAME
;_SET_FAN_SPEED_CHANGING_LAYER
SET_VELOCITY_LIMIT ACCEL=10000 ACCEL_TO_DECEL=5000
SET_VELOCITY_LIMIT SQUARE_CORNER_VELOCITY=10
G1 E-.4 F4200
G1 X166.738 Y106.11 F24000
G1 Z.2
G1 E.4 F4200
;TYPE:Skirt
;WIDTH:0.58
G1 F3000
G1 X167.861 Y104.649 E.07405
G1 X169.22 Y103.369 E.07506
G1 X170.722 Y102.346 E.07304
G1 X172.388 Y101.56 E.07405
G1 X174.158 Y101.048 E.07405
G1 X175.69 Y100.852 E.06208
G1 X177.346 Y100.854 E.06657
G1 X178.527 Y100.986 E.04776
G1 X179.428 Y101.182 E.03705
G1 X181.468 Y101.92 E.0872
G1 X182.286 Y102.346 E.03706
G1 X183.549 Y103.182 E.06089
G1 X184.924 Y104.409 E.07405
G1 X186.087 Y105.837 E.07405
G1 X187.148 Y107.73 E.0872
G1 X187.489 Y108.587 E.03706
G1 X187.898 Y110.045 E.06089
G1 X188.136 Y111.872 E.07405
G1 X186.152 Y223.03 E4.46842
G1 X185.724 Y224.79 E.07278
G1 X184.34 Y226.383 E.08482
G1 X181.34 Y228.428 E.14593
G1 X179.004 Y229.148 E.09827
G1 X158.009 Y229.148 E.84385
M73 P1 R6
G1 X156.154 Y228.71 E.07661
G1 X151.154 Y226.21 E.22468
G1 X149.75 Y225.067 E.07278
G1 X148.926 Y223.234 E.08077
G1 X141.918 Y184.234 E1.59261
G1 X141.853 Y183.5 E.0296
G1 X141.853 Y180.2 E.13264
G1 X142.066 Y178.887 E.05346
G1 X165.53 Y108.552 E2.98013
G1 X165.859 Y107.73 E.03558
G1 X166.714 Y106.154 E.07204
G1 X167.185 Y106.41 F24000
G1 F3000
G1 X167.195 Y106.391 E.00088
G1 X168.268 Y104.999 E.07064
G1 X169.566 Y103.779 E.0716
G1 X171 Y102.805 E.06967
G1 X172.591 Y102.058 E.07064
G1 X174.279 Y101.571 E.07064
G1 X175.689 Y101.389 E.05714
G1 X177.345 Y101.391 E.06657
G1 X179.307 Y101.705 E.07983
G1 X181.227 Y102.4 E.08209
G1 X182.008 Y102.805 E.03535
G1 X183.236 Y103.618 E.05918
G1 X184.545 Y104.79 E.07064
G1 X185.653 Y106.154 E.07064
G1 X186.652 Y107.935 E.08208
G1 X186.978 Y108.752 E.03535
G1 X187.376 Y110.17 E.05918
G1 X187.6 Y111.913 E.07064
G1 X185.615 Y223.02 E4.46641
M73 P2 R6
G1 X185.19 Y224.654 E.06784
G1 X184.038 Y225.939 E.06937
G1 X181.038 Y227.984 E.14593
G1 X179.004 Y228.611 E.08555
G1 X158.009 Y228.611 E.84385
G1 X156.394 Y228.23 E.06669
G1 X151.394 Y225.73 E.22468
G1 X150.102 Y224.643 E.06784
G1 X149.454 Y223.139 E.06584
G1 X142.447 Y184.139 E1.59261
G1 X142.39 Y180.2 E.15832
G1 X142.575 Y179.057 E.04653
G1 X166.04 Y108.722 E2.98013
M73 P3 R6
G1 X166.356 Y107.935 E.03406
G1 X167.161 Y106.454 E.06775
G1 X167.632 Y106.711 F24000
G1 F3000
G1 X167.653 Y106.672 E.00178
G1 X168.676 Y105.349 E.06722
G1 X169.913 Y104.189 E.06814
G1 X171.279 Y103.264 E.0663
G1 X172.793 Y102.555 E.06723
G1 X174.401 Y102.094 E.06722
G1 X175.689 Y101.926 E.05219
G1 X177.345 Y101.928 E.06657
G1 X179.185 Y102.228 E.07495
G1 X180.986 Y102.88 E.07697
G1 X181.729 Y103.264 E.03364
G1 X182.922 Y104.053 E.05747
G1 X184.166 Y105.171 E.06722
G1 X185.219 Y106.47 E.06722
G1 X186.156 Y108.14 E.07697
G1 X186.467 Y108.917 E.03364
G1 X186.853 Y110.294 E.05747
G1 X187.064 Y111.953 E.06722
G1 X185.078 Y223.011 E4.46439
G1 X184.657 Y224.508 E.06252
G1 X183.735 Y225.495 E.05428
G1 X180.735 Y227.54 E.14593
M73 P4 R6
G1 X179.004 Y228.074 E.07283
G1 X158.009 Y228.074 E.84385
G1 X156.634 Y227.75 E.05678
G1 X151.634 Y225.25 E.22468
G1 X150.464 Y224.225 E.06252
G1 X149.983 Y223.044 E.05125
G1 X142.975 Y184.044 E1.59261
G1 X142.927 Y180.2 E.1545
G1 X143.085 Y179.227 E.03961
G1 X166.852 Y108.14 E3.01261
G1 X167.608 Y106.755 E.06343
G1 X168.078 Y107.013 F24000
G1 F3000
G1 X168.111 Y106.953 E.00272
G1 X169.083 Y105.699 E.06381
G1 X170.259 Y104.6 E.06469
G1 X171.557 Y103.723 E.06293
G1 X172.996 Y103.053 E.06381
G1 X174.523 Y102.617 E.06381
G1 X175.688 Y102.463 E.04724
G1 X177.344 Y102.465 E.06657
G1 X179.064 Y102.751 E.07006
G1 X180.745 Y103.359 E.07185
G1 X181.451 Y103.723 E.03193
G1 X182.608 Y104.489 E.05576
G1 X183.788 Y105.551 E.06381
G1 X184.897 Y106.953 E.07185
G1 X185.66 Y108.346 E.06381
G1 X185.956 Y109.083 E.03193
G1 X186.331 Y110.419 E.05576
G1 X186.529 Y111.994 E.06381
G1 X184.541 Y223.001 E4.46237
M73 P5 R6
G1 X184.124 Y224.349 E.05669
G1 X183.433 Y225.051 E.03962
G1 X180.433 Y227.096 E.14593
G1 X179.004 Y227.537 E.0601
G1 X158.009 Y227.537 E.84385
G1 X156.874 Y227.269 E.04686
G1 X151.874 Y224.769 E.22468
G1 X150.838 Y223.813 E.05669
G1 X150.512 Y222.949 E.03711
G1 X143.504 Y183.949 E1.59261
G1 X143.464 Y180.2 E.15068
G1 X143.594 Y179.397 E.03269
G1 X167.348 Y108.346 E3.0111
M73 P6 R6
G1 X168.054 Y107.057 E.05908
; printing object KEY.stl id:0 copy 0
G1 E-.4 F4200
EXCLUDE_OBJECT_START NAME=KEY.stl_id_0_copy_0
G1 X177.208 Y211.975 F24000
G1 E.4 F4200
;TYPE:Inner wall
;WIDTH:0.579999
G1 F4800
G1 X177.127 Y212.207 E.00987
;WIDTH:0.626044
G1 X177.079 Y212.341 E.00622
;WIDTH:0.672089
G1 X177.031 Y212.476 E.00671
;WIDTH:0.718134
G1 X176.983 Y212.61 E.0072
;WIDTH:0.764179
G1 X176.935 Y212.744 E.00769
;WIDTH:0.810223
G1 X176.888 Y212.879 E.00819
G1 X176.888 Y215.133 E.12945
;WIDTH:0.828245
G1 X176.909 Y215.479 E.02039
G1 X176.968 Y215.58 E.00686
;WIDTH:0.778596
G1 X177.027 Y215.68 E.00643
;WIDTH:0.728947
G1 X177.087 Y215.781 E.006
;WIDTH:0.679298
G1 X177.146 Y215.881 E.00556
;WIDTH:0.629649
G1 X177.205 Y215.982 E.00513
;WIDTH:0.579999
G1 X177.125 Y216.211 E.00976
;WIDTH:0.626044
G1 X177.078 Y216.345 E.00618
;WIDTH:0.672089
G1 X177.03 Y216.478 E.00667
;WIDTH:0.718134
G1 X176.983 Y216.612 E.00716
;WIDTH:0.764179
G1 X176.935 Y216.745 E.00765
;WIDTH:0.810223
G1 X176.888 Y216.879 E.00814
G1 X176.888 Y220.124 E.18638
;WIDTH:0.828245
G1 X176.909 Y220.471 E.02039
G1 X176.946 Y220.536 E.00441
;WIDTH:0.784398
G1 X176.984 Y220.6 E.00416
;WIDTH:0.740551
G1 X177.021 Y220.665 E.00391
;WIDTH:0.696704
G1 X177.109 Y220.815 E.00849
;WIDTH:0.657803
G1 X177.197 Y220.965 E.00799
;WIDTH:0.618901
G1 X177.285 Y221.115 E.00748
;WIDTH:0.579999
G1 X177.592 Y221.479 E.01917
G1 X177.285 Y221.843 E.01917
G1 X177.022 Y222.561 E.03073
G1 X177.003 Y222.999 E.0176
G1 X176.005 Y222.999 E.04009
G1 X176.005 Y221.479 E.06108
;WIDTH:0.618901
G1 X176.025 Y221.253 E.00977
;WIDTH:0.657803
G1 X176.044 Y221.027 E.01043
;WIDTH:0.696704
G1 X176.063 Y220.802 E.01109
;WIDTH:0.740551
G1 X176.085 Y220.714 E.00472
;WIDTH:0.784398
G1 X176.107 Y220.626 E.00502
;WIDTH:0.828245
G1 X176.129 Y220.538 E.00531
G1 X176.12 Y220.124 E.02434
;WIDTH:0.810223
G1 X176.12 Y216.879 E.18638
G1 X176.097 Y216.704 E.01011
;WIDTH:0.764179
G1 X176.074 Y216.529 E.0095
;WIDTH:0.718134
G1 X176.051 Y216.355 E.0089
;WIDTH:0.672089
G1 X176.028 Y216.18 E.00829
;WIDTH:0.626044
G1 X176.005 Y216.006 E.00768
;WIDTH:0.629649
G1 X176.03 Y215.914 E.00417
;WIDTH:0.679298
G1 X176.055 Y215.822 E.00453
;WIDTH:0.728947
G1 X176.08 Y215.73 E.00488
;WIDTH:0.778596
G1 X176.104 Y215.639 E.00523
;WIDTH:0.828245
G1 X176.129 Y215.547 E.00559
G1 X176.12 Y215.133 E.02434
;WIDTH:0.810223
G1 X176.12 Y212.879 E.12945
G1 X176.097 Y212.703 E.01018
;WIDTH:0.764179
G1 X176.074 Y212.527 E.00957
;WIDTH:0.718134
G1 X176.051 Y212.351 E.00895
;WIDTH:0.672089
G1 X176.028 Y212.176 E.00834
;WIDTH:0.626044
G1 X176.005 Y212 E.00773
;WIDTH:0.629649
G1 X176.03 Y211.907 E.00422
;WIDTH:0.679298
G1 X176.055 Y211.814 E.00458
;WIDTH:0.728947
G1 X176.08 Y211.721 E.00494
;WIDTH:0.778596
G1 X176.104 Y211.628 E.00529
;WIDTH:0.828245
G1 X176.129 Y211.536 E.00565
G1 X176.12 Y211.121 E.02434
;WIDTH:0.810223
G1 X176.12 Y207.334 E.2175
G1 X176.097 Y207.158 E.01018
;WIDTH:0.764179
G1 X176.074 Y206.982 E.00957
;WIDTH:0.718134
G1 X176.051 Y206.806 E.00895
;WIDTH:0.672089
G1 X176.028 Y206.631 E.00834
;WIDTH:0.626044
G1 X176.005 Y206.455 E.00773
;WIDTH:0.629649
G1 X176.03 Y206.362 E.00422
;WIDTH:0.679298
G1 X176.055 Y206.269 E.00458
;WIDTH:0.728947
G1 X176.08 Y206.176 E.00494
;WIDTH:0.778596
G1 X176.104 Y206.083 E.00529
;WIDTH:0.828245
G1 X176.129 Y205.991 E.00565
G1 X176.12 Y205.577 E.02434
;WIDTH:0.810223
G1 X176.12 Y119.444 E4.94586
G1 X176.057 Y119.274 E.01041
;WIDTH:0.764179
G1 X175.993 Y119.104 E.00978
;WIDTH:0.718134
G1 X175.93 Y118.934 E.00916
;WIDTH:0.672089
G1 X175.866 Y118.765 E.00854
;WIDTH:0.626044
G1 X175.803 Y118.595 E.00791
;WIDTH:0.579999
G1 X175.446 Y118.106 E.02429
G1 X175.164 Y117.877 E.01463
G3 X173.911 Y117.301 I40.092 J-88.829 E.05543
G3 X171.715 Y115.151 I2.775 J-5.032 E.12505
G1 X171.349 Y114.36 E.03503
G1 X171.127 Y113.591 E.03218
G1 X171.045 Y113.089 E.02044
G1 X171.01 Y112.295 E.03193
G1 X171.049 Y111.788 E.02047
G1 X171.222 Y110.937 E.03488
G3 X171.95 Y109.377 I6.094 J1.895 E.06941
G1 X172.484 Y108.706 E.03446
G1 X172.928 Y108.286 E.02456
G2 X172.93 Y109.282 I209.222 J.093 E.04
G1 X173.051 Y109.866 E.02397
G1 X173.245 Y110.228 E.01651
G1 X173.167 Y110.34 E.0055
G1 X173.007 Y110.719 E.01655
G1 X172.928 Y111.259 E.02191
G1 X172.928 Y113.373 E.08497
G1 X172.953 Y113.962 E.02371
G1 X173.109 Y114.458 E.0209
G1 X173.401 Y114.899 E.02124
G1 X173.799 Y115.238 E.02102
G1 X174.257 Y115.449 E.02027
G1 X174.807 Y115.531 E.02237
G1 X177.77 Y115.531 E.11908
G1 X178.515 Y115.505 E.02995
G1 X178.984 Y115.36 E.01973
G1 X179.418 Y115.083 E.0207
G1 X179.768 Y114.689 E.0212
G1 X179.994 Y114.214 E.02114
G1 X180.08 Y113.652 E.02286
G1 X180.08 Y111.571 E.08363
G1 X180.062 Y110.997 E.02306
G1 X179.933 Y110.531 E.01945
G1 X179.763 Y110.228 E.01398
G1 X179.84 Y110.115 E.0055
G1 X180.038 Y109.593 E.02242
G1 X180.08 Y109.196 E.01603
G1 X180.08 Y108.286 E.0366
G1 X180.225 Y108.409 E.00765
G3 X181.353 Y109.872 I-4.213 J4.413 E.07452
G1 X181.663 Y110.556 E.03019
G3 X181.997 Y112.295 I-6.468 J2.146 E.07139
G3 X181.794 Y113.945 I-6.108 J.084 E.067
G1 X181.636 Y114.422 E.02019
G1 X181.263 Y115.205 E.03487
G3 X178.586 Y117.538 I-4.814 J-2.82 E.14527
G1 X177.844 Y117.877 E.03278
G1 X177.561 Y118.106 E.01463
G1 X177.205 Y118.595 E.02429
;WIDTH:0.626044
G1 X177.142 Y118.765 E.00791
;WIDTH:0.672089
G1 X177.078 Y118.934 E.00854
;WIDTH:0.718134
G1 X177.015 Y119.104 E.00916
;WIDTH:0.764179
G1 X176.951 Y119.274 E.00978
;WIDTH:0.810223
G1 X176.888 Y119.444 E.01041
G1 X176.888 Y205.577 E4.94586
;WIDTH:0.828245
M73 P7 R6
G1 X176.909 Y205.923 E.02039
G1 X176.968 Y206.024 E.00693
;WIDTH:0.778596
G1 X177.028 Y206.126 E.00649
;WIDTH:0.728947
G1 X177.088 Y206.227 E.00605
;WIDTH:0.679298
G1 X177.148 Y206.329 E.00561
;WIDTH:0.629649
G1 X177.208 Y206.43 E.00517
;WIDTH:0.579999
G1 X177.127 Y206.662 E.00987
;WIDTH:0.626044
G1 X177.079 Y206.796 E.00622
;WIDTH:0.672089
G1 X177.031 Y206.931 E.00671
;WIDTH:0.718134
G1 X176.983 Y207.065 E.0072
;WIDTH:0.764179
G1 X176.935 Y207.199 E.00769
;WIDTH:0.810223
G1 X176.888 Y207.334 E.00819
G1 X176.888 Y211.121 E.2175
;WIDTH:0.828245
G1 X176.909 Y211.468 E.02039
G1 X176.968 Y211.569 E.00693
;WIDTH:0.778596
G1 X177.028 Y211.671 E.00649
;WIDTH:0.728947
G1 X177.088 Y211.772 E.00605
;WIDTH:0.679298
G1 X177.148 Y211.874 E.00561
;WIDTH:0.629649
G1 X177.203 Y211.967 E.00473
G1 X177.884 Y212 F24000
;WIDTH:0.579999
G1 F4800
G1 X177.816 Y212.063 E.00371
G1 X177.628 Y212.399 E.01547
G1 X177.54 Y212.879 E.0196
G1 X177.54 Y215.133 E.09061
G1 X177.56 Y215.365 E.00936
G1 X177.685 Y215.739 E.01587
G1 X177.878 Y216.006 E.01323
G1 X177.813 Y216.066 E.00357
G1 X177.627 Y216.402 E.01542
G1 X177.54 Y216.879 E.01948
G1 X177.54 Y220.124 E.13046
G1 X177.56 Y220.356 E.00936
G1 X177.741 Y220.832 E.02045
G1 X178.039 Y221.169 E.01811
;WIDTH:0.584922
G1 X178.379 Y221.372 E.01605
;WIDTH:0.614144
G1 X178.764 Y221.479 E.01707
G1 X178.379 Y221.586 E.01707
;WIDTH:0.584922
G1 X178.039 Y221.789 E.01605
;WIDTH:0.579999
G1 X177.741 Y222.126 E.01811
G1 X177.554 Y222.639 E.02195
G2 X177.54 Y223.536 I6.154 J.546 E.03607
G1 X175.468 Y223.536 E.08327
G1 X175.468 Y119.444 E4.18372
M73 P7 R5
G2 X175.195 Y118.632 I-1.512 J.057 E.03491
G1 X174.867 Y118.325 E.01805
G2 X174.049 Y117.968 I-2.137 J3.783 E.03596
G1 X173.57 Y117.726 E.02157
G1 X172.865 Y117.267 E.03379
G3 X171.546 Y115.892 I3.946 J-5.107 E.07689
G3 X170.723 Y114.18 I5.348 J-3.623 E.0766
G3 X170.473 Y112.297 I6.217 J-1.783 E.07662
G3 X170.812 Y110.458 I6.481 J.244 E.07542
G3 X171.516 Y109.061 I6.216 J2.255 E.06303
G1 X172.062 Y108.372 E.03534
G3 X173.465 Y107.246 I4.659 J4.368 E.07253
G1 X173.465 Y109.196 E.07839
G1 X173.553 Y109.674 E.01953
G1 X173.779 Y110.06 E.01798
G1 X173.976 Y110.228 E.01039
G2 X173.524 Y110.865 I.751 J1.012 E.03193
G1 X173.465 Y111.259 E.01601
G1 X173.465 Y113.652 E.09618
G1 X173.526 Y114.053 E.01633
G1 X173.728 Y114.45 E.01791
G1 X174.047 Y114.758 E.01784
G1 X174.414 Y114.935 E.01637
G1 X174.807 Y114.994 E.01598
G1 X178.2 Y114.994 E.13637
G1 X178.593 Y114.935 E.01598
G1 X178.96 Y114.758 E.01637
G1 X179.28 Y114.45 E.01784
G1 X179.482 Y114.053 E.01791
G1 X179.543 Y113.652 E.01633
G2 X179.53 Y111.072 I-85.149 J-.86 E.10368
G1 X179.438 Y110.739 E.0139
G1 X179.228 Y110.395 E.01618
G1 X179.031 Y110.228 E.01039
G1 X179.228 Y110.06 E.01039
G1 X179.455 Y109.674 E.01798
G1 X179.543 Y109.196 E.01953
G1 X179.543 Y107.246 E.07839
G1 X180.222 Y107.702 E.03287
G1 X180.604 Y108.028 E.02019
G1 X181.145 Y108.604 E.03174
G3 X182.412 Y111.234 I-4.755 J3.911 E.11846
G3 X182.534 Y112.297 I-5.437 J1.167 E.0431
G1 X182.528 Y112.775 E.01919
G1 X182.426 Y113.607 E.03368
G3 X181.77 Y115.398 I-6.322 J-1.298 E.07697
G3 X179.798 Y117.511 I-5.337 J-3.004 E.11728
G3 X178.785 Y118.037 I-3.266 J-5.054 E.04595
G1 X178.141 Y118.325 E.02835
G1 X177.939 Y118.489 E.01045
G1 X177.684 Y118.837 E.01735
G2 X177.54 Y119.444 I1.198 J.606 E.02529
G1 X177.54 Y205.577 E3.46189
M73 P8 R5
G1 X177.56 Y205.808 E.00936
G1 X177.686 Y206.186 E.01602
