; HEADER_BLOCK_START
; generated by OrcaSlicer 1.8.1 on 2024-01-31 at 16:47:25
; total layer number: 75
; HEADER_BLOCK_END

; THUMBNAIL_BLOCK_START

;
; THUMBNAIL_BLOCK_END

; external perimeters extrusion width = 0.52mm
; perimeters extrusion width = 0.52mm
; infill extrusion width = 0.55mm
; solid infill extrusion width = 0.55mm
; top infill extrusion width = 0.55mm
; first layer extrusion width = 0.58mm

; EXECUTABLE_BLOCK_START
EXCLUDE_OBJECT_DEFINE NAME=LGX_Lite_Filament_Entry_Sensor_Mount_-_Flat.stl_id_0_copy_0 CENTER=165,165 POLYGON=[[145.901,190.371],[145.929,189.817],[146.041,189.273],[158.445,138.604],[158.546,138.198],[158.58,138.099],[158.726,137.763],[158.801,137.625],[158.972,137.362],[159.101,137.197],[159.278,137.004],[159.471,136.827],[159.636,136.698],[159.899,136.527],[160.037,136.452],[160.373,136.306],[160.472,136.272],[160.541,136.25],[160.579,136.238],[160.644,136.221],[160.736,136.199],[160.857,136.175],[160.878,136.171],[160.93,136.162],[161.008,136.151],[161.188,136.133],[161.399,136.125],[181.099,136.125],[181.569,136.162],[182.026,136.272],[182.461,136.452],[182.863,136.698],[183.221,137.004],[183.526,137.362],[183.772,137.763],[183.953,138.198],[184.062,138.656],[184.099,139.125],[184.099,185.875],[184.056,186.711],[183.925,187.538],[183.708,188.347],[183.408,189.129],[183.028,189.875],[182.571,190.577],[182.045,191.228],[181.452,191.82],[180.802,192.347],[180.099,192.803],[179.353,193.183],[178.571,193.483],[177.763,193.7],[176.936,193.831],[176.099,193.875],[149.499,193.875],[148.946,193.832],[148.405,193.705],[147.891,193.495],[147.415,193.21],[146.988,192.854],[146.621,192.437],[146.323,191.969],[146.1,191.461],[145.958,190.924],[145.901,190.371]]
M73 P0 R8
;TYPE:Custom
M104 S0
M140 S0
START_PRINT BED=75 HOTEND=210
G90
G21
M83 ; use relative distances for extrusion
T1
M104 S210 ; set nozzle temperature
; filament start gcode
SET_PRESSURE_ADVANCE ADVANCE=0.036; Override pressure advance value
M106 S0
;LAYER_CHANGE
;Z:0.2
;HEIGHT:0.2
;BEFORE_LAYER_CHANGE
;0.2
G92 E0

;_SET_FAN_SPEED_CHANGING_LAYER
SET_VELOCITY_LIMIT ACCEL=10000 ACCEL_TO_DECEL=5000
SET_VELOCITY_LIMIT SQUARE_CORNER_VELOCITY=10
G1 E-.4 F4200
G1 X156.442 Y134.408 F48000
G1 Z.2
G1 E.4 F4200
;TYPE:Skirt
;WIDTH:0.58
G1 F3000
G1 X157.011 Y133.87 E.03497
G1 X157.816 Y133.293 E.04425
G1 X158.913 Y132.747 E.05472
G1 X159.861 Y132.458 E.04423
G1 X160.591 Y132.331 E.03312
G1 X161.399 Y132.277 E.03617
G1 X181.425 Y132.29 E.89431
G1 X182.602 Y132.45 E.05305
G1 X183.694 Y132.792 E.05112
G1 X184.683 Y133.293 E.04948
G1 X185.816 Y134.168 E.06396
G1 X186.598 Y135.052 E.05269
G1 X187.36 Y136.365 E.06779
G1 X187.775 Y137.623 E.05916
G1 X187.933 Y138.773 E.05185
G1 X187.942 Y186.092 E2.11319
G1 X187.854 Y187.329 E.05537
G1 X187.638 Y188.549 E.05537
G1 X187.295 Y189.741 E.05537
G1 X186.464 Y191.608 E.09128
G1 X185.808 Y192.66 E.05537
G1 X185.045 Y193.638 E.05537
G1 X184.185 Y194.53 E.05537
G1 X182.885 Y195.583 E.07472
G1 X181.833 Y196.239 E.05537
G1 X179.965 Y197.071 E.09128
G1 X178.774 Y197.413 E.05537
G1 X177.553 Y197.63 E.05537
G1 X176.099 Y197.723 E.06506
G1 X149.499 Y197.723 E1.18791
G1 X148.622 Y197.665 E.03928
G1 X147.408 Y197.418 E.05531
G1 X145.809 Y196.741 E.07755
G1 X144.834 Y196.078 E.05266
G1 X143.976 Y195.269 E.05266
G1 X143.257 Y194.334 E.05267
G1 X142.822 Y193.562 E.03957
G1 X142.497 Y192.796 E.03715
G1 X142.176 Y191.607 E.05502
G1 X142.057 Y190.38 E.05502
G1 X142.146 Y189.131 E.05593
G1 X154.736 Y137.568 E2.37037
G1 X155.021 Y136.639 E.04341
G1 X155.505 Y135.642 E.04949
G1 X156.412 Y134.448 E.06695
G1 X156.822 Y134.788 F48000
G1 F3000
G1 X157.36 Y134.279 E.03309
G1 X158.097 Y133.751 E.04048
G1 X159.119 Y133.243 E.05096
G1 X160.637 Y132.866 E.06986
G1 X161.399 Y132.814 E.03414
G1 X181.383 Y132.825 E.89242
G1 X182.466 Y132.97 E.04883
G1 X183.489 Y133.288 E.04782
G1 X184.402 Y133.751 E.04572
G1 X185.437 Y134.548 E.05832
G1 X186.158 Y135.36 E.04851
G1 X186.873 Y136.592 E.06361
M73 P1 R8
G1 X187.255 Y137.758 E.05482
G1 X187.398 Y138.819 E.04778
G1 X187.406 Y186.064 E2.1099
G1 X187.324 Y187.245 E.05286
G1 X187.119 Y188.41 E.05286
G1 X186.794 Y189.548 E.05286
G1 X185.985 Y191.364 E.08877
G1 X185.357 Y192.368 E.05286
G1 X184.628 Y193.3 E.05286
G1 X183.805 Y194.151 E.05286
G1 X182.592 Y195.133 E.06971
G1 X181.589 Y195.761 E.05286
G1 X179.773 Y196.569 E.08877
G1 X178.635 Y196.895 E.05286
G1 X177.469 Y197.099 E.05286
G1 X176.099 Y197.186 E.06129
G1 X149.499 Y197.186 E1.18791
G1 X148.666 Y197.13 E.03732
G1 X147.541 Y196.897 E.05127
G1 X146.085 Y196.281 E.07063
G1 X145.178 Y195.665 E.04896
G1 X144.379 Y194.914 E.04897
G1 X143.71 Y194.045 E.04897
G1 X143.298 Y193.312 E.03757
G1 X143.007 Y192.629 E.03314
G1 X142.708 Y191.527 E.05101
G1 X142.594 Y190.39 E.05101
G1 X142.673 Y189.233 E.0518
G1 X155.258 Y137.696 E2.36918
G1 X155.517 Y136.845 E.03975
G1 X155.963 Y135.923 E.04573
G1 X156.792 Y134.828 E.06132
G1 X157.201 Y135.168 F48000
G1 F3000
G1 X158.22 Y134.311 E.05943
G1 X159.324 Y133.739 E.05553
G1 X160.682 Y133.401 E.0625
G1 X181.341 Y133.361 E.92256
G1 X182.331 Y133.489 E.0446
G1 X183.283 Y133.784 E.04452
G1 X184.121 Y134.209 E.04195
G1 X185.057 Y134.927 E.05268
G1 X185.718 Y135.668 E.04433
G1 X186.386 Y136.819 E.05943
G1 X186.735 Y137.894 E.05048
G1 X186.862 Y138.864 E.04371
G1 X186.874 Y185.875 E2.09942
G1 X186.793 Y187.161 E.05753
G1 X186.6 Y188.271 E.05035
G1 X186.292 Y189.356 E.05035
G1 X185.507 Y191.12 E.08626
M73 P2 R8
G1 X184.907 Y192.075 E.05035
G1 X184.211 Y192.962 E.05035
G1 X183.186 Y193.986 E.06469
G1 X182.3 Y194.682 E.05035
G1 X181.345 Y195.282 E.05035
G1 X179.58 Y196.068 E.08626
G1 X178.496 Y196.376 E.05035
G1 X177.385 Y196.569 E.05035
G1 X176.099 Y196.649 E.05753
G1 X149.499 Y196.649 E1.18791
G1 X148.71 Y196.594 E.03535
G1 X147.675 Y196.377 E.04723
G1 X146.361 Y195.82 E.06371
G1 X145.522 Y195.253 E.04526
G1 X144.782 Y194.559 E.04527
G1 X144.163 Y193.757 E.04527
G1 X143.773 Y193.062 E.03556
G1 X143.517 Y192.462 E.02913
G1 X143.239 Y191.447 E.04701
G1 X143.131 Y190.4 E.04701
G1 X143.2 Y189.335 E.04768
G1 X155.78 Y137.824 E2.36799
G1 X156.013 Y137.05 E.0361
G1 X156.421 Y136.203 E.04196
G1 X157.171 Y135.208 E.05568
G1 X157.581 Y135.547 F48000
G1 F3000
G1 X158.528 Y134.751 E.05525
G1 X159.53 Y134.236 E.05031
G1 X160.728 Y133.936 E.05515
G1 X181.298 Y133.896 E.91864
G1 X182.195 Y134.009 E.04038
G1 X183.078 Y134.281 E.04122
G1 X183.841 Y134.666 E.03819
G1 X184.677 Y135.307 E.04705
G1 X185.278 Y135.976 E.04015
G1 X185.899 Y137.046 E.05525
G1 X186.215 Y138.029 E.04614
G1 X186.327 Y138.91 E.03964
G1 X186.336 Y185.875 E2.09738
G1 X186.263 Y187.077 E.05377
G1 X186.082 Y188.132 E.04784
G1 X185.791 Y189.163 E.04784
G1 X185.028 Y190.877 E.08375
G1 X184.457 Y191.783 E.04784
G1 X183.793 Y192.624 E.04784
G1 X182.848 Y193.569 E.05968
G1 X182.007 Y194.232 E.04784
G1 X181.101 Y194.804 E.04784
G1 X179.388 Y195.566 E.08375
G1 X178.357 Y195.857 E.04784
G1 X177.301 Y196.038 E.04784
G1 X176.099 Y196.112 E.05377
G1 X149.499 Y196.112 E1.18791
G1 X148.754 Y196.059 E.03339
G1 X147.808 Y195.857 E.04318
G1 X146.638 Y195.36 E.05679
G1 X145.865 Y194.84 E.04157
G1 X145.186 Y194.204 E.04157
G1 X144.616 Y193.468 E.04157
G1 X144.249 Y192.813 E.03356
G1 X143.77 Y191.367 E.06799
G1 X143.668 Y190.41 E.043
G1 X143.728 Y189.436 E.04356
G1 X156.301 Y137.952 E2.3668
M73 P3 R8
G1 X156.51 Y137.256 E.03244
G1 X156.879 Y136.484 E.0382
G1 X157.551 Y135.587 E.05004
; printing object LGX Lite Filament Entry Sensor Mount - Flat.stl id:0 copy 0
G1 E-.4 F4200
EXCLUDE_OBJECT_START NAME=LGX_Lite_Filament_Entry_Sensor_Mount_-_Flat.stl_id_0_copy_0
G1 X179.173 Y154.941 F48000
G1 E.4 F4200
;TYPE:Inner wall
;WIDTH:0.579999
G1 F7200
G1 X182.336 Y149.463 E.28246
G1 X182.336 Y155.13 E.25308
G1 X181.529 Y154.857 E.03806
G1 X180.77 Y154.746 E.03424
G1 X180.002 Y154.766 E.03428
G1 X179.183 Y154.939 E.03741
G1 E-.4 F4200
G1 X183.672 Y158.848 F48000
G1 E.4 F4200
;TYPE:Outer wall
;WIDTH:0.46792
G1 F7200
G3 X183.652 Y159.938 I-9.525 J.37 E.03856
G1 E-.4 F4200
G1 X170.779 Y159.099 F48000
G1 E.4 F4200
;TYPE:Inner wall
;WIDTH:0.579999
G1 F7200
G1 X170.996 Y159.21 E.01088
G1 X171.419 Y159.278 E.01913
G1 X175.105 Y159.278 E.16462
G1 X175.967 Y159.263 E.03849
G1 X175.972 Y159.566 E.01353
G1 X176.087 Y160.326 E.03431
G1 X176.325 Y161.049 E.03402
G1 X176.688 Y161.734 E.03461
G1 X177.157 Y162.342 E.03429
G2 X178.369 Y163.28 I3.724 J-3.56 E.06869
G1 X179.076 Y163.582 E.03433
G1 X179.833 Y163.761 E.03474
G1 X180.645 Y163.808 E.03633
G1 X181.4 Y163.72 E.03395
G2 X182.34 Y163.41 I-.712 J-3.73 E.04433
G3 X182.327 Y169.749 I-433.408 J2.299 E.28309
G1 X181.471 Y170.832 E.06167
G1 X180.992 Y171.521 E.03749
G1 X180.472 Y172.432 E.04685
G2 X179.283 Y179.377 I10.672 J5.401 E.31936
G1 X179.516 Y180.588 E.05507
G1 X179.72 Y181.347 E.03511
G2 X182.245 Y185.729 I11.6 J-3.763 E.2275
G1 X182.332 Y185.905 E.00875
G3 X176.061 Y192.111 I-6.255 J-.05 E.43729
G1 X153.666 Y192.116 E1.00012
G2 X153.955 Y191.129 I-12.684 J-4.245 E.04593
G1 X154.034 Y190.371 E.03404
G1 X153.985 Y189.599 E.03453
G1 X153.807 Y188.853 E.03426
G1 X153.506 Y188.147 E.03426
G1 X153.091 Y187.505 E.03416
G1 X152.561 Y186.929 E.03492
G1 X151.973 Y186.473 E.03327
G1 X151.295 Y186.11 E.03431
G1 X150.567 Y185.867 E.0343
G2 X149.578 Y185.752 I-.92 J3.594 E.04462
G1 X152.115 Y180.321 E.2677
G3 X159.54 Y169.667 I34.584 J16.188 E.58275
G1 X159.975 Y169.164 E.02972
G1 X160.112 Y168.847 E.01542
G1 X160.164 Y168.477 E.01665
G1 X160.164 Y150.303 E.81164
M73 P3 R7
G1 X160.602 Y150.401 E.02005
G1 X164.936 Y150.401 E.19356
G1 X165.562 Y150.246 E.02881
G1 X165.816 Y149.98 E.01644
;WIDTH:0.546659
G1 X166.07 Y149.713 E.01542
;WIDTH:0.51333
G1 X171.422 Y140.443 E.41869
;WIDTH:0.525034
G1 X171.523 Y140.239 E.00913
;WIDTH:0.552517
G1 X171.577 Y139.988 E.01088
;WIDTH:0.579999
G1 X171.63 Y139.737 E.01147
G1 X171.422 Y139.07 E.0312
G1 X170.975 Y138.635 E.02787
;WIDTH:0.589671
G1 X170.288 Y138.441 E.03244
G1 X165.813 Y138.441 E.20342
;WIDTH:0.601953
G1 X165.58 Y138.455 E.01089
G1 X165.098 Y138.652 E.02419
;WIDTH:0.579999
G1 X164.651 Y139.117 E.02881
G1 X160.164 Y146.889 E.40078
G1 X160.164 Y139.287 E.3395
G1 X160.204 Y138.858 E.01925
G1 X160.355 Y138.479 E.0182
G1 X160.628 Y138.168 E.01851
G1 X160.99 Y137.965 E.01853
G1 X161.462 Y137.889 E.02134
G1 X164.878 Y137.889 E.15255
;WIDTH:0.589671
G2 X171.18 Y137.889 I3.151 J-1026.508 E.28651
;WIDTH:0.579999
G1 X172.963 Y137.889 E.07965
;WIDTH:0.589672
G2 X179.125 Y137.889 I3.081 J-981.118 E.28013
;WIDTH:0.579999
G3 X181.288 Y137.911 I.538 J55.004 E.09662
G1 X181.745 Y138.081 E.02176
G1 X182.057 Y138.354 E.01851
G1 X182.259 Y138.715 E.0185
G1 X182.335 Y139.188 E.02137
G1 X182.335 Y147.936 E.39071
G1 X182.271 Y147.799 E.00678
G1 X181.734 Y147.415 E.02948
G1 X181.246 Y147.323 E.0222
G1 X176.771 Y147.323 E.19982
G1 X176.145 Y147.478 E.02881
G1 X175.891 Y147.744 E.01644
;WIDTH:0.54667
G1 X175.637 Y148.011 E.01542
;WIDTH:0.513354
G1 X170.285 Y157.281 E.41871
;WIDTH:0.525058
G1 X170.184 Y157.485 E.00913
;WIDTH:0.552529
G1 X170.131 Y157.736 E.01088
;WIDTH:0.579999
G1 X170.077 Y157.987 E.01147
G1 X170.256 Y158.607 E.0288
G2 X170.635 Y159.026 I1.163 J-.671 E.02539
G1 X170.77 Y159.095 E.0068
G1 E-.4 F4200
G1 X152.652 Y192.678 F48000
G1 E.4 F4200
G1 F7200
G1 X152.926 Y192.325 E.01995
G1 X153.233 Y191.71 E.03068
G1 X153.422 Y191.059 E.03027
G1 X153.498 Y190.392 E.03001
G1 X153.46 Y189.711 E.03045
G1 X153.308 Y189.051 E.03021
G1 X153.047 Y188.427 E.03022
G1 X152.686 Y187.857 E.03012
G1 X152.222 Y187.345 E.03087
G1 X151.707 Y186.94 E.02926
G1 X151.113 Y186.615 E.03026
G1 X150.472 Y186.396 E.03024
G1 X149.792 Y186.287 E.03076
G1 X149.196 Y186.291 E.02661
G1 X148.664 Y186.397 E.02422
G1 X148.772 Y186.206 E.0098
G1 X151.631 Y180.088 E.30158
G3 X159.402 Y169.035 I35.285 J16.549 E.60646
G1 X159.555 Y168.809 E.01221
G1 X159.626 Y168.477 E.01512
G1 X159.626 Y150.188 E.81679
;WIDTH:0.589102
G1 X159.631 Y149.536 E.0296
;WIDTH:0.623551
G1 X159.648 Y149.386 E.00729
;WIDTH:0.658
G1 X159.665 Y149.236 E.00772
;WIDTH:0.692448
G1 X159.683 Y149.086 E.00815
G1 X159.749 Y149.218 E.00799
;WIDTH:0.657102
G1 X159.816 Y149.35 E.00756
;WIDTH:0.621756
G1 X160.258 Y149.787 E.02992
;WIDTH:0.579999
G1 X160.602 Y149.864 E.01573
G1 X164.936 Y149.864 E.19356
G1 X165.312 Y149.771 E.01728
G1 X165.634 Y149.461 E.01996
G1 X170.986 Y140.191 E.47803
G1 X171.045 Y140.065 E.00624
G1 X171.093 Y139.758 E.01389
G1 X170.986 Y139.386 E.01728
G1 X170.7 Y139.096 E.01816
G1 X170.288 Y138.983 E.01908
G1 X165.674 Y138.995 E.20604
G1 X165.384 Y139.107 E.01389
G1 X165.116 Y139.386 E.01728
G1 X164.178 Y141.011 E.0838
;WIDTH:0.587464
G1 X159.831 Y148.532 E.39336
;WIDTH:0.633475
G1 X159.753 Y148.735 E.01063
;WIDTH:0.679486
G1 X159.676 Y148.937 E.01146
G1 X159.653 Y148.708 E.01219
;WIDTH:0.633475
G1 X159.63 Y148.479 E.01131
;WIDTH:0.587464
G1 X159.626 Y139.791 E.39336
;WIDTH:0.579999
G1 X159.626 Y139.176 E.02746
G1 X159.719 Y138.603 E.02593
G1 X159.895 Y138.198 E.01973
G1 X160.18 Y137.854 E.01995
G1 X160.537 Y137.581 E.02007
G1 X160.954 Y137.419 E.02
G1 X161.439 Y137.352 E.02183
G1 X181.06 Y137.352 E.87626
G1 X181.559 Y137.43 E.02252
G1 X182.026 Y137.621 E.02257
G1 X182.37 Y137.905 E.01989
G1 X182.644 Y138.263 E.02014
G1 X182.805 Y138.68 E.01998
G1 X182.872 Y139.165 E.02186
G1 X182.873 Y147.775 E.38454
;WIDTH:0.627371
G1 X182.849 Y148.072 E.01447
;WIDTH:0.674743
G1 X182.825 Y148.369 E.01564
;WIDTH:0.722114
G2 X182.823 Y148.883 I1.444 J.264 E.02918
;WIDTH:0.680092
G1 X182.844 Y149.1 E.01157
;WIDTH:0.63807
G1 X182.865 Y149.317 E.0108
;WIDTH:0.596047
G1 X182.873 Y153.661 E.19978
;WIDTH:0.579999
G2 X182.896 Y156.115 I60.387 J.643 E.10959
G1 X182.687 Y155.942 E.01211
G1 X182.082 Y155.602 E.031
G1 X181.438 Y155.386 E.03034
G1 X180.77 Y155.283 E.03019
G1 X180.093 Y155.295 E.03023
M73 P4 R7
G1 X179.428 Y155.42 E.03023
G1 X178.794 Y155.656 E.03022
G1 X178.209 Y155.995 E.0302
G1 X177.701 Y156.417 E.02948
G1 X179.772 Y152.83 E.18496
;WIDTH:0.596047
G1 X181.95 Y149.072 E.19978
;WIDTH:0.641142
G1 X182.005 Y148.988 E.00502
;WIDTH:0.686236
G1 X182.059 Y148.903 E.00539
;WIDTH:0.731329
G1 X182.114 Y148.818 E.00577
G1 X182.114 Y148.513 E.01743
G1 X182.05 Y148.421 E.00639
;WIDTH:0.693497
G1 X181.987 Y148.329 E.00604
;WIDTH:0.655664
G1 X181.924 Y148.238 E.00568
;WIDTH:0.617832
G1 X181.861 Y148.146 E.00533
;WIDTH:0.579999
G1 X181.539 Y147.915 E.01769
G1 X181.246 Y147.86 E.01332
G1 X176.771 Y147.86 E.19982
G1 X176.396 Y147.953 E.01728
G1 X176.074 Y148.263 E.01996
G1 X170.721 Y157.533 E.47803
G1 X170.662 Y157.66 E.00624
G1 X170.614 Y157.967 E.01389
G1 X170.721 Y158.339 E.01728
G1 X170.845 Y158.501 E.00909
G1 X171.086 Y158.669 E.01314
G1 X171.419 Y158.741 E.01522
G1 X175.894 Y158.741 E.19982
G1 X176.261 Y158.653 E.01687
G1 X176.377 Y158.581 E.00609
G1 X176.581 Y158.333 E.01435
;WIDTH:0.55688
G1 X176.716 Y158.064 E.01284
;WIDTH:0.533772
G1 X176.681 Y158.163 E.00429
;WIDTH:0.579999
G1 X176.525 Y158.823 E.03025
G1 X176.505 Y159.5 E.03025
G1 X176.601 Y160.17 E.03025
G1 X176.806 Y160.81 E.03
G1 X177.121 Y161.417 E.03052
G1 X177.531 Y161.956 E.03024
G2 X178.593 Y162.791 I3.308 J-3.112 E.06057
G1 X179.214 Y163.063 E.03028
G1 X179.877 Y163.226 E.0305
G1 X180.597 Y163.273 E.03221
G1 X181.262 Y163.201 E.02989
G1 X181.919 Y163.014 E.03049
G1 X182.416 Y162.782 E.0245
G1 X182.912 Y162.428 E.02719
G1 X182.878 Y162.821 E.0176
G1 X182.872 Y169.652 E.30507
G1 X182.837 Y169.924 E.01224
G1 X182.684 Y170.176 E.01318
G1 X181.91 Y171.141 E.05523
G1 X181.457 Y171.79 E.03535
G1 X180.959 Y172.658 E.04471
G2 X179.813 Y179.288 I10.213 J5.18 E.30493
G1 X180.036 Y180.452 E.05293
G1 X180.226 Y181.165 E.03297
G2 X182.351 Y185.022 I10.964 J-3.526 E.19788
G1 X182.797 Y185.585 E.03206
G1 X182.87 Y185.894 E.01418
G3 X176.075 Y192.648 I-6.795 J-.041 E.47484
G1 X153.666 Y192.653 E1.00074
G1 X152.662 Y192.677 E.04485
G1 E-.4 F4200
G1 X150.984 Y193.285 F48000
G1 E.4 F4200
;TYPE:Outer wall
G1 F7200
G1 X151.158 Y193.202 E.0086
G2 X152.066 Y192.538 I-4.734 J-7.421 E.05029
G1 X152.45 Y192.076 E.02682
G1 X152.72 Y191.551 E.02634
G1 X152.889 Y190.99 E.0262
G1 X152.961 Y190.412 E.02599
G1 X152.934 Y189.822 E.02638
G1 X152.809 Y189.25 E.02617
