; HEADER_BLOCK_START
; generated by OrcaSlicer 1.6.3 on 2023-11-19 at 13:11:13
; total layer number: 10
; HEADER_BLOCK_END

; THUMBNAIL_BLOCK_START
; THUMBNAIL_BLOCK_END

; external perimeters extrusion width = 0.62mm
; perimeters extrusion width = 0.62mm
; infill extrusion width = 0.65mm
; solid infill extrusion width = 0.65mm
; top infill extrusion width = 0.65mm
; first layer extrusion width = 0.68mm

; external perimeters extrusion width = 0.62mm
; perimeters extrusion width = 0.62mm
; infill extrusion width = 0.65mm
; solid infill extrusion width = 0.65mm
; top infill extrusion width = 0.65mm
; first layer extrusion width = 0.68mm

; external perimeters extrusion width = 0.62mm
; perimeters extrusion width = 0.62mm
; infill extrusion width = 0.65mm
; solid infill extrusion width = 0.65mm
; top infill extrusion width = 0.65mm
; first layer extrusion width = 0.68mm

; external perimeters extrusion width = 0.62mm
; perimeters extrusion width = 0.62mm
; infill extrusion width = 0.65mm
; solid infill extrusion width = 0.65mm
; top infill extrusion width = 0.65mm
; first layer extrusion width = 0.68mm

; external perimeters extrusion width = 0.62mm
; perimeters extrusion width = 0.62mm
; infill extrusion width = 0.65mm
; solid infill extrusion width = 0.65mm
; top infill extrusion width = 0.65mm
; first layer extrusion width = 0.68mm

; external perimeters extrusion width = 0.62mm
; perimeters extrusion width = 0.62mm
; infill extrusion width = 0.65mm
; solid infill extrusion width = 0.65mm
; top infill extrusion width = 0.65mm
; first layer extrusion width = 0.68mm

; EXECUTABLE_BLOCK_START
EXCLUDE_OBJECT_DEFINE NAME=madison.stl_id_0_copy_0 CENTER=192.25,251.001 POLYGON=[[149.25,228.001],[149.259,227.74],[149.284,227.479],[149.327,227.221],[149.386,226.966],[149.462,226.716],[149.554,226.471],[149.663,226.232],[149.786,226.001],[149.924,225.779],[150.077,225.566],[150.243,225.364],[150.422,225.173],[150.613,224.994],[150.815,224.828],[151.028,224.675],[151.25,224.537],[151.481,224.414],[151.719,224.306],[151.964,224.214],[152.215,224.138],[152.47,224.078],[152.728,224.035],[152.988,224.01],[153.25,224.001],[231.25,224.001],[231.512,224.01],[231.772,224.035],[232.03,224.078],[232.285,224.138],[232.536,224.214],[232.781,224.306],[233.019,224.414],[233.25,224.537],[233.472,224.675],[233.685,224.828],[233.887,224.994],[234.078,225.173],[234.257,225.364],[234.423,225.566],[234.576,225.779],[234.714,226.001],[234.837,226.232],[234.946,226.471],[235.038,226.716],[235.114,226.966],[235.173,227.221],[235.216,227.479],[235.241,227.74],[235.25,228.001],[235.25,274.001],[235.241,274.263],[235.216,274.523],[235.173,274.782],[235.114,275.037],[235.038,275.287],[234.946,275.532],[234.837,275.77],[234.714,276.001],[234.576,276.224],[234.423,276.436],[234.257,276.639],[234.078,276.83],[233.887,277.009],[233.685,277.175],[233.472,277.327],[233.25,277.465],[233.019,277.589],[232.781,277.697],[232.536,277.789],[232.285,277.865],[232.03,277.924],[231.772,277.967],[231.512,277.993],[231.25,278.001],[153.25,278.001],[152.988,277.993],[152.728,277.967],[152.47,277.924],[152.215,277.865],[151.964,277.789],[151.719,277.697],[151.481,277.589],[151.25,277.465],[151.028,277.327],[150.815,277.175],[150.613,277.009],[150.422,276.83],[150.243,276.639],[150.077,276.436],[149.924,276.224],[149.786,276.001],[149.663,275.77],[149.554,275.532],[149.462,275.287],[149.386,275.037],[149.327,274.782],[149.284,274.523],[149.259,274.263],[149.25,274.001],[149.25,228.001]]
EXCLUDE_OBJECT_DEFINE NAME=madison.stl_id_1_copy_0 CENTER=192.25,196.501 POLYGON=[[149.25,173.501],[149.259,173.24],[149.284,172.979],[149.327,172.721],[149.386,172.466],[149.462,172.216],[149.554,171.971],[149.663,171.732],[149.786,171.501],[149.924,171.279],[150.077,171.066],[150.243,170.864],[150.422,170.673],[150.613,170.494],[150.815,170.328],[151.028,170.175],[151.25,170.037],[151.481,169.914],[151.719,169.806],[151.964,169.714],[152.215,169.638],[152.47,169.578],[152.728,169.535],[152.988,169.51],[153.25,169.501],[231.25,169.501],[231.512,169.51],[231.772,169.535],[232.03,169.578],[232.285,169.638],[232.536,169.714],[232.781,169.806],[233.019,169.914],[233.25,170.037],[233.472,170.175],[233.685,170.328],[233.887,170.494],[234.078,170.673],[234.257,170.864],[234.423,171.066],[234.576,171.279],[234.714,171.501],[234.837,171.732],[234.946,171.971],[235.038,172.216],[235.114,172.466],[235.173,172.721],[235.216,172.979],[235.241,173.24],[235.25,173.501],[235.25,219.501],[235.241,219.763],[235.216,220.023],[235.173,220.282],[235.114,220.537],[235.038,220.787],[234.946,221.032],[234.837,221.27],[234.714,221.501],[234.576,221.724],[234.423,221.936],[234.257,222.139],[234.078,222.33],[233.887,222.509],[233.685,222.675],[233.472,222.827],[233.25,222.965],[233.019,223.089],[232.781,223.197],[232.536,223.289],[232.285,223.365],[232.03,223.424],[231.772,223.467],[231.512,223.493],[231.25,223.501],[153.25,223.501],[152.988,223.493],[152.728,223.467],[152.47,223.424],[152.215,223.365],[151.964,223.289],[151.719,223.197],[151.481,223.089],[151.25,222.965],[151.028,222.827],[150.815,222.675],[150.613,222.509],[150.422,222.33],[150.243,222.139],[150.077,221.936],[149.924,221.724],[149.786,221.501],[149.663,221.27],[149.554,221.032],[149.462,220.787],[149.386,220.537],[149.327,220.282],[149.284,220.023],[149.259,219.763],[149.25,219.501],[149.25,173.501]]
EXCLUDE_OBJECT_DEFINE NAME=madison.stl_id_2_copy_0 CENTER=192.25,142.001 POLYGON=[[149.25,119.001],[149.259,118.74],[149.284,118.479],[149.327,118.221],[149.386,117.966],[149.462,117.716],[149.554,117.471],[149.663,117.232],[149.786,117.001],[149.924,116.779],[150.077,116.566],[150.243,116.364],[150.422,116.173],[150.613,115.994],[150.815,115.828],[151.028,115.675],[151.25,115.537],[151.481,115.414],[151.719,115.306],[151.964,115.214],[152.215,115.138],[152.47,115.078],[152.728,115.035],[152.988,115.01],[153.25,115.001],[231.25,115.001],[231.512,115.01],[231.772,115.035],[232.03,115.078],[232.285,115.138],[232.536,115.214],[232.781,115.306],[233.019,115.414],[233.25,115.537],[233.472,115.675],[233.685,115.828],[233.887,115.994],[234.078,116.173],[234.257,116.364],[234.423,116.566],[234.576,116.779],[234.714,117.001],[234.837,117.232],[234.946,117.471],[235.038,117.716],[235.114,117.966],[235.173,118.221],[235.216,118.479],[235.241,118.74],[235.25,119.001],[235.25,165.001],[235.241,165.263],[235.216,165.523],[235.173,165.782],[235.114,166.037],[235.038,166.287],[234.946,166.532],[234.837,166.77],[234.714,167.001],[234.576,167.224],[234.423,167.436],[234.257,167.639],[234.078,167.83],[233.887,168.009],[233.685,168.175],[233.472,168.327],[233.25,168.465],[233.019,168.589],[232.781,168.697],[232.536,168.789],[232.285,168.865],[232.03,168.924],[231.772,168.967],[231.512,168.993],[231.25,169.001],[153.25,169.001],[152.988,168.993],[152.728,168.967],[152.47,168.924],[152.215,168.865],[151.964,168.789],[151.719,168.697],[151.481,168.589],[151.25,168.465],[151.028,168.327],[150.815,168.175],[150.613,168.009],[150.422,167.83],[150.243,167.639],[150.077,167.436],[149.924,167.224],[149.786,167.001],[149.663,166.77],[149.554,166.532],[149.462,166.287],[149.386,166.037],[149.327,165.782],[149.284,165.523],[149.259,165.263],[149.25,165.001],[149.25,119.001]]
EXCLUDE_OBJECT_DEFINE NAME=madison.stl_id_3_copy_0 CENTER=121.75,181.499 POLYGON=[[94.75,142.499],[94.7586,142.237],[94.7842,141.977],[94.8269,141.718],[94.8863,141.463],[94.9623,141.213],[95.0545,140.968],[95.1625,140.73],[95.2859,140.499],[95.4241,140.276],[95.5766,140.064],[95.7426,139.861],[95.9216,139.67],[96.1126,139.491],[96.315,139.325],[96.5277,139.173],[96.75,139.035],[96.9808,138.911],[97.2193,138.803],[97.4642,138.711],[97.7147,138.635],[97.9696,138.576],[98.2279,138.533],[98.4884,138.507],[98.75,138.499],[144.75,138.499],[145.012,138.507],[145.272,138.533],[145.53,138.576],[145.785,138.635],[146.036,138.711],[146.281,138.803],[146.519,138.911],[146.75,139.035],[146.972,139.173],[147.185,139.325],[147.387,139.491],[147.578,139.67],[147.757,139.861],[147.923,140.064],[148.076,140.276],[148.214,140.499],[148.337,140.73],[148.446,140.968],[148.538,141.213],[148.614,141.463],[148.673,141.718],[148.716,141.977],[148.741,142.237],[148.75,142.499],[148.75,220.499],[148.741,220.76],[148.716,221.021],[148.673,221.279],[148.614,221.534],[148.538,221.784],[148.446,222.029],[148.337,222.268],[148.214,222.499],[148.076,222.721],[147.923,222.934],[147.757,223.136],[147.578,223.327],[147.387,223.506],[147.185,223.672],[146.972,223.825],[146.75,223.963],[146.519,224.086],[146.281,224.194],[146.036,224.286],[145.785,224.362],[145.53,224.422],[145.272,224.465],[145.012,224.49],[144.75,224.499],[98.75,224.499],[98.4884,224.49],[98.2279,224.465],[97.9696,224.422],[97.7147,224.362],[97.4642,224.286],[97.2193,224.194],[96.9808,224.086],[96.75,223.963],[96.5277,223.825],[96.315,223.672],[96.1126,223.506],[95.9216,223.327],[95.7426,223.136],[95.5766,222.934],[95.4241,222.721],[95.2859,222.499],[95.1625,222.268],[95.0545,222.029],[94.9623,221.784],[94.8863,221.534],[94.8269,221.279],[94.7842,221.021],[94.7586,220.76],[94.75,220.499],[94.75,142.499]]
EXCLUDE_OBJECT_DEFINE NAME=madison.stl_id_4_copy_0 CENTER=192.25,87.5013 POLYGON=[[149.25,64.5013],[149.259,64.2396],[149.284,63.9792],[149.327,63.7209],[149.386,63.466],[149.462,63.2155],[149.554,62.9705],[149.663,62.7321],[149.786,62.5013],[149.924,62.279],[150.077,62.0662],[150.243,61.8639],[150.422,61.6728],[150.613,61.4939],[150.815,61.3278],[151.028,61.1754],[151.25,61.0372],[151.481,60.9138],[151.719,60.8057],[151.964,60.7135],[152.215,60.6376],[152.47,60.5781],[152.728,60.5355],[152.988,60.5098],[153.25,60.5013],[231.25,60.5013],[231.512,60.5098],[231.772,60.5355],[232.03,60.5781],[232.285,60.6376],[232.536,60.7135],[232.781,60.8057],[233.019,60.9138],[233.25,61.0372],[233.472,61.1754],[233.685,61.3278],[233.887,61.4939],[234.078,61.6728],[234.257,61.8639],[234.423,62.0662],[234.576,62.279],[234.714,62.5013],[234.837,62.7321],[234.946,62.9705],[235.038,63.2155],[235.114,63.466],[235.173,63.7209],[235.216,63.9792],[235.241,64.2396],[235.25,64.5013],[235.25,110.501],[235.241,110.763],[235.216,111.023],[235.173,111.282],[235.114,111.537],[235.038,111.787],[234.946,112.032],[234.837,112.27],[234.714,112.501],[234.576,112.724],[234.423,112.936],[234.257,113.139],[234.078,113.33],[233.887,113.509],[233.685,113.675],[233.472,113.827],[233.25,113.965],[233.019,114.089],[232.781,114.197],[232.536,114.289],[232.285,114.365],[232.03,114.424],[231.772,114.467],[231.512,114.493],[231.25,114.501],[153.25,114.501],[152.988,114.493],[152.728,114.467],[152.47,114.424],[152.215,114.365],[151.964,114.289],[151.719,114.197],[151.481,114.089],[151.25,113.965],[151.028,113.827],[150.815,113.675],[150.613,113.509],[150.422,113.33],[150.243,113.139],[150.077,112.936],[149.924,112.724],[149.786,112.501],[149.663,112.27],[149.554,112.032],[149.462,111.787],[149.386,111.537],[149.327,111.282],[149.284,111.023],[149.259,110.763],[149.25,110.501],[149.25,64.5013]]
EXCLUDE_OBJECT_DEFINE NAME=madison.stl_id_5_copy_0 CENTER=121.75,94.9987 POLYGON=[[94.75,55.9987],[94.7586,55.7371],[94.7842,55.4766],[94.8269,55.2184],[94.8863,54.9635],[94.9623,54.713],[95.0545,54.468],[95.1625,54.2296],[95.2859,53.9987],[95.4241,53.7765],[95.5766,53.5637],[95.7426,53.3614],[95.9216,53.1703],[96.1126,52.9914],[96.315,52.8253],[96.5277,52.6729],[96.75,52.5346],[96.9808,52.4113],[97.2193,52.3032],[97.4642,52.211],[97.7147,52.135],[97.9696,52.0756],[98.2279,52.033],[98.4884,52.0073],[98.75,51.9987],[144.75,51.9987],[145.012,52.0073],[145.272,52.033],[145.53,52.0756],[145.785,52.135],[146.036,52.211],[146.281,52.3032],[146.519,52.4113],[146.75,52.5346],[146.972,52.6729],[147.185,52.8253],[147.387,52.9914],[147.578,53.1703],[147.757,53.3614],[147.923,53.5637],[148.076,53.7765],[148.214,53.9987],[148.337,54.2296],[148.446,54.468],[148.538,54.713],[148.614,54.9635],[148.673,55.2184],[148.716,55.4766],[148.741,55.7371],[148.75,55.9987],[148.75,133.999],[148.741,134.26],[148.716,134.521],[148.673,134.779],[148.614,135.034],[148.538,135.284],[148.446,135.529],[148.337,135.768],[148.214,135.999],[148.076,136.221],[147.923,136.434],[147.757,136.636],[147.578,136.827],[147.387,137.006],[147.185,137.172],[146.972,137.325],[146.75,137.463],[146.519,137.586],[146.281,137.694],[146.036,137.786],[145.785,137.862],[145.53,137.922],[145.272,137.965],[145.012,137.99],[144.75,137.999],[98.75,137.999],[98.4884,137.99],[98.2279,137.965],[97.9696,137.922],[97.7147,137.862],[97.4642,137.786],[97.2193,137.694],[96.9808,137.586],[96.75,137.463],[96.5277,137.325],[96.315,137.172],[96.1126,137.006],[95.9216,136.827],[95.7426,136.636],[95.5766,136.434],[95.4241,136.221],[95.2859,135.999],[95.1625,135.768],[95.0545,135.529],[94.9623,135.284],[94.8863,135.034],[94.8269,134.779],[94.7842,134.521],[94.7586,134.26],[94.75,133.999],[94.75,55.9987]]
M73 P0 R29
M73 C21
;TYPE:Custom
M104 S0
M140 S0
START_PRINT BED=75 HOTEND=215
G90
G21
M83 ; use relative distances for extrusion
; filament start gcode
SET_PRESSURE_ADVANCE ADVANCE=0.032; Override pressure advance value
M106 S0
;LAYER_CHANGE
;Z:0.2
;HEIGHT:0.2
;BEFORE_LAYER_CHANGE
;0.2
G92 E0

;DSLR_SNAPSHOT
TIMELAPSE_TAKE_FRAME
M204 S10000
G1 E-.4 F4200
G1 X93.185 Y52.384 F36000
G1 Z.2
G1 E.4 F4200
;TYPE:Skirt
;WIDTH:0.68
G1 F7200
G1 X93.704 Y51.688 E.04139
G1 X94.44 Y50.953 E.04959
G1 X95.135 Y50.433 E.04139
G1 X96.131 Y49.901 E.05383
G1 X97.116 Y49.567 E.04959
G1 X98.23 Y49.383 E.05383
G1 X144.776 Y49.363 E2.21914
G1 X232.202 Y57.934 E4.18808
G1 X233.051 Y58.114 E.04138
G1 X233.869 Y58.404 E.04139
G1 X234.643 Y58.798 E.04138
G1 X235.378 Y59.306 E.04263
G1 X236.003 Y59.87 E.04014
G1 X236.567 Y60.53 E.04138
G1 X237.04 Y61.258 E.04139
G1 X237.414 Y62.042 E.04139
G1 X237.775 Y63.291 E.06202
G1 X237.887 Y64.501 E.05793
G1 X237.886 Y274.088 E9.99225
G1 X237.818 Y274.953 E.04139
G1 X237.561 Y276.053 E.05383
G1 X237.163 Y277.014 E.04959
G1 X236.704 Y277.781 E.04263
G1 X236.003 Y278.632 E.05258
G1 X235.358 Y279.213 E.04139
G1 X234.643 Y279.705 E.04139
G1 X233.71 Y280.165 E.04959
G1 X232.46 Y280.526 E.06202
G1 X231.25 Y280.638 E.05793
G1 X153.25 Y280.638 E3.71873
G1 X152.04 Y280.526 E.05793
G1 X150.79 Y280.165 E.06202
G1 X149.635 Y279.567 E.06202
G1 X148.574 Y278.712 E.06497
G1 X94.074 Y225.209 E3.64114
G1 X93.185 Y224.114 E.06727
G1 X92.586 Y222.958 E.06202
G1 X92.225 Y221.709 E.06202
G1 X92.113 Y220.499 E.05793
G1 X92.113 Y55.999 E7.84271
G1 X92.182 Y55.047 E.04549
G1 X92.363 Y54.198 E.04138
G1 X92.652 Y53.38 E.04139
G1 X93.142 Y52.463 E.04954
; printing object madison.stl id:3 copy 0
EXCLUDE_OBJECT_START NAME=madison.stl_id_3_copy_0
G1 E-.4 F4200
G1 X146.601 Y221.819 F36000
G1 E.4 F4200
;TYPE:Inner wall
;WIDTH:0.679999
G1 F7200
G1 X146.561 Y221.888 E.00381
G1 X146.139 Y222.309 E.02841
G1 X145.623 Y222.607 E.02841
G3 X144.696 Y222.785 I-.952 J-2.468 E.04526
G1 X98.883 Y222.785 E2.18418
G1 X98.452 Y222.762 E.02058
G1 X97.877 Y222.607 E.0284
G1 X97.361 Y222.309 E.02841
G1 X96.939 Y221.888 E.02841
G1 X96.641 Y221.372 E.02841
G3 X96.464 Y220.445 I2.468 J-.952 E.04526
G1 X96.464 Y142.632 E3.70981
G1 X96.487 Y142.201 E.02058
G1 X96.641 Y141.625 E.0284
G1 X96.939 Y141.109 E.02841
G1 X97.361 Y140.688 E.02841
G1 X97.877 Y140.39 E.02841
G3 X98.804 Y140.213 I.952 J2.468 E.04526
G1 X118.978 Y140.213 E.9618
G1 X118.036 Y140.649 E.04946
G1 X117.252 Y141.157 E.04453
G1 X116.552 Y141.768 E.04431
G1 X115.956 Y142.476 E.04414
G1 X115.484 Y143.27 E.04402
G1 X115.156 Y144.131 E.04392
G1 X114.987 Y145.034 E.04381
G1 X114.986 Y145.95 E.04367
G1 X115.15 Y146.847 E.0435
G1 X115.47 Y147.698 E.04335
G1 X115.928 Y148.482 E.04328
G1 X116.507 Y149.183 E.04333
G1 X117.187 Y149.791 E.04352
G1 X117.951 Y150.301 E.04381
G1 X118.783 Y150.708 E.04415
G1 X119.667 Y151.009 E.04451
G1 X120.556 Y151.198 E.04332
G2 X123.717 Y151.039 I1.175 J-8.19 E.15185
G1 X124.615 Y150.749 E.04496
G1 X125.464 Y150.349 E.04476
G1 X126.248 Y149.841 E.04453
G1 X126.948 Y149.229 E.04431
G1 X127.544 Y148.521 E.04414
G1 X128.016 Y147.728 E.04402
