; HEADER_BLOCK_START
; generated by OrcaSlicer 1.6.3 on 2023-11-23 at 00:59:51
; total layer number: 50
; HEADER_BLOCK_END

; THUMBNAIL_BLOCK_START
; THUMBNAIL_BLOCK_END

; external perimeters extrusion width = 0.62mm
; perimeters extrusion width = 0.62mm
; infill extrusion width = 0.65mm
; solid infill extrusion width = 0.65mm
; top infill extrusion width = 0.65mm
; first layer extrusion width = 0.68mm

; external perimeters extrusion width = 0.62mm
; perimeters extrusion width = 0.62mm
; infill extrusion width = 0.65mm
; solid infill extrusion width = 0.65mm
; top infill extrusion width = 0.65mm
; first layer extrusion width = 0.68mm

; external perimeters extrusion width = 0.62mm
; perimeters extrusion width = 0.62mm
; infill extrusion width = 0.65mm
; solid infill extrusion width = 0.65mm
; top infill extrusion width = 0.65mm
; first layer extrusion width = 0.68mm

; external perimeters extrusion width = 0.62mm
; perimeters extrusion width = 0.62mm
; infill extrusion width = 0.65mm
; solid infill extrusion width = 0.65mm
; top infill extrusion width = 0.65mm
; first layer extrusion width = 0.68mm

; EXECUTABLE_BLOCK_START
EXCLUDE_OBJECT_DEFINE NAME=MGN12_Aligning_Tool.stl_id_0_copy_0 CENTER=180,178.5 POLYGON=[[165.5,165.5],[186.5,165.5],[194.5,169.5],[194.5,187.5],[186.5,191.5],[165.5,191.5],[165.5,165.5]]
EXCLUDE_OBJECT_DEFINE NAME=MGN12_Aligning_Tool.stl_id_1_copy_0 CENTER=180,151.5 POLYGON=[[165.5,138.5],[186.5,138.5],[194.5,142.5],[194.5,160.5],[186.5,164.5],[165.5,164.5],[165.5,138.5]]
EXCLUDE_OBJECT_DEFINE NAME=MGN12_Aligning_Tool.stl_id_2_copy_0 CENTER=150,151.5 POLYGON=[[135.5,138.5],[156.5,138.5],[164.5,142.5],[164.5,160.5],[156.5,164.5],[135.5,164.5],[135.5,138.5]]
EXCLUDE_OBJECT_DEFINE NAME=MGN12_Aligning_Tool.stl_id_3_copy_0 CENTER=150,178.5 POLYGON=[[135.5,165.5],[156.5,165.5],[164.5,169.5],[164.5,187.5],[156.5,191.5],[135.5,191.5],[135.5,165.5]]
M73 P0 R12
;TYPE:Custom
M104 S0
M140 S0
START_PRINT BED=75 HOTEND=200
G90
G21
M83 ; use relative distances for extrusion
; filament start gcode
SET_PRESSURE_ADVANCE ADVANCE=0.032; Override pressure advance value
M106 S0
;LAYER_CHANGE
;Z:0.2
;HEIGHT:0.2
;BEFORE_LAYER_CHANGE
;0.2
G92 E0

;DSLR_SNAPSHOT
TIMELAPSE_TAKE_FRAME
M204 S10000
G1 E-.4 F4200
G1 X133.255 Y137.116 F36000
G1 Z.2
G1 E.4 F4200
;TYPE:Skirt
;WIDTH:0.68
G1 F7200
G1 X134.316 Y136.144 E.06859
G1 X135.5 Y135.863 E.05802
G1 X186.5 Y135.863 E2.43148
G1 X187.679 Y136.141 E.05777
G1 X195.679 Y140.141 E.42643
G1 X196.742 Y141.111 E.06859
G1 X197.137 Y142.5 E.06884
G1 X197.137 Y187.5 E2.14542
G1 X196.745 Y188.884 E.06859
G1 X195.679 Y189.859 E.06884
G1 X187.679 Y193.859 E.42643
G1 X186.5 Y194.137 E.05777
G1 X135.5 Y194.137 E2.43148
G1 X134.116 Y193.745 E.06859
G1 X133.144 Y192.684 E.06859
G1 X132.863 Y191.5 E.05802
G1 X132.863 Y138.5 E2.52683
G1 X133.231 Y137.203 E.0643
; printing object MGN12_Aligning_Tool.stl id:0 copy 0
EXCLUDE_OBJECT_START NAME=MGN12_Aligning_Tool.stl_id_0_copy_0
G1 E-.4 F4200
G1 X185.59 Y186.749 F36000
G1 E.4 F4200
;TYPE:Inner wall
;WIDTH:0.903742
G1 F7200
G1 X185.583 Y186.775 E.00168
;WIDTH:0.85987
G1 X185.543 Y186.926 E.00956
;WIDTH:0.815998
G1 X185.502 Y187.077 E.00904
;WIDTH:0.772125
G1 X185.461 Y187.228 E.00853
;WIDTH:0.728253
G1 X185.421 Y187.379 E.00802
;WIDTH:0.68438
G1 X185.421 Y188.821 E.06927
;WIDTH:0.694067
G1 X185.416 Y189.044 E.01085
;WIDTH:0.736003
G1 X185.395 Y189.211 E.00875
;WIDTH:0.777938
G1 X185.374 Y189.379 E.00928
;WIDTH:0.819873
G1 X185.353 Y189.546 E.0098
;WIDTH:0.861808
G1 X185.332 Y189.713 E.01033
;WIDTH:0.903743
G2 X185.311 Y190.311 I2.374 J.383 E.03863
G2 X184.669 Y190.333 I-.215 J3.112 E.04147
;WIDTH:0.859871
G1 X184.457 Y190.355 E.01302
;WIDTH:0.815998
G1 X184.245 Y190.377 E.01232
;WIDTH:0.772126
G1 X184.033 Y190.399 E.01162
;WIDTH:0.728253
G1 X183.821 Y190.421 E.01092
;WIDTH:0.68438
G1 X166.579 Y190.421 E.82769
G1 X166.579 Y189.779 E.03079
G1 X183.821 Y189.779 E.82769
;WIDTH:0.694067
G1 X183.988 Y189.77 E.00812
;WIDTH:0.736003
G1 X184.105 Y189.731 E.00643
;WIDTH:0.777938
G1 X184.223 Y189.692 E.00681
;WIDTH:0.819873
G1 X184.341 Y189.654 E.0072
;WIDTH:0.861808
G1 X184.459 Y189.615 E.00759
;WIDTH:0.903743
G1 X184.576 Y189.576 E.00798
G1 X184.615 Y189.459 E.00798
;WIDTH:0.861808
G1 X184.654 Y189.341 E.00759
;WIDTH:0.819873
G1 X184.692 Y189.223 E.0072
;WIDTH:0.777938
G1 X184.731 Y189.105 E.00681
;WIDTH:0.736003
G1 X184.77 Y188.988 E.00643
;WIDTH:0.694067
G1 X184.779 Y188.821 E.00812
;WIDTH:0.68438
G1 X184.779 Y187.379 E.06927
;WIDTH:0.728253
G1 X184.801 Y187.167 E.01092
;WIDTH:0.772125
G1 X184.823 Y186.955 E.01162
;WIDTH:0.815998
G1 X184.845 Y186.743 E.01232
;WIDTH:0.85987
G1 X184.867 Y186.531 E.01302
;WIDTH:0.903742
G2 X184.889 Y185.889 I-3.09 J-.427 E.04147
G2 X185.531 Y185.867 I.215 J-3.112 E.04147
;WIDTH:0.85987
G1 X185.743 Y185.845 E.01302
;WIDTH:0.815998
G1 X185.955 Y185.823 E.01232
;WIDTH:0.772125
G1 X186.167 Y185.801 E.01162
;WIDTH:0.728253
G1 X186.379 Y185.779 E.01092
;WIDTH:0.68438
G1 X191.821 Y185.779 E.26128
;WIDTH:0.694067
G1 X191.988 Y185.77 E.00812
;WIDTH:0.736003
G1 X192.105 Y185.731 E.00643
;WIDTH:0.777938
G1 X192.223 Y185.692 E.00681
;WIDTH:0.819873
G1 X192.341 Y185.654 E.0072
;WIDTH:0.861808
G1 X192.459 Y185.615 E.00759
;WIDTH:0.903743
G1 X192.576 Y185.576 E.00798
G1 X192.615 Y185.459 E.00798
;WIDTH:0.861808
G1 X192.654 Y185.341 E.00759
;WIDTH:0.819873
G1 X192.692 Y185.223 E.0072
;WIDTH:0.777938
G1 X192.731 Y185.105 E.00681
;WIDTH:0.736003
G1 X192.77 Y184.988 E.00643
;WIDTH:0.694067
G1 X192.779 Y184.821 E.00812
;WIDTH:0.68438
G1 X192.779 Y172.179 E.60691
;WIDTH:0.728253
G1 X192.739 Y172.028 E.00802
;WIDTH:0.772126
G1 X192.698 Y171.877 E.00853
;WIDTH:0.815998
G1 X192.657 Y171.726 E.00904
;WIDTH:0.859871
G1 X192.617 Y171.575 E.00956
;WIDTH:0.903743
G1 X192.576 Y171.424 E.01007
G1 X192.425 Y171.383 E.01007
;WIDTH:0.859871
G1 X192.274 Y171.343 E.00956
;WIDTH:0.815999
G1 X192.123 Y171.302 E.00904
;WIDTH:0.772126
G1 X191.972 Y171.261 E.00853
;WIDTH:0.728254
G1 X191.821 Y171.221 E.00802
;WIDTH:0.684381
G1 X186.379 Y171.221 E.26128
;WIDTH:0.728253
G1 X186.167 Y171.199 E.01092
;WIDTH:0.772125
G1 X185.955 Y171.177 E.01162
;WIDTH:0.815998
G1 X185.743 Y171.155 E.01232
;WIDTH:0.85987
G1 X185.531 Y171.133 E.01302
;WIDTH:0.903742
G2 X184.889 Y171.111 I-.427 J3.09 E.04147
G2 X184.867 Y170.469 I-3.112 J-.215 E.04147
;WIDTH:0.85987
G1 X184.845 Y170.257 E.01302
;WIDTH:0.815998
G1 X184.823 Y170.045 E.01232
;WIDTH:0.772125
G1 X184.801 Y169.833 E.01162
;WIDTH:0.728253
G1 X184.779 Y169.621 E.01092
;WIDTH:0.68438
G1 X184.779 Y168.179 E.06927
;WIDTH:0.728253
G1 X184.739 Y168.028 E.00802
;WIDTH:0.772126
G1 X184.698 Y167.877 E.00853
;WIDTH:0.815998
G1 X184.657 Y167.726 E.00904
;WIDTH:0.859871
G1 X184.617 Y167.575 E.00956
;WIDTH:0.903743
G1 X184.576 Y167.424 E.01007
G1 X184.425 Y167.383 E.01007
;WIDTH:0.859871
G1 X184.274 Y167.343 E.00956
;WIDTH:0.815998
G1 X184.123 Y167.302 E.00904
;WIDTH:0.772126
G1 X183.972 Y167.261 E.00853
;WIDTH:0.728253
G1 X183.821 Y167.221 E.00802
;WIDTH:0.68438
G1 X166.579 Y167.221 E.82769
G1 X166.579 Y166.579 E.03079
G1 X183.821 Y166.579 E.82769
;WIDTH:0.728253
G1 X184.033 Y166.601 E.01092
;WIDTH:0.772126
G1 X184.245 Y166.623 E.01162
;WIDTH:0.815998
G1 X184.457 Y166.645 E.01232
;WIDTH:0.859871
G1 X184.669 Y166.667 E.01302
;WIDTH:0.903743
G2 X185.311 Y166.689 I.427 J-3.09 E.04147
G2 X185.333 Y167.331 I3.112 J.215 E.04147
;WIDTH:0.859871
G1 X185.355 Y167.543 E.01302
;WIDTH:0.815998
G1 X185.377 Y167.755 E.01232
;WIDTH:0.772126
G1 X185.399 Y167.967 E.01162
;WIDTH:0.728253
G1 X185.421 Y168.179 E.01092
;WIDTH:0.68438
G1 X185.421 Y169.621 E.06927
;WIDTH:0.694067
G1 X185.43 Y169.788 E.00812
;WIDTH:0.736002
G1 X185.469 Y169.905 E.00643
;WIDTH:0.777937
G1 X185.508 Y170.023 E.00681
;WIDTH:0.819872
G1 X185.546 Y170.141 E.0072
;WIDTH:0.861807
G1 X185.585 Y170.259 E.00759
;WIDTH:0.903742
G1 X185.624 Y170.376 E.00798
G1 X185.775 Y170.417 E.01007
;WIDTH:0.85987
G1 X185.926 Y170.457 E.00956
;WIDTH:0.815998
G1 X186.077 Y170.498 E.00904
;WIDTH:0.772125
G1 X186.228 Y170.539 E.00853
;WIDTH:0.728253
G1 X186.379 Y170.579 E.00802
;WIDTH:0.684381
G1 X191.821 Y170.579 E.26128
;WIDTH:0.728254
G1 X192.033 Y170.601 E.01092
;WIDTH:0.772126
G1 X192.245 Y170.623 E.01162
;WIDTH:0.815999
G1 X192.457 Y170.645 E.01232
;WIDTH:0.859871
G1 X192.669 Y170.667 E.01302
;WIDTH:0.903743
G2 X193.311 Y170.689 I.427 J-3.09 E.04147
G1 X193.311 Y171.119 E.02773
G1 X193.333 Y171.331 E.01372
;WIDTH:0.859871
G1 X193.355 Y171.543 E.01302
;WIDTH:0.815998
G1 X193.377 Y171.755 E.01232
;WIDTH:0.772126
G1 X193.399 Y171.967 E.01162
;WIDTH:0.728253
G1 X193.421 Y172.179 E.01092
;WIDTH:0.68438
G1 X193.421 Y184.821 E.60691
;WIDTH:0.694067
G1 X193.416 Y185.044 E.01085
;WIDTH:0.736003
G1 X193.395 Y185.211 E.00875
;WIDTH:0.777938
G1 X193.374 Y185.379 E.00928
;WIDTH:0.819873
G1 X193.353 Y185.546 E.0098
;WIDTH:0.861808
G1 X193.332 Y185.713 E.01033
;WIDTH:0.903743
G2 X193.311 Y186.311 I2.374 J.383 E.03863
G2 X192.669 Y186.333 I-.215 J3.112 E.04147
;WIDTH:0.859871
G1 X192.457 Y186.355 E.01302
;WIDTH:0.815998
G1 X192.245 Y186.377 E.01232
;WIDTH:0.772126
G1 X192.033 Y186.399 E.01162
;WIDTH:0.728253
G1 X191.821 Y186.421 E.01092
;WIDTH:0.68438
G1 X186.379 Y186.421 E.26128
;WIDTH:0.694067
G1 X186.212 Y186.43 E.00812
;WIDTH:0.736002
G1 X186.095 Y186.469 E.00643
;WIDTH:0.777937
G1 X185.977 Y186.508 E.00681
;WIDTH:0.819872
G1 X185.859 Y186.546 E.0072
;WIDTH:0.861807
G1 X185.741 Y186.585 E.00759
;WIDTH:0.903742
G1 X185.624 Y186.624 E.00798
G1 X185.593 Y186.738 E.00762
G1 X186.153 Y187.153 F36000
;TYPE:Outer wall
;WIDTH:0.679999
G1 F7200
G1 X186.06 Y187.379 E.01162
G1 X186.06 Y191.06 E.17552
G1 X165.94 Y191.06 E.95924
G1 X165.94 Y189.14 E.09154
G1 X183.821 Y189.14 E.85252
G1 X184.047 Y189.047 E.01162
G1 X184.14 Y188.821 E.01162
G1 X184.14 Y185.14 E.17552
G1 X191.821 Y185.14 E.36622
G1 X192.047 Y185.047 E.01162
G1 X192.14 Y184.821 E.01162
G1 X192.14 Y172.179 E.60276
G1 X192.047 Y171.953 E.01162
G1 X191.821 Y171.86 E.01162
G1 X184.14 Y171.86 E.36622
G1 X184.14 Y168.179 E.17552
G1 X184.047 Y167.953 E.01162
G1 X183.821 Y167.86 E.01162
G1 X165.94 Y167.86 E.85252
G1 X165.94 Y165.94 E.09154
G1 X186.06 Y165.94 E.95924
G1 X186.06 Y169.621 E.17552
G1 X186.153 Y169.847 E.01162
G1 X186.379 Y169.94 E.01162
G1 X194.06 Y169.94 E.36622
G1 X194.06 Y171.119 E.05623
G1 X194.06 Y187.06 E.75999
G1 X186.379 Y187.06 E.36622
G1 X186.164 Y187.149 E.01105
G1 X186.106 Y187.141
; stop printing object MGN12_Aligning_Tool.stl id:0 copy 0
EXCLUDE_OBJECT_END NAME=MGN12_Aligning_Tool.stl_id_0_copy_0
; printing object MGN12_Aligning_Tool.stl id:1 copy 0
EXCLUDE_OBJECT_START NAME=MGN12_Aligning_Tool.stl_id_1_copy_0
G1 E-.4 F4200
G1 X185.59 Y159.749 F36000
G1 E.4 F4200
;TYPE:Inner wall
;WIDTH:0.903742
G1 F7200
G1 X185.583 Y159.775 E.00168
;WIDTH:0.85987
G1 X185.543 Y159.926 E.00956
;WIDTH:0.815998
G1 X185.502 Y160.077 E.00904
;WIDTH:0.772125
G1 X185.461 Y160.228 E.00853
;WIDTH:0.728253
G1 X185.421 Y160.379 E.00802
;WIDTH:0.68438
G1 X185.421 Y161.821 E.06927
;WIDTH:0.694067
G1 X185.416 Y162.044 E.01085
;WIDTH:0.736003
G1 X185.395 Y162.211 E.00875
;WIDTH:0.777938
G1 X185.374 Y162.379 E.00928
;WIDTH:0.819873
G1 X185.353 Y162.546 E.0098
;WIDTH:0.861808
G1 X185.332 Y162.713 E.01033
;WIDTH:0.903743
G2 X185.311 Y163.311 I2.374 J.383 E.03863
G2 X184.669 Y163.333 I-.215 J3.112 E.04147
;WIDTH:0.859871
G1 X184.457 Y163.355 E.01302
;WIDTH:0.815998
G1 X184.245 Y163.377 E.01232
;WIDTH:0.772126
G1 X184.033 Y163.399 E.01162
;WIDTH:0.728253
G1 X183.821 Y163.421 E.01092
;WIDTH:0.68438
G1 X166.579 Y163.421 E.82769
G1 X166.579 Y162.779 E.03079
G1 X183.821 Y162.779 E.82769
;WIDTH:0.694067
G1 X183.988 Y162.77 E.00812
;WIDTH:0.736003
G1 X184.105 Y162.731 E.00643
;WIDTH:0.777938
G1 X184.223 Y162.692 E.00681
;WIDTH:0.819873
G1 X184.341 Y162.654 E.0072
;WIDTH:0.861808
G1 X184.459 Y162.615 E.00759
;WIDTH:0.903743
G1 X184.576 Y162.576 E.00798
G1 X184.615 Y162.459 E.00798
;WIDTH:0.861808
G1 X184.654 Y162.341 E.00759
;WIDTH:0.819873
G1 X184.692 Y162.223 E.0072
;WIDTH:0.777938
G1 X184.731 Y162.105 E.00681
;WIDTH:0.736003
G1 X184.77 Y161.988 E.00643
;WIDTH:0.694067
G1 X184.779 Y161.821 E.00812
;WIDTH:0.68438
G1 X184.779 Y160.379 E.06927
;WIDTH:0.728253
G1 X184.801 Y160.167 E.01092
;WIDTH:0.772125
G1 X184.823 Y159.955 E.01162
;WIDTH:0.815998
G1 X184.845 Y159.743 E.01232
;WIDTH:0.85987
G1 X184.867 Y159.531 E.01302
;WIDTH:0.903742
G2 X184.889 Y158.889 I-3.09 J-.427 E.04147
G2 X185.531 Y158.867 I.215 J-3.112 E.04147
;WIDTH:0.85987
G1 X185.743 Y158.845 E.01302
;WIDTH:0.815998
M73 P1 R12
G1 X185.955 Y158.823 E.01232
;WIDTH:0.772125
G1 X186.167 Y158.801 E.01162
;WIDTH:0.728253
G1 X186.379 Y158.779 E.01092
;WIDTH:0.68438
G1 X191.821 Y158.779 E.26128
;WIDTH:0.694067
G1 X191.988 Y158.77 E.00812
;WIDTH:0.736003
G1 X192.105 Y158.731 E.00643
;WIDTH:0.777938
G1 X192.223 Y158.692 E.00681
;WIDTH:0.819873
G1 X192.341 Y158.654 E.0072
;WIDTH:0.861808
G1 X192.459 Y158.615 E.00759
;WIDTH:0.903743
G1 X192.576 Y158.576 E.00798
G1 X192.615 Y158.459 E.00798
;WIDTH:0.861808
G1 X192.654 Y158.341 E.00759
;WIDTH:0.819873
G1 X192.692 Y158.223 E.0072
;WIDTH:0.777938
G1 X192.731 Y158.105 E.00681
;WIDTH:0.736003
G1 X192.77 Y157.988 E.00643
;WIDTH:0.694067
G1 X192.779 Y157.821 E.00812
;WIDTH:0.68438
G1 X192.779 Y145.179 E.60691
;WIDTH:0.728253
G1 X192.739 Y145.028 E.00802
;WIDTH:0.772126
G1 X192.698 Y144.877 E.00853
;WIDTH:0.815998
G1 X192.657 Y144.726 E.00904
;WIDTH:0.859871
G1 X192.617 Y144.575 E.00956
;WIDTH:0.903743
G1 X192.576 Y144.424 E.01007
G1 X192.425 Y144.383 E.01007
;WIDTH:0.859871
G1 X192.274 Y144.343 E.00956
;WIDTH:0.815999
G1 X192.123 Y144.302 E.00904
;WIDTH:0.772126
G1 X191.972 Y144.261 E.00853
;WIDTH:0.728254
G1 X191.821 Y144.221 E.00802
;WIDTH:0.684381
G1 X186.379 Y144.221 E.26128
;WIDTH:0.728253
G1 X186.167 Y144.199 E.01092
;WIDTH:0.772125
G1 X185.955 Y144.177 E.01162
;WIDTH:0.815998
G1 X185.743 Y144.155 E.01232
;WIDTH:0.85987
G1 X185.531 Y144.133 E.01302
;WIDTH:0.903742
G2 X184.889 Y144.111 I-.427 J3.09 E.04147
G2 X184.867 Y143.469 I-3.112 J-.215 E.04147
;WIDTH:0.85987
G1 X184.845 Y143.257 E.01302
;WIDTH:0.815998
G1 X184.823 Y143.045 E.01232
;WIDTH:0.772125
G1 X184.801 Y142.833 E.01162
;WIDTH:0.728253
G1 X184.779 Y142.621 E.01092
;WIDTH:0.68438
G1 X184.779 Y141.179 E.06927
;WIDTH:0.728253
G1 X184.739 Y141.028 E.00802
;WIDTH:0.772126
G1 X184.698 Y140.877 E.00853
;WIDTH:0.815998
G1 X184.657 Y140.726 E.00904
;WIDTH:0.859871
G1 X184.617 Y140.575 E.00956
;WIDTH:0.903743
G1 X184.576 Y140.424 E.01007
G1 X184.425 Y140.383 E.01007
;WIDTH:0.859871
G1 X184.274 Y140.343 E.00956
;WIDTH:0.815998
G1 X184.123 Y140.302 E.00904
;WIDTH:0.772126
G1 X183.972 Y140.261 E.00853
;WIDTH:0.728253
G1 X183.821 Y140.221 E.00802
;WIDTH:0.68438
G1 X166.579 Y140.221 E.82769
G1 X166.579 Y139.579 E.03079
G1 X183.821 Y139.579 E.82769
;WIDTH:0.728253
G1 X184.033 Y139.601 E.01092
;WIDTH:0.772126
G1 X184.245 Y139.623 E.01162
;WIDTH:0.815998
G1 X184.457 Y139.645 E.01232
;WIDTH:0.859871
G1 X184.669 Y139.667 E.01302
;WIDTH:0.903743
G2 X185.311 Y139.689 I.427 J-3.09 E.04147
G2 X185.333 Y140.331 I3.112 J.215 E.04147
;WIDTH:0.859871
G1 X185.355 Y140.543 E.01302
;WIDTH:0.815998
G1 X185.377 Y140.755 E.01232
;WIDTH:0.772126
G1 X185.399 Y140.967 E.01162
;WIDTH:0.728253
G1 X185.421 Y141.179 E.01092
;WIDTH:0.68438
G1 X185.421 Y142.621 E.06927
;WIDTH:0.694067
G1 X185.43 Y142.788 E.00812
;WIDTH:0.736002
G1 X185.469 Y142.905 E.00643
;WIDTH:0.777937
G1 X185.508 Y143.023 E.00681
;WIDTH:0.819872
G1 X185.546 Y143.141 E.0072
;WIDTH:0.861807
G1 X185.585 Y143.259 E.00759
;WIDTH:0.903742
G1 X185.624 Y143.376 E.00798
G1 X185.775 Y143.417 E.01007
;WIDTH:0.85987
G1 X185.926 Y143.457 E.00956
;WIDTH:0.815998
G1 X186.077 Y143.498 E.00904
;WIDTH:0.772125
G1 X186.228 Y143.539 E.00853
;WIDTH:0.728253
G1 X186.379 Y143.579 E.00802
;WIDTH:0.684381
G1 X191.821 Y143.579 E.26128
;WIDTH:0.728254
G1 X192.033 Y143.601 E.01092
;WIDTH:0.772126
G1 X192.245 Y143.623 E.01162
;WIDTH:0.815999
G1 X192.457 Y143.645 E.01232
;WIDTH:0.859871
G1 X192.669 Y143.667 E.01302
;WIDTH:0.903743
G2 X193.311 Y143.689 I.427 J-3.09 E.04147
G1 X193.311 Y144.119 E.02773
