; HEADER_BLOCK_START
; generated by OrcaSlicer 1.8.1 on 2024-01-20 at 18:03:04
; total layer number: 48
; HEADER_BLOCK_END

; THUMBNAIL_BLOCK_START

;
; THUMBNAIL_BLOCK_END

; external perimeters extrusion width = 0.52mm
; perimeters extrusion width = 0.52mm
; infill extrusion width = 0.55mm
; solid infill extrusion width = 0.55mm
; top infill extrusion width = 0.55mm
; first layer extrusion width = 0.58mm

; EXECUTABLE_BLOCK_START
EXCLUDE_OBJECT_DEFINE NAME=Mk18_AMS_Conversion_Ring_-_Lid_Open.stl_id_0_copy_0 CENTER=165,165 POLYGON=[[60.0074,165],[60.0667,161.473],[60.2444,157.949],[60.5404,154.434],[60.9543,150.93],[61.4857,147.443],[62.1339,143.975],[62.8983,140.531],[63.7779,137.115],[64.7718,133.73],[65.8789,130.38],[67.0978,127.07],[68.4273,123.802],[69.8658,120.581],[71.4117,117.41],[73.0633,114.292],[74.8186,111.232],[76.6758,108.233],[78.6327,105.297],[80.687,102.429],[82.8366,99.6321],[85.0789,96.9086],[87.4115,94.262],[89.8316,91.6952],[92.3366,89.2111],[94.9237,86.8126],[97.5898,84.5024],[100.332,82.283],[103.147,80.157],[106.032,78.1268],[108.984,76.1947],[111.999,74.3628],[115.074,72.6332],[118.205,71.0079],[121.389,69.4886],[124.622,68.0772],[127.901,66.7753],[131.221,65.5842],[134.58,64.5053],[137.973,63.5398],[141.397,62.6889],[144.847,61.9535],[148.32,61.3344],[151.812,60.8324],[155.319,60.4479],[158.837,60.1815],[162.362,60.0333],[165.889,60.0037],[169.416,60.0926],[172.938,60.2999],[176.451,60.6254],[179.95,61.0687],[183.433,61.6294],[186.896,62.3067],[190.333,63.1],[193.742,64.0083],[197.118,65.0306],[200.459,66.1658],[203.759,67.4125],[207.015,68.7694],[210.224,70.2349],[213.382,71.8074],[216.486,73.485],[219.531,75.266],[222.515,77.1483],[225.433,79.1298],[228.284,81.2082],[231.063,83.3812],[233.768,85.6463],[236.395,88.001],[238.941,90.4426],[241.404,92.9684],[243.781,95.5755],[246.068,98.2609],[248.265,101.022],[250.367,103.855],[252.373,106.757],[254.28,109.725],[256.087,112.755],[257.79,115.844],[259.389,118.989],[260.882,122.185],[262.266,125.43],[263.54,128.72],[264.704,132.05],[265.754,135.418],[266.691,138.819],[267.513,142.25],[268.22,145.706],[268.81,149.184],[269.282,152.68],[269.637,156.19],[269.874,159.71],[269.993,163.236],[269.993,166.764],[269.874,170.29],[269.637,173.81],[269.282,177.32],[268.81,180.816],[268.22,184.294],[267.513,187.75],[266.691,191.181],[265.754,194.582],[264.704,197.95],[263.54,201.28],[262.266,204.57],[260.882,207.815],[259.389,211.011],[257.79,214.156],[256.087,217.245],[254.28,220.275],[252.373,223.243],[250.367,226.145],[248.265,228.978],[246.068,231.739],[243.781,234.425],[241.404,237.032],[238.941,239.557],[236.395,241.999],[233.768,244.354],[231.063,246.619],[228.284,248.792],[225.433,250.87],[222.515,252.852],[219.531,254.734],[216.486,256.515],[213.382,258.193],[210.224,259.765],[207.015,261.231],[203.759,262.588],[200.459,263.834],[197.118,264.969],[193.742,265.992],[190.333,266.9],[186.896,267.693],[183.433,268.371],[179.95,268.931],[176.451,269.375],[172.938,269.7],[169.416,269.907],[165.889,269.996],[162.362,269.967],[158.837,269.818],[155.319,269.552],[151.812,269.168],[148.32,268.666],[144.847,268.047],[141.397,267.311],[137.973,266.46],[134.58,265.495],[131.221,264.416],[127.901,263.225],[124.622,261.923],[121.389,260.511],[118.205,258.992],[115.074,257.367],[111.999,255.637],[108.984,253.805],[106.032,251.873],[103.147,249.843],[100.332,247.717],[97.5898,245.498],[94.9237,243.187],[92.3366,240.789],[89.8316,238.305],[87.4115,235.738],[85.0789,233.091],[82.8366,230.368],[80.687,227.571],[78.6327,224.703],[76.6758,221.767],[74.8186,218.768],[73.0633,215.708],[71.4117,212.59],[69.8658,209.419],[68.4273,206.198],[67.0978,202.93],[65.8789,199.62],[64.7718,196.27],[63.7779,192.885],[62.8983,189.469],[62.1339,186.025],[61.4857,182.557],[60.9543,179.07],[60.5404,175.566],[60.2444,172.051],[60.0667,168.527],[60.0074,165]]
M73 P0 R22
;TYPE:Custom
M104 S0
M140 S0
START_PRINT BED=75 HOTEND=220
G90
G21
M83 ; use relative distances for extrusion
; filament start gcode
SET_PRESSURE_ADVANCE ADVANCE=0.046; Override pressure advance value
M106 S0
;LAYER_CHANGE
;Z:0.2
;HEIGHT:0.2
;BEFORE_LAYER_CHANGE
;0.2
G92 E0

;DSLR_SNAPSHOT
TIMELAPSE_TAKE_FRAME
;_SET_FAN_SPEED_CHANGING_LAYER
SET_VELOCITY_LIMIT ACCEL=10000 ACCEL_TO_DECEL=5000
SET_VELOCITY_LIMIT SQUARE_CORNER_VELOCITY=10
G1 E-.4 F4200
G1 X87.521 Y88.147 F48000
G1 Z.2
G1 E.4 F4200
;TYPE:Skirt
;WIDTH:0.58
G1 F3000
G1 X89.416 Y86.266 E.11923
G1 X92.207 Y83.678 E.17
G1 X94.98 Y81.278 E.16377
G1 X97.722 Y79.058 E.15755
G1 X100.76 Y76.764 E.16999
G1 X103.645 Y74.734 E.15755
G1 X106.712 Y72.724 E.16377
G1 X109.965 Y70.747 E.16999
G1 X113.163 Y68.951 E.16377
G1 X116.294 Y67.326 E.15755
G1 X119.602 Y65.745 E.16377
G1 X123.091 Y64.222 E.16999
G1 X126.37 Y62.92 E.15755
G1 X129.821 Y61.679 E.16377
G1 X133.445 Y60.515 E.16999
G1 X136.838 Y59.55 E.15755
G1 X140.397 Y58.663 E.16377
G1 X144.119 Y57.87 E.16999
G1 X147.73 Y57.228 E.16378
G1 X151.222 Y56.726 E.15754
G1 X155.006 Y56.311 E.16999
G1 X158.663 Y56.037 E.16376
G1 X162.187 Y55.889 E.15755
G1 X165.994 Y55.857 E.17
G1 X169.521 Y55.946 E.15755
G1 X173.182 Y56.159 E.16377
G1 X176.972 Y56.51 E.16999
G1 X180.61 Y56.973 E.16377
G1 X184.093 Y57.534 E.15755
G1 X187.828 Y58.265 E.16999
G1 X191.266 Y59.058 E.15755
G1 X194.81 Y60 E.16377
G1 X198.453 Y61.103 E.16999
G1 X201.925 Y62.285 E.16377
G1 X205.225 Y63.532 E.15755
G1 X208.739 Y64.996 E.16999
G1 X211.948 Y66.461 E.15755
G1 X215.231 Y68.094 E.16377
G1 X218.58 Y69.904 E.17
G1 X221.744 Y71.758 E.16377
G1 X224.728 Y73.64 E.15755
G1 X227.877 Y75.778 E.17
G1 X230.839 Y77.94 E.16377
G1 X233.618 Y80.113 E.15755
G1 X236.537 Y82.557 E.16999
G1 X239.266 Y85.007 E.16377
G1 X241.812 Y87.448 E.15755
G1 X244.374 Y90.072 E.16377
G1 X246.939 Y92.885 E.16999
G1 X249.315 Y95.678 E.16377
G1 X251.511 Y98.439 E.15755
G1 X253.779 Y101.496 E.16999
G1 X255.785 Y104.398 E.15755
G1 X257.77 Y107.482 E.16377
G1 X259.719 Y110.751 E.16999
G1 X261.423 Y113.841 E.15755
G1 X263.087 Y117.108 E.16377
G1 X264.697 Y120.558 E.16999
G1 X266.134 Y123.932 E.16377
G1 X267.409 Y127.221 E.15755
G1 X268.664 Y130.815 E.16999
G1 X269.754 Y134.316 E.16377
G1 X270.69 Y137.718 E.15755
G1 X271.577 Y141.419 E.16999
G1 X272.284 Y144.876 E.15755
G1 X272.899 Y148.491 E.16377
G1 X273.409 Y152.263 E.16999
G1 X273.776 Y155.912 E.16377
G1 X274.013 Y159.432 E.15755
G1 X274.139 Y163.097 E.16377
G1 X274.139 Y166.903 E.16999
G1 X274.013 Y170.568 E.16377
G1 X273.776 Y174.088 E.15755
G1 X273.393 Y177.875 E.16999
G1 X272.899 Y181.509 E.16377
G1 X272.31 Y184.987 E.15755
G1 X271.547 Y188.717 E.16999
G1 X270.725 Y192.147 E.15755
G1 X269.754 Y195.684 E.16377
G1 X268.664 Y199.185 E.16377
G1 X267.409 Y202.779 E.16999
G1 X266.082 Y206.197 E.16377
G1 X264.697 Y209.442 E.15755
G1 X263.087 Y212.892 E.16999
G1 X261.488 Y216.036 E.15755
G1 X259.719 Y219.249 E.16377
G1 X257.77 Y222.518 E.16999
G1 X255.785 Y225.602 E.16377
G1 X253.779 Y228.504 E.15755
G1 X251.511 Y231.561 E.16999
G1 X249.226 Y234.429 E.16377
G1 X246.939 Y237.115 E.15755
G1 X244.374 Y239.928 E.17
G1 X241.727 Y242.633 E.16902
G1 X239.164 Y245.088 E.15852
G1 X236.537 Y247.443 E.15755
G1 X233.618 Y249.887 E.16999
G1 X230.839 Y252.06 E.15755
G1 X227.877 Y254.222 E.16377
G1 X224.728 Y256.36 E.16999
G1 X221.625 Y258.315 E.16377
G1 X218.58 Y260.096 E.15755
G1 X215.231 Y261.906 E.16999
G1 X212.073 Y263.479 E.15755
G1 X208.739 Y265.004 E.16377
G1 X205.225 Y266.468 E.17
G1 X201.682 Y267.8 E.16902
G1 X198.321 Y268.94 E.15852
G1 X194.944 Y269.962 E.15755
G1 X191.266 Y270.942 E.16999
G1 X187.692 Y271.764 E.16377
G1 X184.23 Y272.442 E.15755
G1 X180.472 Y273.047 E.16999
G1 X176.972 Y273.49 E.15755
G1 X173.321 Y273.831 E.16377
G1 X169.521 Y274.054 E.16999
G1 X165.994 Y274.143 E.15755
G1 X162.327 Y274.115 E.16377
G1 X158.524 Y273.955 E.16999
G1 X154.867 Y273.676 E.16377
G1 X151.36 Y273.291 E.15755
G1 X147.593 Y272.75 E.16999
G1 X144.119 Y272.13 E.15755
G1 X140.532 Y271.368 E.16377
G1 X136.838 Y270.45 E.17
G1 X133.445 Y269.485 E.15755
G1 X129.953 Y268.365 E.16376
G1 X126.37 Y267.08 E.17
G1 X122.962 Y265.725 E.16377
G1 X119.729 Y264.313 E.15755
G1 X116.418 Y262.736 E.16377
G1 X113.04 Y260.982 E.16999
G1 X109.965 Y259.253 E.15755
G1 X106.83 Y257.351 E.16377
G1 X103.645 Y255.266 E.16999
G1 X100.76 Y253.236 E.15755
G1 X97.832 Y251.027 E.16377
G1 X94.873 Y248.633 E.16999
G1 X92.103 Y246.229 E.16377
G1 X89.516 Y243.831 E.15755
G1 X86.813 Y241.151 E.16999
G1 X84.393 Y238.584 E.15755
G1 X81.967 Y235.834 E.16377
G1 X79.547 Y232.896 E.16999
G1 X77.315 Y229.986 E.16377
G1 X75.26 Y227.118 E.15755
G1 X73.149 Y223.951 E.16999
G1 X71.22 Y220.832 E.16377
G1 X69.398 Y217.65 E.16377
G1 X67.746 Y214.532 E.15755
G1 X66.078 Y211.111 E.16999
G1 X64.585 Y207.761 E.16377
G1 X63.255 Y204.494 E.15755
G1 X61.94 Y200.922 E.16999
G1 X60.758 Y197.326 E.16902
G1 X59.761 Y193.92 E.15852
G1 X58.881 Y190.503 E.15755
G1 X58.056 Y186.787 E.16999
G1 X57.408 Y183.319 E.15755
G1 X56.853 Y179.694 E.16377
G1 X56.407 Y175.914 E.17
G1 X56.111 Y172.399 E.15755
G1 X55.924 Y168.736 E.16377
G1 X55.86 Y164.93 E.16999
G1 X55.919 Y161.403 E.15755
G1 X56.101 Y157.74 E.16377
G1 X56.421 Y153.947 E.16999
G1 X56.853 Y150.306 E.16377
G1 X57.385 Y146.818 E.15755
G1 X58.056 Y143.213 E.16377
G1 X58.881 Y139.497 E.16999
G1 X59.761 Y136.08 E.15755
G1 X60.792 Y132.561 E.16377
G1 X61.986 Y128.947 E.16999
G1 X63.255 Y125.506 E.16377
G1 X64.585 Y122.239 E.15755
G1 X66.137 Y118.763 E.16999
G1 X67.746 Y115.468 E.16377
G1 X69.398 Y112.35 E.15755
G1 X71.292 Y109.048 E.16999
G1 X73.149 Y106.049 E.15755
M73 P1 R22
G1 X75.181 Y102.996 E.16377
G1 X77.398 Y99.902 E.16999
G1 X79.547 Y97.104 E.15755
G1 X81.876 Y94.272 E.16377
G1 X84.393 Y91.416 E.16999
G1 X86.813 Y88.849 E.15755
G1 X87.486 Y88.182 E.04231
G1 X87.864 Y88.563 F48000
G1 F3000
G1 X89.794 Y86.647 E.12145
G1 X92.559 Y84.083 E.16838
G1 X95.318 Y81.695 E.16296
G1 X98.06 Y79.476 E.15755
G1 X101.069 Y77.204 E.16838
G1 X104.055 Y75.105 E.16297
G1 X107.006 Y73.173 E.15755
G1 X110.229 Y71.215 E.16838
G1 X113.41 Y69.428 E.16296
G1 X116.65 Y67.749 E.16297
G1 X119.834 Y66.229 E.15755
G1 X123.289 Y64.721 E.16838
G1 X126.682 Y63.376 E.16296
G1 X130.002 Y62.185 E.15755
G1 X133.592 Y61.032 E.16838
G1 X136.985 Y60.066 E.15755
G1 X140.526 Y59.184 E.16297
G1 X144.214 Y58.398 E.16838
G1 X147.687 Y57.779 E.15755
G1 X151.299 Y57.258 E.16297
G1 X155.047 Y56.847 E.16838
G1 X158.685 Y56.573 E.16296
G1 X162.21 Y56.425 E.15755
G1 X165.98 Y56.394 E.16839
G1 X169.628 Y56.488 E.16296
G1 X173.15 Y56.695 E.15755
G1 X176.904 Y57.043 E.16838
G1 X180.524 Y57.503 E.16297
G1 X184.127 Y58.085 E.16296
G1 X187.589 Y58.763 E.15755
G1 X191.263 Y59.611 E.16838
G1 X194.672 Y60.519 E.15755
G1 X198.165 Y61.574 E.16297
G1 X201.735 Y62.788 E.16838
G1 X205.035 Y64.034 E.15755
G1 X208.404 Y65.436 E.16297
G1 X211.834 Y67.002 E.16838
G1 X215.1 Y68.631 E.16296
G1 X218.203 Y70.308 E.15755
G1 X221.458 Y72.212 E.16838
G1 X224.543 Y74.161 E.16296
G1 X227.462 Y76.142 E.15755
G1 X230.508 Y78.363 E.16838
G1 X233.288 Y80.536 E.15755
G1 X236.086 Y82.878 E.16296
G1 X238.894 Y85.394 E.16838
G1 X241.44 Y87.836 E.15755
G1 X243.99 Y90.447 E.16297
G1 X246.53 Y93.234 E.16838
G1 X248.817 Y95.919 E.15755
G1 X251.091 Y98.774 E.16296
G1 X253.338 Y101.801 E.16838
G1 X255.411 Y104.804 E.16296
G1 X257.318 Y107.772 E.15755
G1 X259.249 Y111.011 E.16838
G1 X260.953 Y114.1 E.15755
G1 X262.608 Y117.352 E.16297
G1 X264.203 Y120.768 E.16838
G1 X265.633 Y124.126 E.16297
G1 X266.908 Y127.415 E.15755
G1 X268.151 Y130.975 E.16838
G1 X269.236 Y134.459 E.16297
G1 X270.173 Y137.86 E.15755
G1 X271.051 Y141.527 E.16838
G1 X271.78 Y145.102 E.16297
G1 X272.37 Y148.581 E.15755
G1 X272.875 Y152.317 E.16838
G1 X273.23 Y155.827 E.15755
G1 X273.477 Y159.468 E.16296
G1 X273.604 Y163.236 E.16838
G1 X273.602 Y166.885 E.16297
G1 X273.483 Y170.411 E.15755
G1 X273.24 Y174.052 E.16297
G1 X272.861 Y177.803 E.16838
G1 X272.388 Y181.299 E.15755
G1 X271.78 Y184.898 E.16297
G1 X271.025 Y188.592 E.16838
G1 X270.203 Y192.022 E.15755
G1 X269.236 Y195.541 E.16296
G1 X268.151 Y199.025 E.16297
G1 X266.908 Y202.585 E.16838
G1 X265.633 Y205.874 E.15755
G1 X264.203 Y209.232 E.16297
G1 X262.608 Y212.648 E.16838
G1 X261.009 Y215.793 E.15755
G1 X259.249 Y218.989 E.16296
G1 X257.318 Y222.228 E.16838
G1 X255.411 Y225.196 E.15755
G1 X253.338 Y228.199 E.16296
G1 X251.091 Y231.226 E.16838
G1 X248.817 Y234.081 E.16296
G1 X246.53 Y236.766 E.15755
G1 X243.99 Y239.553 E.16838
G1 X241.356 Y242.245 E.16821
G1 X238.805 Y244.688 E.15771
G1 X236.178 Y247.043 E.15755
G1 X233.288 Y249.464 E.16838
G1 X230.412 Y251.71 E.16296
G1 X227.561 Y253.788 E.15755
G1 X224.441 Y255.906 E.16838
G1 X221.458 Y257.788 E.15755
G1 X218.309 Y259.632 E.16297
G1 X214.992 Y261.425 E.16838
G1 X211.834 Y262.998 E.15755
G1 X208.515 Y264.516 E.16296
G1 X205.035 Y265.966 E.16838
G1 X201.735 Y267.212 E.15755
G1 X198.28 Y268.389 E.16297
G1 X194.672 Y269.481 E.16838
G1 X191.263 Y270.389 E.15755
G1 X187.708 Y271.212 E.16296
G1 X184.127 Y271.915 E.16297
G1 X180.404 Y272.514 E.16838
G1 X176.904 Y272.957 E.15755
G1 X173.271 Y273.296 E.16296
G1 X169.507 Y273.517 E.16838
G1 X165.98 Y273.606 E.15755
G1 X162.331 Y273.578 E.16296
G1 X158.564 Y273.419 E.16838
G1 X154.926 Y273.142 E.16297
G1 X151.419 Y272.757 E.15755
G1 X147.687 Y272.221 E.16838
G1 X144.214 Y271.602 E.15755
G1 X140.644 Y270.843 E.16296
G1 X136.985 Y269.934 E.16839
G1 X133.592 Y268.968 E.15755
G1 X130.117 Y267.854 E.16296
G1 X126.682 Y266.624 E.16297
G1 X123.177 Y265.232 E.16838
G1 X119.944 Y263.821 E.15755
G1 X116.65 Y262.251 E.16296
G1 X113.303 Y260.514 E.16838
G1 X110.124 Y258.723 E.16296
G1 X107.109 Y256.892 E.15755
G1 X103.954 Y254.827 E.16838
G1 X101.069 Y252.796 E.15755
G1 X98.156 Y250.599 E.16296
G1 X95.225 Y248.227 E.16838
G1 X92.559 Y245.917 E.15755
G1 X89.881 Y243.437 E.16297
G1 X87.204 Y240.782 E.16838
G1 X84.702 Y238.126 E.16297
G1 X82.291 Y235.387 E.16296
G1 X80.049 Y232.663 E.15755
G1 X77.751 Y229.674 E.16838
G1 X75.628 Y226.706 E.16297
G1 X73.671 Y223.77 E.15755
G1 X71.686 Y220.565 E.16838
G1 X69.931 Y217.505 E.15755
G1 X68.221 Y214.281 E.16296
G1 X66.568 Y210.892 E.16838
G1 X65.082 Y207.559 E.16297
G1 X63.753 Y204.291 E.15755
G1 X62.45 Y200.753 E.16838
G1 X61.274 Y197.175 E.16821
G1 X60.281 Y193.786 E.15771
G1 X59.401 Y190.369 E.15755
G1 X58.584 Y186.688 E.16838
G1 X57.936 Y183.221 E.15755
G1 X57.384 Y179.614 E.16296
G1 X56.942 Y175.869 E.16838
G1 X56.638 Y172.233 E.16297
G1 X56.46 Y168.709 E.15755
G1 X56.397 Y164.939 E.16838
G1 X56.46 Y161.291 E.16296
G1 X56.638 Y157.767 E.15755
G1 X56.954 Y154.01 E.16838
G1 X57.368 Y150.507 E.15755
G1 X57.916 Y146.899 E.16297
G1 X58.608 Y143.193 E.16838
G1 X59.373 Y139.749 E.15755
G1 X60.281 Y136.214 E.16296
G1 X61.343 Y132.597 E.16838
G1 X62.49 Y129.132 E.16296
G1 X63.709 Y125.822 E.15755
G1 X65.13 Y122.329 E.16838
G1 X66.62 Y118.998 E.16296
G1 X68.166 Y115.827 E.15755
G1 X69.931 Y112.495 E.16838
M73 P2 R22
G1 X71.686 Y109.435 E.15755
G1 X73.605 Y106.332 E.16297
G1 X75.697 Y103.194 E.16838
G1 X77.824 Y100.229 E.16296
G1 X79.973 Y97.432 E.15755
G1 X82.37 Y94.521 E.16838
G1 X84.784 Y91.785 E.16296
G1 X87.204 Y89.218 E.15755
G1 X87.828 Y88.598 E.03928
G1 X88.207 Y88.979 F48000
G1 F3000
G1 X90.172 Y87.028 E.12367
G1 X92.911 Y84.489 E.16677
G1 X95.577 Y82.179 E.15755
G1 X98.398 Y79.893 E.16216
G1 X101.378 Y77.643 E.16677
G1 X104.349 Y75.555 E.16216
G1 X107.3 Y73.623 E.15755
G1 X110.492 Y71.683 E.16677
G1 X113.657 Y69.905 E.16216
G1 X116.789 Y68.279 E.15755
G1 X120.065 Y66.714 E.16216
G1 X123.487 Y65.22 E.16677
G1 X126.766 Y63.918 E.15755
G1 X130.184 Y62.691 E.16216
G1 X133.739 Y61.549 E.16677
G1 X137.132 Y60.583 E.15755
G1 X140.656 Y59.706 E.16216
G1 X144.308 Y58.927 E.16677
G1 X147.781 Y58.308 E.15755
G1 X151.375 Y57.79 E.16216
G1 X155.087 Y57.383 E.16677
G1 X158.605 Y57.116 E.15755
G1 X162.233 Y56.962 E.16216
G1 X165.967 Y56.931 E.16677
G1 X169.494 Y57.019 E.15755
G1 X173.118 Y57.231 E.16216
G1 X176.837 Y57.576 E.16677
G1 X180.337 Y58.019 E.15755
G1 X183.922 Y58.594 E.16216
G1 X187.587 Y59.311 E.16677
G1 X191.125 Y60.129 E.16216
G1 X194.533 Y61.038 E.15755
G1 X198.108 Y62.12 E.16677
