; HEADER_BLOCK_START
; generated by OrcaSlicer 1.6.3 on 2023-11-13 at 08:28:14
; total layer number: 50
; HEADER_BLOCK_END

; THUMBNAIL_BLOCK_START
; THUMBNAIL_BLOCK_END

; external perimeters extrusion width = 0.62mm
; perimeters extrusion width = 0.62mm
; infill extrusion width = 0.65mm
; solid infill extrusion width = 0.65mm
; top infill extrusion width = 0.65mm
; first layer extrusion width = 0.68mm

; EXECUTABLE_BLOCK_START
EXCLUDE_OBJECT_DEFINE NAME=motor_gear(1).stl_id_0_copy_0 CENTER=165,182.872 POLYGON=[[147.228,180.02],[147.304,179.58],[147.391,179.142],[147.489,178.707],[149.672,173.436],[149.911,173.058],[150.159,172.687],[150.416,172.323],[154.45,168.288],[154.815,168.031],[155.186,167.783],[155.563,167.545],[160.834,165.361],[161.27,165.263],[161.707,165.176],[162.147,165.1],[167.853,165.1],[168.293,165.176],[168.73,165.263],[169.166,165.361],[174.437,167.545],[174.814,167.783],[175.185,168.031],[175.55,168.288],[179.584,172.323],[179.841,172.687],[180.089,173.058],[180.328,173.436],[182.511,178.707],[182.609,179.142],[182.696,179.58],[182.772,180.02],[182.772,185.725],[182.696,186.165],[182.609,186.603],[182.511,187.038],[180.328,192.309],[180.089,192.686],[179.841,193.057],[179.584,193.422],[175.55,197.457],[175.185,197.714],[174.814,197.962],[174.437,198.2],[169.166,200.384],[168.73,200.482],[168.293,200.569],[167.95,200.629],[167.926,200.633],[167.853,200.645],[162.147,200.645],[162.074,200.633],[162.05,200.629],[161.707,200.569],[161.27,200.482],[160.834,200.384],[155.563,198.2],[155.186,197.962],[154.815,197.714],[154.45,197.457],[150.416,193.422],[150.159,193.057],[149.911,192.686],[149.672,192.309],[147.489,187.038],[147.391,186.603],[147.304,186.165],[147.228,185.725],[147.228,180.02]]
M73 P0 R14
;TYPE:Custom
M104 S0
M140 S0
START_PRINT BED=75 HOTEND=240
G90
G21
M83 ; use relative distances for extrusion
; filament start gcode
SET_PRESSURE_ADVANCE ADVANCE=0.04; Override pressure advance value
M106 S0
;LAYER_CHANGE
;Z:0.2
;HEIGHT:0.2
;BEFORE_LAYER_CHANGE
;0.2
G92 E0

;DSLR_SNAPSHOT
TIMELAPSE_TAKE_FRAME
M204 S5000
G1 E-.4 F4200
G1 X149.738 Y163.728 F36000
G1 Z.2
G1 E.4 F4200
;TYPE:Skirt
;WIDTH:0.68
G1 F7200
G1 X150.726 Y162.889 E.06728
G1 X152 Y162.038 E.07956
G1 X153.004 Y161.506 E.05895
G1 X158.226 Y159.345 E.29342
G1 X159.46 Y158.948 E.06727
G1 X160.963 Y158.649 E.07956
G1 X161.854 Y158.553 E.04651
G1 X167.831 Y158.543 E.31033
G1 X169.042 Y158.649 E.06308
G1 X170.539 Y158.947 E.07928
G1 X171.398 Y159.2 E.04647
G1 X176.846 Y161.446 E.30595
G1 X178 Y162.038 E.06728
G1 X179.274 Y162.889 E.07956
G1 X180.149 Y163.613 E.05895
G1 X184.144 Y167.611 E.29342
G1 X184.983 Y168.598 E.06728
G1 X185.835 Y169.873 E.07956
G1 X186.366 Y170.876 E.05895
G1 X188.527 Y176.099 E.29342
G1 X188.925 Y177.332 E.06728
G1 X189.224 Y178.835 E.07956
G1 X189.33 Y179.966 E.05895
G1 X189.329 Y185.618 E.29342
G1 X189.224 Y186.909 E.06728
G1 X188.925 Y188.413 E.07956
G1 X188.591 Y189.498 E.05895
G1 X186.426 Y194.719 E.29342
G1 X185.835 Y195.872 E.06727
G1 X184.984 Y197.146 E.07956
G1 X184.26 Y198.021 E.05895
G1 X180.262 Y202.017 E.29342
G1 X179.274 Y202.856 E.06728
G1 X178 Y203.707 E.07956
G1 X176.996 Y204.238 E.05895
G1 X171.774 Y206.4 E.29342
G1 X170.54 Y206.797 E.06728
G1 X169.037 Y207.096 E.07956
G1 X167.907 Y207.203 E.05895
G1 X162.255 Y207.201 E.29342
G1 X160.963 Y207.096 E.06727
G1 X159.461 Y206.797 E.07951
G1 X158.375 Y206.464 E.05895
G1 X153.154 Y204.299 E.29347
G1 X152 Y203.707 E.06728
G1 X150.726 Y202.856 E.07956
G1 X149.851 Y202.132 E.05895
G1 X145.856 Y198.134 E.29342
G1 X145.017 Y197.147 E.06728
G1 X144.166 Y195.873 E.07951
G1 X143.634 Y194.87 E.05895
G1 X141.473 Y189.646 E.29347
G1 X141.075 Y188.413 E.06728
G1 X140.776 Y186.91 E.07956
G1 X140.67 Y185.779 E.05895
G1 X140.671 Y180.127 E.29342
G1 X140.776 Y178.836 E.06727
G1 X141.075 Y177.333 E.07951
G1 X141.409 Y176.248 E.05895
G1 X143.574 Y171.026 E.29347
G1 X144.165 Y169.873 E.06727
G1 X145.016 Y168.598 E.07956
G1 X145.74 Y167.724 E.05895
G1 X149.675 Y163.792 E.28875
; printing object motor_gear(1).stl id:0 copy 0
EXCLUDE_OBJECT_START NAME=motor_gear(1).stl_id_0_copy_0
G1 E-.4 F4200
G1 X151.834 Y165.815 F36000
G1 E.4 F4200
;TYPE:Brim
G1 F7200
G1 X152.385 Y165.335 E.03792
G1 X153.628 Y164.505 E.07763
G1 X154.137 Y164.237 E.02986
G1 X154.671 Y164.059 E.02921
G1 X155.388 Y163.959 E.03756
G1 X156.051 Y163.981 E.03443
G1 X156.599 Y164.096 E.02912
G1 X157.053 Y164.282 E.02543
G1 X157.228 Y164.302 E.00917
G1 X157.387 Y164.224 E.00917
G1 X157.47 Y164.104 E.00757
G1 X157.592 Y163.793 E.01732
G1 X157.879 Y163.31 E.02921
G1 X158.357 Y162.763 E.03768
G1 X158.873 Y162.347 E.03442
G1 X159.364 Y162.075 E.02912
G1 X160.056 Y161.843 E.03792
G1 X161.523 Y161.551 E.07764
G1 X162.096 Y161.499 E.02985
G1 X162.657 Y161.539 E.02921
G1 X163.357 Y161.721 E.03756
G1 X163.961 Y161.995 E.03443
G1 X164.424 Y162.311 E.02912
G1 X164.772 Y162.656 E.02543
G1 X164.927 Y162.741 E.00917
G1 X165.103 Y162.73 E.00917
G1 X165.226 Y162.651 E.00757
G1 X165.457 Y162.411 E.01732
G1 X165.906 Y162.075 E.02912
G1 X166.631 Y161.726 E.04174
G1 X167.273 Y161.552 E.03454
G1 X167.833 Y161.5 E.0292
G1 X168.483 Y161.552 E.03386
G1 X169.946 Y161.843 E.07745
G1 X170.495 Y162.014 E.02986
G1 X170.999 Y162.265 E.02921
G1 X171.576 Y162.702 E.03758
G1 X172.029 Y163.186 E.03443
G1 X172.336 Y163.655 E.02912
G1 X172.525 Y164.108 E.02545
G1 X172.636 Y164.245 E.00917
G1 X172.803 Y164.303 E.00917
G1 X172.947 Y164.277 E.00757
G1 X173.253 Y164.143 E.01732
G1 X173.798 Y164.004 E.02921
G1 X174.522 Y163.956 E.03768
G1 X175.181 Y164.026 E.03442
G1 X175.721 Y164.181 E.02912
G1 X176.375 Y164.506 E.03792
G1 X177.618 Y165.337 E.07764
G1 X178.06 Y165.705 E.02986
G1 X178.428 Y166.13 E.02921
G1 X178.795 Y166.754 E.03756
G1 X179.028 Y167.375 E.03443
G1 X179.132 Y167.926 E.02912
G1 X179.134 Y168.416 E.02543
G1 X179.183 Y168.586 E.00917
G1 X179.316 Y168.703 E.00917
G1 X179.458 Y168.733 E.00757
G1 X179.792 Y168.727 E.01732
G1 X180.349 Y168.807 E.02921
G1 X181.036 Y169.04 E.03768
G1 X181.619 Y169.357 E.03442
G1 X182.058 Y169.706 E.02912
G1 X182.537 Y170.257 E.03792
G1 X183.368 Y171.501 E.07763
G1 X183.635 Y172.01 E.02986
G1 X183.813 Y172.544 E.02921
G1 X183.913 Y173.26 E.03756
G1 X183.891 Y173.923 E.03443
G1 X183.776 Y174.472 E.02912
G1 X183.59 Y174.925 E.02543
G1 X183.571 Y175.101 E.00917
G1 X183.648 Y175.26 E.00917
G1 X183.768 Y175.343 E.00757
G1 X184.079 Y175.464 E.01732
G1 X184.563 Y175.752 E.02921
G1 X185.109 Y176.23 E.03768
G1 X185.526 Y176.746 E.03442
G1 X185.798 Y177.236 E.02912
G1 X186.03 Y177.929 E.03792
G1 X186.322 Y179.395 E.07763
G1 X186.374 Y179.968 E.02986
G1 X186.334 Y180.529 E.02921
G1 X186.152 Y181.23 E.03756
G1 X185.878 Y181.834 E.03443
G1 X185.562 Y182.297 E.02912
G1 X185.216 Y182.644 E.02543
G1 X185.131 Y182.799 E.00917
G1 X185.142 Y182.976 E.00917
G1 X185.221 Y183.098 E.00757
G1 X185.462 Y183.33 E.01732
G1 X185.799 Y183.78 E.02921
G1 X186.12 Y184.431 E.03768
G1 X186.308 Y185.067 E.03442
G1 X186.372 Y185.624 E.02912
G1 X186.321 Y186.353 E.03792
G1 X186.029 Y187.819 E.07763
G1 X185.858 Y188.369 E.02986
G1 X185.607 Y188.872 E.02921
G1 X185.17 Y189.449 E.03756
G1 X184.686 Y189.902 E.03443
G1 X184.217 Y190.209 E.02912
G1 X183.765 Y190.398 E.02543
G1 X183.627 Y190.509 E.00917
G1 X183.57 Y190.676 E.00917
G1 X183.596 Y190.819 E.00757
G1 X183.729 Y191.125 E.01732
G1 X183.868 Y191.67 E.02921
G1 X183.916 Y192.395 E.03768
G1 X183.846 Y193.054 E.03442
G1 X183.692 Y193.593 E.02912
G1 X183.366 Y194.247 E.03792
G1 X182.535 Y195.49 E.07763
G1 X182.167 Y195.932 E.02986
G1 X181.742 Y196.301 E.02921
G1 X181.118 Y196.667 E.03756
G1 X180.497 Y196.901 E.03443
G1 X179.946 Y197.005 E.02912
G1 X179.457 Y197.006 E.02542
G1 X179.287 Y197.056 E.00917
G1 X179.17 Y197.188 E.00917
G1 X179.139 Y197.331 E.00757
G1 X179.145 Y197.664 E.01732
G1 X179.065 Y198.221 E.02921
G1 X178.832 Y198.909 E.03768
G1 X178.515 Y199.491 E.03442
G1 X178.166 Y199.93 E.02912
G1 X177.615 Y200.41 E.03792
G1 X176.372 Y201.24 E.07763
G1 X175.863 Y201.508 E.02986
G1 X175.329 Y201.686 E.02921
G1 X174.612 Y201.786 E.03756
G1 X173.949 Y201.763 E.03443
G1 X173.401 Y201.649 E.02912
G1 X172.947 Y201.463 E.02543
G1 X172.772 Y201.443 E.00917
G1 X172.613 Y201.521 E.00917
G1 X172.53 Y201.641 E.00757
G1 X172.408 Y201.952 E.01732
G1 X172.121 Y202.435 E.02921
G1 X171.643 Y202.981 E.03768
G1 X171.127 Y203.398 E.03442
G1 X170.636 Y203.67 E.02912
G1 X169.944 Y203.902 E.03792
G1 X168.477 Y204.194 E.07764
G1 X167.904 Y204.246 E.02985
G1 X167.343 Y204.206 E.02921
G1 X166.643 Y204.024 E.03756
G1 X166.039 Y203.75 E.03443
G1 X165.576 Y203.434 E.02912
G1 X165.228 Y203.089 E.02543
G1 X165.073 Y203.004 E.00917
G1 X164.897 Y203.015 E.00917
G1 X164.774 Y203.094 E.00757
G1 X164.543 Y203.334 E.01733
G1 X164.092 Y203.671 E.02921
G1 X163.442 Y203.993 E.03768
G1 X162.806 Y204.18 E.03442
G1 X162.248 Y204.244 E.02912
G1 X161.52 Y204.193 E.03792
G1 X160.054 Y203.902 E.07759
G1 X159.505 Y203.731 E.02986
G1 X159.001 Y203.479 E.02921
G1 X158.424 Y203.043 E.03758
G1 X157.971 Y202.559 E.03443
G1 X157.664 Y202.09 E.02912
G1 X157.475 Y201.637 E.02545
G1 X157.364 Y201.5 E.00917
G1 X157.197 Y201.442 E.00917
G1 X157.053 Y201.468 E.00757
G1 X156.747 Y201.602 E.01732
G1 X156.202 Y201.741 E.02921
G1 X155.478 Y201.789 E.03768
G1 X154.819 Y201.719 E.03442
G1 X154.279 Y201.564 E.02912
G1 X153.625 Y201.239 E.03792
G1 X152.382 Y200.408 E.07764
G1 X151.94 Y200.04 E.02986
G1 X151.572 Y199.615 E.02921
G1 X151.205 Y198.991 E.03756
G1 X150.972 Y198.37 E.03443
G1 X150.868 Y197.819 E.02912
G1 X150.866 Y197.329 E.02543
G1 X150.817 Y197.159 E.00917
G1 X150.684 Y197.042 E.00917
G1 X150.542 Y197.012 E.00757
G1 X150.208 Y197.018 E.01732
G1 X149.651 Y196.938 E.02921
G1 X148.964 Y196.705 E.03768
G1 X148.381 Y196.388 E.03442
G1 X147.942 Y196.039 E.02912
G1 X147.463 Y195.488 E.03792
G1 X146.633 Y194.245 E.07759
G1 X146.365 Y193.736 E.02986
G1 X146.187 Y193.202 E.02921
G1 X146.087 Y192.485 E.03758
G1 X146.109 Y191.822 E.03443
G1 X146.224 Y191.273 E.02912
G1 X146.41 Y190.82 E.02545
G1 X146.429 Y190.644 E.00917
G1 X146.352 Y190.485 E.00917
G1 X146.232 Y190.402 E.00757
G1 X145.921 Y190.281 E.01732
G1 X145.437 Y189.993 E.02921
G1 X144.891 Y189.515 E.03768
G1 X144.474 Y188.999 E.03442
G1 X144.202 Y188.509 E.02912
G1 X143.97 Y187.816 E.03792
G1 X143.678 Y186.35 E.07763
G1 X143.626 Y185.777 E.02986
G1 X143.666 Y185.216 E.02921
G1 X143.848 Y184.515 E.03756
G1 X144.122 Y183.911 E.03443
G1 X144.438 Y183.448 E.02912
G1 X144.784 Y183.101 E.02543
G1 X144.869 Y182.946 E.00917
G1 X144.858 Y182.769 E.00917
G1 X144.779 Y182.647 E.00757
G1 X144.538 Y182.415 E.01732
G1 X144.201 Y181.965 E.02921
G1 X143.88 Y181.314 E.03768
G1 X143.692 Y180.678 E.03442
G1 X143.628 Y180.121 E.02912
G1 X143.679 Y179.392 E.03792
G1 X143.971 Y177.926 E.07759
G1 X144.141 Y177.377 E.02986
G1 X144.393 Y176.874 E.02921
G1 X144.829 Y176.296 E.03758
G1 X145.313 Y175.843 E.03443
G1 X145.783 Y175.536 E.02912
G1 X146.235 Y175.347 E.02545
G1 X146.373 Y175.236 E.00917
G1 X146.43 Y175.069 E.00917
G1 X146.404 Y174.926 E.00757
G1 X146.271 Y174.62 E.01732
G1 X146.132 Y174.075 E.02921
G1 X146.084 Y173.35 E.03768
G1 X146.154 Y172.691 E.03442
G1 X146.308 Y172.152 E.02912
G1 X146.634 Y171.498 E.03792
G1 X147.465 Y170.255 E.07764
G1 X147.833 Y169.813 E.02986
G1 X148.258 Y169.444 E.02921
G1 X148.882 Y169.078 E.03756
G1 X149.502 Y168.844 E.03443
G1 X150.054 Y168.74 E.02912
G1 X150.543 Y168.739 E.02543
G1 X150.713 Y168.689 E.00917
G1 X150.83 Y168.557 E.00917
G1 X150.861 Y168.414 E.00757
G1 X150.855 Y168.081 E.01732
G1 X150.935 Y167.524 E.02921
G1 X151.168 Y166.836 E.03768
G1 X151.485 Y166.254 E.03442
G1 X151.778 Y165.885 E.02444
G1 X152.276 Y166.287 F36000
G1 F7200
G1 X152.309 Y166.246 E.00277
G1 X152.763 Y165.851 E.03124
G1 X153.963 Y165.048 E.07493
G1 X154.374 Y164.832 E.0241
G1 X154.8 Y164.688 E.02338
G1 X155.438 Y164.599 E.03341
G1 X155.99 Y164.62 E.0287
G1 X156.395 Y164.704 E.02144
G1 X156.798 Y164.867 E.02259
G1 X156.997 Y164.917 E.01065
G1 X157.143 Y164.933 E.00761
G1 X157.38 Y164.917 E.01234
G1 X157.648 Y164.804 E.01512
G1 X157.92 Y164.57 E.01862
G1 X158.069 Y164.322 E.01502
G1 X158.174 Y164.061 E.01461
G1 X158.388 Y163.7 E.02177
G1 X158.79 Y163.237 E.03183
G1 X159.218 Y162.887 E.02868
M73 P1 R14
G1 X159.606 Y162.669 E.02315
G1 X160.232 Y162.457 E.0343
G1 X161.604 Y162.184 E.07263
G1 X162.086 Y162.139 E.02514
G1 X162.536 Y162.169 E.02338
G1 X163.128 Y162.319 E.03172
G1 X163.632 Y162.545 E.02869
G1 X164.002 Y162.794 E.02315
G1 X164.313 Y163.099 E.02259
G1 X164.477 Y163.221 E.01065
G1 X164.606 Y163.292 E.00761
G1 X164.836 Y163.37 E.01261
G1 X164.976 Y163.376 E.00726
G1 X165.117 Y163.368 E.00736
G1 X165.463 Y163.254 E.01889
G1 X165.695 Y163.082 E.01502
G1 X165.893 Y162.881 E.01461
G1 X166.255 Y162.614 E.02336
G1 X166.839 Y162.333 E.03362
G1 X167.37 Y162.185 E.02866
G1 X167.853 Y162.14 E.02516
G1 X168.384 Y162.183 E.02764
G1 X169.779 Y162.459 E.07383
G1 X170.242 Y162.602 E.02515
G1 X170.646 Y162.801 E.02337
G1 X171.136 Y163.167 E.03174
G1 X171.536 Y163.595 E.0304
G1 X171.762 Y163.94 E.02144
G1 X171.933 Y164.341 E.02261
G1 X172.037 Y164.517 E.01065
G1 X172.129 Y164.632 E.00761
G1 X172.312 Y164.792 E.01261
G1 X172.438 Y164.851 E.00726
G1 X172.573 Y164.897 E.00736
G1 X172.935 Y164.925 E.01889
G1 X173.216 Y164.854 E.01502
G1 X173.475 Y164.744 E.01461
G1 X173.916 Y164.635 E.02358
G1 X174.526 Y164.597 E.03172
G1 X175.075 Y164.658 E.02869
G1 X175.505 Y164.785 E.02325
G1 X176.043 Y165.053 E.03124
G1 X177.244 Y165.855 E.07493
G1 X177.6 Y166.152 E.0241
G1 X177.897 Y166.49 E.02338
G1 X178.224 Y167.045 E.03341
G1 X178.415 Y167.564 E.0287
G1 X178.492 Y167.969 E.02144
G1 X178.497 Y168.404 E.02259
G1 X178.526 Y168.607 E.01065
G1 X178.567 Y168.748 E.00761
G1 X178.675 Y168.966 E.01261
G1 X178.769 Y169.069 E.00726
G1 X178.875 Y169.163 E.00736
G1 X179.2 Y169.328 E.01889
G1 X179.486 Y169.37 E.01503
G1 X179.767 Y169.367 E.01461
G1 X180.217 Y169.435 E.02358
G1 X180.794 Y169.634 E.03172
G1 X181.278 Y169.9 E.02869
G1 X181.627 Y170.182 E.02325
G1 X182.022 Y170.636 E.03124
G1 X182.814 Y171.818 E.07389
G1 X183.04 Y172.246 E.02514
G1 X183.185 Y172.673 E.02338
G1 X183.272 Y173.278 E.03172
G1 X183.253 Y173.863 E.0304
G1 X183.168 Y174.267 E.02144
G1 X183.006 Y174.671 E.02259
G1 X182.955 Y174.869 E.01065
G1 X182.939 Y175.015 E.00761
G1 X182.955 Y175.258 E.01261
G1 X183.003 Y175.389 E.00726
G1 X183.065 Y175.517 E.00737
G1 X183.302 Y175.793 E.01889
G1 X183.551 Y175.941 E.01503
G1 X183.812 Y176.047 E.01461
G1 X184.201 Y176.281 E.02358
G1 X184.658 Y176.686 E.03172
G1 X185.003 Y177.117 E.02869
G1 X185.218 Y177.511 E.02325
G1 X185.409 Y178.081 E.03124
G1 X185.691 Y179.497 E.07493
G1 X185.733 Y179.959 E.0241
G1 X185.704 Y180.408 E.02338
G1 X185.542 Y181.031 E.03341
G1 X185.311 Y181.534 E.0287
G1 X185.078 Y181.875 E.02144
G1 X184.774 Y182.186 E.02259
G1 X184.651 Y182.35 E.01065
G1 X184.581 Y182.478 E.00761
G1 X184.503 Y182.709 E.01261
G1 X184.496 Y182.848 E.00726
G1 X184.505 Y182.99 E.00736
G1 X184.618 Y183.336 E.01889
G1 X184.791 Y183.568 E.01502
G1 X184.992 Y183.765 E.01461
G1 X185.261 Y184.131 E.02358
G1 X185.53 Y184.68 E.03172
G1 X185.683 Y185.21 E.02869
G1 X185.731 Y185.656 E.02325
G1 X185.689 Y186.256 E.03124
G1 X185.413 Y187.652 E.07388
G1 X185.27 Y188.115 E.02514
G1 X185.071 Y188.519 E.02338
G1 X184.705 Y189.008 E.03172
G1 X184.277 Y189.408 E.0304
G1 X183.932 Y189.634 E.02144
G1 X183.532 Y189.805 E.02259
G1 X183.355 Y189.91 E.01065
G1 X183.241 Y190.002 E.00761
G1 X183.081 Y190.184 E.01261
G1 X183.021 Y190.311 E.00726
G1 X182.975 Y190.445 E.00736
G1 X182.948 Y190.808 E.01889
G1 X183.018 Y191.089 E.01502
G1 X183.128 Y191.348 E.01461
G1 X183.238 Y191.788 E.02358
G1 X183.275 Y192.398 E.03172
G1 X183.214 Y192.948 E.02869
G1 X183.088 Y193.377 E.02325
G1 X182.819 Y193.916 E.03124
G1 X182.03 Y195.1 E.07389
G1 X181.721 Y195.473 E.02514
G1 X181.382 Y195.77 E.02338
G1 X180.857 Y196.082 E.03172
G1 X180.309 Y196.288 E.0304
G1 X179.903 Y196.364 E.02144
G1 X179.468 Y196.369 E.02259
G1 X179.265 Y196.398 E.01065
G1 X179.124 Y196.44 E.00761
G1 X178.906 Y196.547 E.01261
G1 X178.803 Y196.641 E.00726
G1 X178.709 Y196.747 E.00736
