; HEADER_BLOCK_START
; generated by OrcaSlicer 1.6.3 on 2023-11-14 at 17:23:34
; total layer number: 35
; HEADER_BLOCK_END

; THUMBNAIL_BLOCK_START
; THUMBNAIL_BLOCK_END

; external perimeters extrusion width = 0.62mm
; perimeters extrusion width = 0.62mm
; infill extrusion width = 0.65mm
; solid infill extrusion width = 0.65mm
; top infill extrusion width = 0.65mm
; first layer extrusion width = 0.68mm

; EXECUTABLE_BLOCK_START
EXCLUDE_OBJECT_DEFINE NAME=motor_gear(1).stl_id_0_copy_0 CENTER=201.228,127.473 POLYGON=[[183.456,124.62],[183.532,124.18],[183.619,123.742],[183.717,123.307],[185.901,118.036],[186.139,117.659],[186.387,117.288],[186.644,116.923],[190.679,112.888],[191.043,112.631],[191.414,112.383],[191.791,112.145],[197.063,109.961],[197.498,109.863],[197.936,109.776],[198.376,109.7],[204.081,109.7],[204.521,109.776],[204.959,109.863],[205.394,109.961],[210.665,112.145],[211.042,112.383],[211.413,112.631],[211.778,112.888],[215.813,116.923],[216.07,117.288],[216.318,117.659],[216.556,118.036],[218.74,123.307],[218.838,123.742],[218.925,124.18],[219.001,124.62],[219.001,130.325],[218.925,130.765],[218.838,131.203],[218.74,131.638],[216.556,136.909],[216.318,137.287],[216.07,137.658],[215.813,138.022],[211.778,142.057],[211.413,142.314],[211.042,142.562],[210.665,142.8],[205.394,144.984],[204.959,145.082],[204.521,145.169],[204.178,145.229],[204.154,145.233],[204.081,145.245],[198.376,145.245],[198.303,145.233],[198.278,145.229],[197.936,145.169],[197.498,145.082],[197.063,144.984],[191.791,142.8],[191.414,142.562],[191.043,142.314],[190.679,142.057],[186.644,138.022],[186.387,137.658],[186.139,137.287],[185.901,136.909],[183.717,131.638],[183.619,131.203],[183.532,130.765],[183.456,130.325],[183.456,124.62]]
M73 P0 R10
;TYPE:Custom
M104 S0
M140 S0
START_PRINT BED=110 HOTEND=240
G90
G21
M83 ; use relative distances for extrusion
; filament start gcode
SET_PRESSURE_ADVANCE ADVANCE=0.04; Override pressure advance value
M106 S0
;LAYER_CHANGE
;Z:0.2
;HEIGHT:0.2
;BEFORE_LAYER_CHANGE
;0.2
G92 E0

;DSLR_SNAPSHOT
TIMELAPSE_TAKE_FRAME
M204 S5000
G1 E-.4 F4200
G1 X183.672 Y116.625 F36000
G1 Z.2
G1 E.4 F4200
;TYPE:Skirt
;WIDTH:0.68
G1 F7200
G1 X184.779 Y115.058 E.09413
G1 X189.16 Y110.733 E.30198
G1 X190.782 Y109.708 E.09413
G1 X196.484 Y107.388 E.30198
G1 X198.376 Y107.063 E.09413
G1 X204.531 Y107.102 E.30198
G1 X206.403 Y107.525 E.09413
G1 X212.076 Y109.916 E.30198
G1 X213.643 Y111.023 E.09413
G1 X217.968 Y115.404 E.30198
G1 X218.993 Y117.026 E.09412
G1 X221.313 Y122.729 E.30198
G1 X221.638 Y124.62 E.09412
G1 X221.599 Y130.776 E.30198
G1 X221.176 Y132.647 E.09413
G1 X218.785 Y138.32 E.30198
G1 X217.677 Y139.887 E.09413
G1 X213.297 Y144.213 E.30198
G1 X211.675 Y145.237 E.09413
G1 X205.972 Y147.557 E.30198
G1 X204.081 Y147.882 E.09413
G1 X197.925 Y147.843 E.30198
G1 X196.054 Y147.42 E.09413
G1 X190.381 Y145.029 E.30198
G1 X188.814 Y143.922 E.09413
G1 X184.488 Y139.541 E.30198
G1 X183.464 Y137.919 E.09412
G1 X181.144 Y132.216 E.30198
G1 X180.819 Y130.325 E.09412
G1 X180.858 Y124.169 E.30198
G1 X181.281 Y122.298 E.09413
G1 X183.637 Y116.708 E.29756
; printing object motor_gear(1).stl id:0 copy 0
EXCLUDE_OBJECT_START NAME=motor_gear(1).stl_id_0_copy_0
G1 E-.4 F4200
G1 X190.885 Y120.561 F36000
G1 E.4 F4200
;TYPE:Inner wall
;WIDTH:0.679999
G1 F7200
G1 X191.311 Y120.527 E.02098
G1 X191.778 Y120.307 E.02531
G1 X192.066 Y120.052 E.01886
G3 X193.576 Y118.515 I10.367 J8.679 E.10583
G1 X194.024 Y118.075 E.03082
G1 X194.251 Y117.654 E.02347
G1 X194.334 Y117.297 E.01798
G1 X194.322 Y117.137 E.00787
G1 X194.465 Y117.209 E.00787
G2 X195.603 Y117.111 I.425 J-1.717 E.05702
G3 X197.879 Y116.168 I6.638 J12.806 E.12102
G1 X198.225 Y115.999 E.01886
G1 X198.607 Y115.652 E.02531
G1 X198.801 Y115.271 E.02098
G1 X199.127 Y115.549 E.02098
G1 X199.613 Y115.723 E.02531
G1 X199.996 Y115.746 E.01886
G3 X202.413 Y115.744 I1.225 J14.208 E.11868
G1 X202.844 Y115.723 E.02118
G1 X203.33 Y115.549 E.02531
G1 X203.655 Y115.271 E.02097
G1 X203.85 Y115.652 E.02097
G1 X204.232 Y115.999 E.02531
G1 X204.578 Y116.168 E.01886
G3 X206.545 Y116.96 I-4.029 J12.837 E.10414
G1 X207.154 Y117.221 E.0325
G1 X207.63 Y117.269 E.02347
G1 X207.991 Y117.209 E.01798
G1 X208.135 Y117.137 E.00787
G1 X208.123 Y117.297 E.00787
G2 X208.649 Y118.31 I1.749 J-.264 E.05702
G3 X210.36 Y120.017 I-9.18 J10.913 E.11869
G1 X210.679 Y120.307 E.02117
G1 X211.146 Y120.527 E.02531
G1 X211.572 Y120.561 E.02098
G1 X211.441 Y120.968 E.02098
G1 X211.465 Y121.483 E.02531
G1 X211.59 Y121.847 E.01886
G3 X212.488 Y123.994 I-12.395 J6.447 E.11428
G1 X212.702 Y124.469 E.02557
G1 X213.049 Y124.851 E.02531
G1 X213.43 Y125.046 E.02097
G1 X213.152 Y125.371 E.02097
G1 X212.978 Y125.857 E.02531
G1 X212.954 Y126.24 E.01886
G3 X212.977 Y128.327 I-13.346 J1.188 E.10246
G1 X212.967 Y129.024 E.03418
G1 X213.105 Y129.482 E.02347
G1 X213.299 Y129.793 E.01798
G1 X213.42 Y129.898 E.00786
G1 X213.268 Y129.948 E.00786
G2 X212.533 Y130.822 I.913 J1.514 E.05702
G3 X211.59 Y133.098 I-13.749 J-4.361 E.12102
G1 X211.449 Y133.551 E.02328
G1 X211.461 Y134.109 E.02739
G1 X211.576 Y134.387 E.01473
G1 X211.276 Y134.387 E.01473
G1 X210.755 Y134.589 E.02739
G1 X210.391 Y134.893 E.02328
G3 X208.649 Y136.635 I-11.033 J-9.291 E.12102
G1 X208.327 Y137.03 E.02499
G1 X208.134 Y137.568 E.02805
G1 X208.141 Y137.818 E.01225
G1 X207.913 Y137.716 E.01225
G1 X207.342 Y137.688 E.02805
G1 X206.854 Y137.835 E.02499
G1 X206.043 Y138.228 E.04422
;WIDTH:0.724771
G1 X205.946 Y138.243 E.00513
;WIDTH:0.769543
G1 X205.85 Y138.259 E.00547
;WIDTH:0.814315
G1 X205.753 Y138.275 E.0058
;WIDTH:0.859087
G1 X205.657 Y138.291 E.00614
;WIDTH:0.903859
G1 X205.56 Y138.306 E.00648
;WIDTH:0.948631
G1 X205.464 Y138.322 E.00681
;WIDTH:0.993403
G2 X205.198 Y138.399 I.073 J.749 E.02041
;WIDTH:0.990014
G1 X205.123 Y138.448 E.0065
;WIDTH:0.946203
G1 X205.049 Y138.497 E.0062
;WIDTH:0.902392
G1 X204.974 Y138.546 E.0059
;WIDTH:0.858581
G1 X204.9 Y138.595 E.0056
;WIDTH:0.81477
G1 X204.825 Y138.644 E.0053
;WIDTH:0.770958
G1 X204.674 Y138.72 E.00947
;WIDTH:0.725479
G1 X204.524 Y138.797 E.00888
;WIDTH:0.679999
G1 X204.031 Y139.1 E.02836
G1 X203.867 Y139.272 E.01167
G1 X203.649 Y139.645 E.02119
G1 X203.305 Y139.384 E.02119
G1 X203.088 Y139.288 E.01167
G1 X202.461 Y139.199 E.03104
G3 X199.994 Y139.199 I-1.233 J-14.434 E.12117
G1 X199.626 Y139.22 E.01806
G1 X199.152 Y139.384 E.02464
G1 X198.808 Y139.645 E.02119
G1 X198.59 Y139.272 E.02119
G1 X198.426 Y139.1 E.01167
G1 X197.933 Y138.797 E.02837
G1 X197.775 Y138.738 E.00827
;WIDTH:0.727577
G1 X197.695 Y138.686 E.00501
;WIDTH:0.775154
G1 X197.616 Y138.634 E.00536
;WIDTH:0.822732
G1 X197.537 Y138.582 E.00571
;WIDTH:0.870309
G1 X197.457 Y138.53 E.00605
;WIDTH:0.917887
G1 X197.378 Y138.478 E.0064
;WIDTH:0.965464
G1 X197.298 Y138.426 E.00675
;WIDTH:0.993404
G2 X196.99 Y138.321 I-.378 J.606 E.02403
;WIDTH:0.948632
G1 X196.891 Y138.304 E.00702
;WIDTH:0.90386
G1 X196.792 Y138.287 E.00667
;WIDTH:0.859088
G1 X196.693 Y138.27 E.00632
;WIDTH:0.814316
G1 X196.593 Y138.253 E.00598
;WIDTH:0.769544
G1 X196.494 Y138.237 E.00563
;WIDTH:0.724771
G1 X196.395 Y138.22 E.00528
;WIDTH:0.679999
G1 X195.603 Y137.835 E.04321
G1 X195.115 Y137.688 E.02499
G1 X194.544 Y137.716 E.02805
G1 X194.316 Y137.818 E.01225
G1 X194.323 Y137.568 E.01225
G1 X194.13 Y137.03 E.02805
G1 X193.808 Y136.635 E.02499
G3 X192.066 Y134.893 I9.291 J-11.033 E.12102
G1 X191.701 Y134.589 E.02328
G1 X191.181 Y134.387 E.02739
G1 X190.881 Y134.387 E.01473
G1 X190.995 Y134.109 E.01473
G1 X191.008 Y133.551 E.02739
G1 X190.866 Y133.098 E.02328
G3 X189.973 Y130.965 I12.356 J-6.428 E.11356
G1 X189.789 Y130.532 E.0231
G1 X189.487 Y130.161 E.02347
G1 X189.189 Y129.948 E.01798
G1 X189.036 Y129.898 E.00786
G1 X189.158 Y129.793 E.00786
G2 X189.502 Y128.705 I-1.423 J-1.05 E.05702
G3 X189.502 Y126.24 I14.372 J-1.232 E.12102
G1 X189.479 Y125.857 E.01886
G1 X189.304 Y125.371 E.02531
G1 X189.027 Y125.046 E.02097
G1 X189.408 Y124.851 E.02097
G1 X189.755 Y124.469 E.02531
G1 X189.923 Y124.123 E.01886
G3 X190.866 Y121.847 I13.749 J4.362 E.12102
G1 X190.992 Y121.483 E.01886
G1 X191.016 Y120.968 E.02531
G1 X190.888 Y120.573 E.02039
G1 X190.497 Y119.87 F36000
;WIDTH:0.706761
G1 F7200
G1 X190.762 Y119.945 E.01406
;WIDTH:0.682355
G1 X191.136 Y119.914 E.01851
;WIDTH:0.679999
G1 X191.32 Y119.841 E.00971
G1 X191.589 Y119.629 E.01678
G3 X193.385 Y117.833 I11.47 J9.674 E.12476
G1 X193.596 Y117.564 E.01677
G1 X193.701 Y117.225 E.0174
;WIDTH:0.692
G1 X193.681 Y116.872 E.01767
;WIDTH:0.70676
G1 X193.601 Y116.652 E.01197
;WIDTH:0.718048
G1 X193.467 Y116.456 E.01234
;WIDTH:0.752177
G1 X193.329 Y116.283 E.0121
;WIDTH:0.786305
G1 X193.192 Y116.109 E.01268
;WIDTH:0.820433
G1 X193.054 Y115.935 E.01327
;WIDTH:0.849601
G1 X192.761 Y115.525 E.03129
G1 X192.295 Y114.716 E.05799
;WIDTH:0.837279
G1 X192.107 Y114.24 E.03131
G1 X191.93 Y113.557 E.0432
G3 X192.511 Y113.996 I-2.118 J3.402 E.04464
G1 X193.155 Y114.68 E.05743
;WIDTH:0.849601
G3 X193.705 Y115.522 I-6.981 J5.161 E.06249
;WIDTH:0.820433
G1 X193.822 Y115.729 E.01427
;WIDTH:0.782542
G1 X193.939 Y115.937 E.01358
;WIDTH:0.744651
G1 X194.057 Y116.144 E.01288
;WIDTH:0.706759
G1 X194.323 Y116.443 E.02046
;WIDTH:0.692
G1 X194.642 Y116.596 E.01767
;WIDTH:0.679999
G1 X194.995 Y116.63 E.0174
G1 X195.324 Y116.538 E.01677
G3 X197.274 Y115.703 I6.458 J12.387 E.10414
G1 X197.818 Y115.501 E.02846
G1 X198.108 Y115.256 E.0186
;WIDTH:0.682358
G1 X198.28 Y114.922 E.01851
;WIDTH:0.70676
G1 X198.322 Y114.557 E.0188
;WIDTH:0.718047
G1 X198.273 Y114.325 E.01234
;WIDTH:0.752176
G1 X198.213 Y114.111 E.0121
;WIDTH:0.786304
G1 X198.152 Y113.898 E.01268
;WIDTH:0.820432
G1 X198.092 Y113.685 E.01326
;WIDTH:0.849601
G1 X197.977 Y113.194 E.03129
G1 X197.857 Y112.269 E.05799
;WIDTH:0.83728
G1 X197.865 Y111.757 E.03131
G1 X197.963 Y111.057 E.04323
G3 X198.332 Y111.686 I-3.162 J2.274 E.04467
G1 X198.665 Y112.564 E.05743
;WIDTH:0.849601
G3 X198.851 Y113.552 I-8.424 J2.097 E.06249
;WIDTH:0.820432
G1 X198.891 Y113.844 E.01764
;WIDTH:0.782542
G1 X198.931 Y114.136 E.01678
;WIDTH:0.744651
G1 X198.971 Y114.428 E.01592
;WIDTH:0.70676
M73 P1 R10
G1 X199.15 Y114.749 E.0188
;WIDTH:0.682358
G1 X199.437 Y114.992 E.01851
;WIDTH:0.679999
G1 X199.619 Y115.07 E.00971
G1 X199.958 Y115.111 E.01678
G3 X202.013 Y115.081 I1.224 J13.888 E.10088
G1 X202.659 Y115.107 E.03171
G1 X203.02 Y114.992 E.0186
;WIDTH:0.682361
G1 X203.307 Y114.749 E.01851
;WIDTH:0.70676
G1 X203.486 Y114.428 E.01879
;WIDTH:0.718048
G1 X203.53 Y114.194 E.01234
;WIDTH:0.752177
G1 X203.555 Y113.974 E.0121
;WIDTH:0.786305
G1 X203.581 Y113.754 E.01268
;WIDTH:0.820433
G1 X203.607 Y113.534 E.01327
;WIDTH:0.849262
G1 X203.689 Y113.037 E.03128
G1 X203.932 Y112.136 E.05796
;WIDTH:0.837156
G1 X204.135 Y111.666 E.0313
G1 X204.494 Y111.057 E.04323
G3 X204.593 Y111.779 I-3.792 J.891 E.04468
G1 X204.565 Y112.717 E.05736
;WIDTH:0.849118
G3 X204.359 Y113.702 I-9.104 J-1.394 E.06251
;WIDTH:0.820432
G1 X204.284 Y113.987 E.01764
;WIDTH:0.782542
G1 X204.209 Y114.272 E.01678
;WIDTH:0.744651
G1 X204.135 Y114.557 E.01592
;WIDTH:0.70676
G1 X204.177 Y114.922 E.01879
;WIDTH:0.682361
G1 X204.349 Y115.256 E.01851
;WIDTH:0.679999
G1 X204.488 Y115.398 E.00971
G1 X204.786 Y115.565 E.01678
G3 X207.133 Y116.538 I-4.548 J14.299 E.12476
G1 X207.462 Y116.63 E.01677
G1 X207.815 Y116.596 E.0174
;WIDTH:0.692
G1 X208.134 Y116.443 E.01767
;WIDTH:0.70676
G1 X208.306 Y116.285 E.01197
;WIDTH:0.718047
G1 X208.436 Y116.086 E.01234
;WIDTH:0.752176
G1 X208.547 Y115.887 E.01243
;WIDTH:0.786305
G1 X208.658 Y115.688 E.01303
;WIDTH:0.820433
G1 X208.769 Y115.49 E.01362
;WIDTH:0.837276
G1 X209.279 Y114.709 E.05707
G3 X210.527 Y113.556 I4.328 J3.433 E.10432
G3 X210.343 Y114.262 I-3.843 J-.628 E.04467
G1 X209.958 Y115.118 E.05743
;WIDTH:0.849601
G3 X209.39 Y115.948 I-7.44 J-4.474 E.06249
;WIDTH:0.820432
G1 X209.244 Y116.136 E.01427
;WIDTH:0.782542
G1 X209.097 Y116.324 E.01358
;WIDTH:0.744651
G1 X208.95 Y116.512 E.01288
;WIDTH:0.70676
G1 X208.776 Y116.872 E.02046
;WIDTH:0.692
G1 X208.756 Y117.225 E.01767
;WIDTH:0.679999
G1 X208.86 Y117.564 E.0174
G1 X209.072 Y117.833 E.01677
G3 X210.529 Y119.248 I-8.958 J10.69 E.09973
G1 X210.984 Y119.74 E.03286
G1 X211.321 Y119.914 E.0186
;WIDTH:0.682355
G1 X211.695 Y119.945 E.01851
;WIDTH:0.706761
G1 X212.049 Y119.845 E.0188
;WIDTH:0.718048
G1 X212.245 Y119.711 E.01234
;WIDTH:0.752177
G1 X212.418 Y119.573 E.0121
;WIDTH:0.786306
G1 X212.592 Y119.436 E.01268
;WIDTH:0.820434
G1 X212.766 Y119.298 E.01327
;WIDTH:0.8496
G1 X213.175 Y119.005 E.03129
G1 X213.985 Y118.54 E.05799
;WIDTH:0.837277
G1 X214.461 Y118.351 E.03131
G1 X215.144 Y118.174 E.0432
G3 X214.704 Y118.755 I-3.402 J-2.118 E.04464
G1 X214.021 Y119.399 E.05743
;WIDTH:0.8496
G3 X213.179 Y119.949 I-5.162 J-6.981 E.06249
;WIDTH:0.820434
G1 X212.925 Y120.098 E.01764
;WIDTH:0.782543
G1 X212.671 Y120.246 E.01678
;WIDTH:0.744652
G1 X212.416 Y120.395 E.01592
;WIDTH:0.706761
G1 X212.188 Y120.683 E.0188
;WIDTH:0.682355
G1 X212.073 Y121.041 E.01851
;WIDTH:0.679999
G1 X212.071 Y121.239 E.00971
G1 X212.163 Y121.568 E.01678
G3 X212.965 Y123.423 I-12.373 J6.451 E.0992
G1 X213.2 Y124.062 E.0334
G1 X213.445 Y124.352 E.0186
;WIDTH:0.682365
G1 X213.779 Y124.524 E.01851
;WIDTH:0.706761
G1 X214.144 Y124.566 E.01879
;WIDTH:0.718049
G1 X214.376 Y124.517 E.01234
;WIDTH:0.752177
G1 X214.59 Y124.457 E.0121
;WIDTH:0.786305
G1 X214.803 Y124.396 E.01268
;WIDTH:0.820432
G1 X215.016 Y124.336 E.01326
;WIDTH:0.849554
G1 X215.507 Y124.221 E.03132
G1 X216.432 Y124.101 E.05795
;WIDTH:0.836385
G1 X216.944 Y124.109 E.03128
G1 X217.645 Y124.207 E.04325
G3 X217.015 Y124.576 I-2.278 J-3.167 E.04469
;WIDTH:0.836939
G1 X216.137 Y124.909 E.05741
;WIDTH:0.849554
G3 X215.149 Y125.095 I-2.103 J-8.462 E.06248
;WIDTH:0.820432
G1 X214.857 Y125.135 E.01764
;WIDTH:0.782542
G1 X214.565 Y125.175 E.01678
;WIDTH:0.744652
G1 X214.273 Y125.215 E.01592
;WIDTH:0.706761
G1 X213.952 Y125.394 E.01879
;WIDTH:0.682365
G1 X213.709 Y125.681 E.01851
;WIDTH:0.679999
G1 X213.631 Y125.863 E.00971
G1 X213.59 Y126.202 E.01678
G3 X213.59 Y128.743 I-14.952 J1.27 E.12476
G1 X213.631 Y129.082 E.01677
G1 X213.797 Y129.396 E.01741
G1 X214.064 Y129.626 E.01729
G1 X214.44 Y129.75 E.01943
;WIDTH:0.726811
G1 X214.462 Y129.775 E.00173
;WIDTH:0.773623
G1 X214.483 Y129.8 E.00185
;WIDTH:0.820434
G1 X214.504 Y129.825 E.00197
G1 X215.167 Y129.851 E.03968
;WIDTH:0.849601
G1 X215.664 Y129.933 E.03129
G1 X216.565 Y130.176 E.05799
;WIDTH:0.837279
G1 X217.035 Y130.379 E.03131
G1 X217.644 Y130.738 E.04323
G1 X216.933 Y130.837 E.04392
G1 X216.432 Y130.844 E.03062
;WIDTH:0.849601
G1 X215.506 Y130.724 E.05799
G1 X215.016 Y130.609 E.03129
;WIDTH:0.820434
G1 X214.394 Y130.38 E.03968
G1 X214.365 Y130.395 E.00197
;WIDTH:0.773623
G1 X214.335 Y130.41 E.00185
;WIDTH:0.726811
G1 X214.306 Y130.425 E.00173
;WIDTH:0.679999
G1 X213.911 Y130.395 E.01943
G1 X213.576 Y130.506 E.01729
G1 X213.303 Y130.732 E.01741
G1 X213.135 Y131.03 E.01677
G3 X212.163 Y133.377 I-14.299 J-4.548 E.12476
G1 X212.078 Y133.649 E.01397
G1 X212.086 Y133.983 E.01643
G1 X212.226 Y134.323 E.01802
G1 X212.563 Y134.632 E.02243
;WIDTH:0.726811
G1 X212.573 Y134.664 E.00173
;WIDTH:0.773623
G1 X212.583 Y134.695 E.00185
;WIDTH:0.820434
G1 X212.594 Y134.726 E.00197
G1 X213.196 Y135.004 E.03968
;WIDTH:0.849601
G1 X213.623 Y135.27 E.03129
G1 X214.363 Y135.839 E.05799
;WIDTH:0.837278
G1 X214.719 Y136.207 E.03131
G1 X215.145 Y136.771 E.04323
G1 X214.45 Y136.591 E.04392
G1 X213.985 Y136.405 E.03062
;WIDTH:0.849601
G1 X213.175 Y135.94 E.05799
G1 X212.766 Y135.647 E.03129
;WIDTH:0.820434
G1 X212.279 Y135.197 E.03968
G1 X212.247 Y135.199 E.00197
;WIDTH:0.773623
G1 X212.214 Y135.202 E.00185
;WIDTH:0.726811
G1 X212.181 Y135.204 E.00173
;WIDTH:0.679999
G1 X211.766 Y135.012 E.02243
G1 X211.399 Y135.012 E.01802
G1 X211.086 Y135.133 E.01643
G1 X210.868 Y135.316 E.01397
G3 X209.072 Y137.112 I-11.47 J-9.674 E.12476
G1 X208.878 Y137.349 E.01499
G1 X208.763 Y137.672 E.01683
G1 X208.773 Y138.034 E.01778
G1 X208.96 Y138.425 E.02127
;WIDTH:0.726811
G1 X208.958 Y138.458 E.00173
;WIDTH:0.773623
G1 X208.955 Y138.491 E.00185
;WIDTH:0.820435
G1 X208.953 Y138.524 E.00197
