; HEADER_BLOCK_START
; generated by OrcaSlicer 1.8.1 on 2023-12-18 at 23:32:54
; total layer number: 43
; HEADER_BLOCK_END

; THUMBNAIL_BLOCK_START

;
; THUMBNAIL_BLOCK_END

; external perimeters extrusion width = 0.52mm
; perimeters extrusion width = 0.52mm
; infill extrusion width = 0.55mm
; solid infill extrusion width = 0.55mm
; top infill extrusion width = 0.55mm
; first layer extrusion width = 0.58mm

; external perimeters extrusion width = 0.52mm
; perimeters extrusion width = 0.52mm
; infill extrusion width = 0.55mm
; solid infill extrusion width = 0.55mm
; top infill extrusion width = 0.55mm
; first layer extrusion width = 0.58mm

; external perimeters extrusion width = 0.52mm
; perimeters extrusion width = 0.52mm
; infill extrusion width = 0.55mm
; solid infill extrusion width = 0.55mm
; top infill extrusion width = 0.55mm
; first layer extrusion width = 0.58mm

; external perimeters extrusion width = 0.52mm
; perimeters extrusion width = 0.52mm
; infill extrusion width = 0.55mm
; solid infill extrusion width = 0.55mm
; top infill extrusion width = 0.55mm
; first layer extrusion width = 0.58mm

; external perimeters extrusion width = 0.52mm
; perimeters extrusion width = 0.52mm
; infill extrusion width = 0.55mm
; solid infill extrusion width = 0.55mm
; top infill extrusion width = 0.55mm
; first layer extrusion width = 0.58mm

; external perimeters extrusion width = 0.52mm
; perimeters extrusion width = 0.52mm
; infill extrusion width = 0.55mm
; solid infill extrusion width = 0.55mm
; top infill extrusion width = 0.55mm
; first layer extrusion width = 0.58mm

; EXECUTABLE_BLOCK_START
EXCLUDE_OBJECT_DEFINE NAME=nuholdr_v24_id_0_copy_0 CENTER=222.561,176.72 POLYGON=[[206.122,123.72],[228.269,123.72],[228.579,123.725],[228.948,123.742],[229.247,123.765],[229.624,123.806],[229.911,123.846],[230.295,123.913],[230.568,123.969],[230.958,124.062],[231.217,124.133],[231.61,124.253],[231.854,124.337],[232.248,124.485],[232.477,124.58],[232.871,124.757],[233.084,124.861],[233.475,125.067],[233.672,125.18],[234.058,125.415],[234.24,125.534],[234.618,125.8],[234.784,125.924],[235.153,126.219],[235.302,126.346],[235.66,126.671],[235.794,126.8],[236.137,127.154],[236.256,127.284],[236.583,127.666],[236.687,127.795],[236.996,128.206],[237.085,128.333],[237.374,128.771],[237.449,128.894],[237.715,129.358],[237.778,129.477],[238.018,129.966],[238.069,130.079],[238.282,130.592],[238.323,130.698],[238.507,131.233],[238.537,131.332],[238.69,131.887],[238.712,131.977],[238.831,132.551],[238.845,132.633],[238.93,133.223],[238.938,133.295],[238.987,133.9],[238.99,133.962],[239,134.579],[239,218.861],[238.99,219.478],[238.987,219.54],[238.938,220.145],[238.93,220.217],[238.845,220.808],[238.831,220.889],[238.712,221.463],[238.69,221.553],[238.537,222.109],[238.507,222.207],[238.323,222.742],[238.282,222.849],[238.069,223.362],[238.018,223.474],[237.778,223.964],[237.715,224.082],[237.449,224.546],[237.374,224.67],[237.085,225.108],[236.996,225.234],[236.687,225.645],[236.583,225.774],[236.256,226.157],[236.137,226.286],[235.794,226.64],[235.66,226.769],[235.302,227.094],[235.153,227.221],[234.784,227.517],[234.618,227.64],[234.24,227.906],[234.058,228.025],[233.672,228.261],[233.475,228.373],[233.084,228.579],[232.871,228.684],[232.477,228.861],[232.248,228.955],[231.854,229.104],[231.61,229.187],[231.217,229.307],[230.958,229.378],[230.568,229.471],[230.295,229.527],[229.911,229.594],[229.624,229.634],[229.247,229.676],[228.948,229.699],[228.579,229.716],[228.269,229.72],[206.122,229.72],[206.122,123.72]]
EXCLUDE_OBJECT_DEFINE NAME=nuholdr_v24_id_1_copy_0 CENTER=188.683,176.72 POLYGON=[[172.244,123.72],[194.391,123.72],[194.701,123.725],[195.07,123.742],[195.369,123.765],[195.746,123.806],[196.033,123.846],[196.417,123.913],[196.69,123.969],[197.08,124.062],[197.339,124.133],[197.732,124.253],[197.976,124.337],[198.37,124.485],[198.599,124.58],[198.993,124.757],[199.206,124.861],[199.597,125.067],[199.794,125.18],[200.18,125.415],[200.362,125.534],[200.74,125.8],[200.906,125.924],[201.275,126.219],[201.424,126.346],[201.782,126.671],[201.916,126.8],[202.259,127.154],[202.378,127.284],[202.705,127.666],[202.809,127.795],[203.118,128.206],[203.207,128.333],[203.496,128.771],[203.571,128.894],[203.837,129.358],[203.9,129.477],[204.14,129.966],[204.191,130.079],[204.404,130.592],[204.445,130.698],[204.629,131.233],[204.659,131.332],[204.812,131.887],[204.834,131.977],[204.953,132.551],[204.967,132.633],[205.052,133.223],[205.06,133.295],[205.109,133.9],[205.112,133.962],[205.122,134.579],[205.122,218.861],[205.112,219.478],[205.109,219.54],[205.06,220.145],[205.052,220.217],[204.967,220.808],[204.953,220.889],[204.834,221.463],[204.812,221.553],[204.659,222.109],[204.629,222.207],[204.445,222.742],[204.404,222.849],[204.191,223.362],[204.14,223.474],[203.9,223.964],[203.837,224.082],[203.571,224.546],[203.496,224.67],[203.207,225.108],[203.118,225.234],[202.809,225.645],[202.705,225.774],[202.378,226.157],[202.259,226.286],[201.916,226.64],[201.782,226.769],[201.424,227.094],[201.275,227.221],[200.906,227.517],[200.74,227.64],[200.362,227.906],[200.18,228.025],[199.794,228.261],[199.597,228.373],[199.206,228.579],[198.993,228.684],[198.599,228.861],[198.37,228.955],[197.976,229.104],[197.732,229.187],[197.339,229.307],[197.08,229.378],[196.69,229.471],[196.417,229.527],[196.033,229.594],[195.746,229.634],[195.369,229.676],[195.07,229.699],[194.701,229.716],[194.391,229.72],[172.244,229.72],[172.244,123.72]]
EXCLUDE_OBJECT_DEFINE NAME=nuholdr_v24_id_2_copy_0 CENTER=154.805,176.72 POLYGON=[[138.366,123.72],[160.513,123.72],[160.823,123.725],[161.192,123.742],[161.491,123.765],[161.868,123.806],[162.155,123.846],[162.539,123.913],[162.812,123.969],[163.202,124.062],[163.461,124.133],[163.854,124.253],[164.098,124.337],[164.492,124.485],[164.721,124.58],[165.115,124.757],[165.328,124.861],[165.719,125.067],[165.916,125.18],[166.302,125.415],[166.484,125.534],[166.862,125.8],[167.028,125.924],[167.397,126.219],[167.546,126.346],[167.904,126.671],[168.038,126.8],[168.381,127.154],[168.5,127.284],[168.827,127.666],[168.931,127.795],[169.24,128.206],[169.329,128.333],[169.618,128.771],[169.693,128.894],[169.959,129.358],[170.022,129.477],[170.262,129.966],[170.313,130.079],[170.526,130.592],[170.567,130.698],[170.751,131.233],[170.781,131.332],[170.934,131.887],[170.956,131.977],[171.075,132.551],[171.089,132.633],[171.174,133.223],[171.182,133.295],[171.231,133.9],[171.234,133.962],[171.244,134.579],[171.244,218.861],[171.234,219.478],[171.231,219.54],[171.182,220.145],[171.174,220.217],[171.089,220.808],[171.075,220.889],[170.956,221.463],[170.934,221.553],[170.781,222.109],[170.751,222.207],[170.567,222.742],[170.526,222.849],[170.313,223.362],[170.262,223.474],[170.022,223.964],[169.959,224.082],[169.693,224.546],[169.618,224.67],[169.329,225.108],[169.24,225.234],[168.931,225.645],[168.827,225.774],[168.5,226.157],[168.381,226.286],[168.038,226.64],[167.904,226.769],[167.546,227.094],[167.397,227.221],[167.028,227.517],[166.862,227.64],[166.484,227.906],[166.302,228.025],[165.916,228.261],[165.719,228.373],[165.328,228.579],[165.115,228.684],[164.721,228.861],[164.492,228.955],[164.098,229.104],[163.854,229.187],[163.461,229.307],[163.202,229.378],[162.812,229.471],[162.539,229.527],[162.155,229.594],[161.868,229.634],[161.491,229.676],[161.192,229.699],[160.823,229.716],[160.513,229.72],[138.366,229.72],[138.366,123.72]]
EXCLUDE_OBJECT_DEFINE NAME=nuholdr_v24_id_3_copy_0 CENTER=120.927,176.72 POLYGON=[[104.488,123.72],[126.635,123.72],[126.945,123.725],[127.314,123.742],[127.613,123.765],[127.99,123.806],[128.277,123.846],[128.661,123.913],[128.934,123.969],[129.324,124.062],[129.583,124.133],[129.976,124.253],[130.22,124.337],[130.614,124.485],[130.843,124.58],[131.237,124.757],[131.45,124.861],[131.841,125.067],[132.038,125.18],[132.424,125.415],[132.606,125.534],[132.984,125.8],[133.15,125.924],[133.519,126.219],[133.668,126.346],[134.026,126.671],[134.16,126.8],[134.503,127.154],[134.622,127.284],[134.949,127.666],[135.053,127.795],[135.362,128.206],[135.451,128.333],[135.74,128.771],[135.815,128.894],[136.081,129.358],[136.144,129.477],[136.384,129.966],[136.435,130.079],[136.648,130.592],[136.689,130.698],[136.873,131.233],[136.903,131.332],[137.056,131.887],[137.078,131.977],[137.197,132.551],[137.211,132.633],[137.296,133.223],[137.304,133.295],[137.353,133.9],[137.356,133.962],[137.366,134.579],[137.366,218.861],[137.356,219.478],[137.353,219.54],[137.304,220.145],[137.296,220.217],[137.211,220.808],[137.197,220.889],[137.078,221.463],[137.056,221.553],[136.903,222.109],[136.873,222.207],[136.689,222.742],[136.648,222.849],[136.435,223.362],[136.384,223.474],[136.144,223.964],[136.081,224.082],[135.815,224.546],[135.74,224.67],[135.451,225.108],[135.362,225.234],[135.053,225.645],[134.949,225.774],[134.622,226.157],[134.503,226.286],[134.16,226.64],[134.026,226.769],[133.668,227.094],[133.519,227.221],[133.15,227.517],[132.984,227.64],[132.606,227.906],[132.424,228.025],[132.038,228.261],[131.841,228.373],[131.45,228.579],[131.237,228.684],[130.843,228.861],[130.614,228.955],[130.22,229.104],[129.976,229.187],[129.583,229.307],[129.324,229.378],[128.934,229.471],[128.661,229.527],[128.277,229.594],[127.99,229.634],[127.613,229.676],[127.314,229.699],[126.945,229.716],[126.635,229.72],[104.488,229.72],[104.488,123.72]]
EXCLUDE_OBJECT_DEFINE NAME=rail_id_4_copy_0 CENTER=165,117.36 POLYGON=[[91,112],[239,112],[239,122.72],[91,122.72],[91,112]]
EXCLUDE_OBJECT_DEFINE NAME=rail_id_5_copy_0 CENTER=165,105.64 POLYGON=[[91,100.28],[239,100.28],[239,111],[91,111],[91,100.28]]
M73 P0 R46
;TYPE:Custom
M104 S0
M140 S0
START_PRINT BED=75 HOTEND=225
G90
G21
M83 ; use relative distances for extrusion
; filament start gcode
SET_PRESSURE_ADVANCE ADVANCE=0.032; Override pressure advance value
M106 S0
;LAYER_CHANGE
;Z:0.2
;HEIGHT:0.2
;BEFORE_LAYER_CHANGE
;0.2
G92 E0

;DSLR_SNAPSHOT
TIMELAPSE_TAKE_FRAME
;_SET_FAN_SPEED_CHANGING_LAYER
SET_VELOCITY_LIMIT ACCEL=10000 ACCEL_TO_DECEL=5000
SET_VELOCITY_LIMIT SQUARE_CORNER_VELOCITY=10
G1 E-.4 F4200
G1 X88.357 Y98.382 F24000
G1 Z.2
G1 E.4 F4200
;TYPE:Skirt
;WIDTH:0.58
G1 F3000
G1 X89.971 Y97.561 E.07278
G1 X91 Y97.432 E.04169
G1 X239 Y97.432 E5.94849
G1 X240.767 Y97.827 E.07278
G1 X242.197 Y98.937 E.07278
G1 X243.019 Y100.551 E.07278
G1 X243.148 Y101.58 E.04169
G1 X243.147 Y218.937 E4.71686
G1 X243.065 Y220.553 E.06505
G1 X242.897 Y221.712 E.04709
G1 X242.505 Y223.315 E.0663
G1 X242.109 Y224.45 E.04834
G1 X241.434 Y225.921 E.06505
G1 X240.454 Y227.526 E.07557
G1 X239.725 Y228.482 E.04834
G1 X238.626 Y229.67 E.06505
G1 X237.729 Y230.472 E.04833
G1 X236.367 Y231.469 E.06784
G1 X235.394 Y232.05 E.04554
G1 X233.934 Y232.746 E.06505
G1 X232.804 Y233.159 E.04834
G1 X231.238 Y233.567 E.06505
G1 X230.051 Y233.76 E.04834
G1 X228.407 Y233.866 E.0662
G1 X104.488 Y233.868 E4.98062
G1 X102.721 Y233.473 E.07278
G1 X101.291 Y232.363 E.07278
G1 X100.371 Y230.233 E.09325
G1 X86.883 Y121.933 E4.38648
G1 X86.852 Y101.58 E.81803
G1 X87.247 Y99.813 E.07278
G1 X88.326 Y98.422 E.07077
G1 X88.762 Y98.795 F24000
G1 F3000
G1 X88.88 Y98.656 E.00732
G1 X91 Y97.969 E.08956
G1 X239 Y97.969 E5.94849
G1 X240.641 Y98.363 E.06784
G1 X241.924 Y99.46 E.06784
G1 X242.611 Y101.58 E.08956
G1 X242.61 Y218.926 E4.71644
G1 X242.53 Y220.509 E.06368
G1 X242.371 Y221.605 E.04452
G1 X241.987 Y223.17 E.06477
G1 X241.614 Y224.242 E.04561
G1 X240.953 Y225.682 E.06368
G1 X240.007 Y227.228 E.07284
G1 X239.319 Y228.13 E.04561
G1 X238.243 Y229.293 E.06369
G1 X237.397 Y230.05 E.04561
G1 X236.064 Y231.026 E.0664
G1 X235.148 Y231.572 E.04288
G1 X233.718 Y232.254 E.06368
G1 X232.652 Y232.644 E.04561
G1 X231.119 Y233.044 E.06368
G1 X229.999 Y233.225 E.04561
G1 X228.389 Y233.329 E.06482
G1 X104.488 Y233.331 E4.9799
G1 X102.847 Y232.937 E.06784
G1 X101.564 Y231.84 E.06784
G1 X100.904 Y230.166 E.07229
G1 X87.416 Y121.866 E4.38648
M73 P0 R45
G1 X87.389 Y101.58 E.81536
G1 X87.783 Y99.939 E.06784
G1 X88.73 Y98.833 E.05851
G1 X89.138 Y99.226 F24000
G1 F3000
G1 X89.399 Y98.956 E.01512
G1 X91 Y98.506 E.06684
G1 X239 Y98.506 E5.94849
G1 X240.505 Y98.899 E.06252
G1 X241.624 Y99.979 E.06252
G1 X242.074 Y101.58 E.06684
G1 X242.06 Y219.594 E4.74329
M73 P1 R45
G1 X241.972 Y220.657 E.04288
G1 X241.698 Y222.186 E.0624
G1 X241.412 Y223.211 E.0428
G1 X240.855 Y224.658 E.06232
G1 X240.38 Y225.614 E.04288
G1 X239.561 Y226.93 E.06232
G1 X238.914 Y227.778 E.04288
G1 X237.861 Y228.916 E.06232
G1 X237.065 Y229.628 E.04288
G1 X235.761 Y230.582 E.06497
G1 X234.902 Y231.095 E.04023
G1 X233.502 Y231.763 E.06232
G1 X232.5 Y232.129 E.04288
G1 X231 Y232.52 E.06232
G1 X229.946 Y232.691 E.04288
G1 X228.371 Y232.793 E.06344
G1 X104.488 Y232.794 E4.97918
G1 X102.983 Y232.401 E.06252
G1 X101.864 Y231.321 E.06252
G1 X101.437 Y230.1 E.05198
G1 X87.949 Y121.8 E4.38648
G1 X87.926 Y101.58 E.8127
G1 X88.319 Y100.075 E.06252
G1 X89.103 Y99.262 E.04538
G1 X89.472 Y99.678 F24000
G1 F3000
G1 X89.91 Y99.289 E.02356
G1 X91 Y99.043 E.0449
G1 X239 Y99.043 E5.94849
G1 X240.355 Y99.435 E.05669
G1 X241.291 Y100.49 E.05669
G1 X241.537 Y101.58 E.0449
G1 X241.523 Y219.584 E4.74287
G1 X241.441 Y220.579 E.04016
G1 X241.173 Y222.074 E.06102
G1 X240.905 Y223.034 E.04008
G1 X240.361 Y224.45 E.06096
G1 X239.915 Y225.344 E.04015
G1 X239.114 Y226.632 E.06095
G1 X238.508 Y227.426 E.04015
G1 X237.478 Y228.539 E.06096
G1 X236.733 Y229.205 E.04015
G1 X235.458 Y230.139 E.06353
G1 X234.655 Y230.618 E.03757
G1 X233.286 Y231.271 E.06095
G1 X232.348 Y231.613 E.04015
G1 X230.881 Y231.996 E.06095
G1 X229.894 Y232.156 E.04015
G1 X228.353 Y232.256 E.06206
G1 X104.488 Y232.257 E4.97846
G1 X103.133 Y231.865 E.05669
G1 X102.197 Y230.81 E.05669
G1 X101.97 Y230.034 E.0325
G1 X88.482 Y121.734 E4.38648
G1 X88.463 Y101.58 E.81003
G1 X88.855 Y100.225 E.05669
G1 X89.434 Y99.711 E.03113
; printing object nuholdr v24 id:0 copy 0
G1 E-.4 F4200
EXCLUDE_OBJECT_START NAME=nuholdr_v24_id_0_copy_0
G1 X219.584 Y147.073 F24000
G1 E.4 F4200
;TYPE:Inner wall
;WIDTH:0.579999
G1 F4800
G1 X220.031 Y147.093 E.01798
G1 X221.582 Y147.099 E.06234
G1 X221.899 Y147.062 E.01283
G1 X222.301 Y146.892 E.01752
G1 X222.536 Y146.705 E.01207
G1 X224.021 Y145.22 E.08443
G1 X224.208 Y144.985 E.01206
G1 X224.379 Y144.576 E.01781
G1 X224.415 Y144.27 E.01238
G1 X224.404 Y135.999 E.33246
G1 X224.278 Y135.579 E.01761
G1 X224.021 Y135.22 E.01771
G1 X222.536 Y133.735 E.08443
G2 X221.587 Y133.342 I-1.016 J1.11 E.04215
G1 X219.486 Y133.342 E.08443
G1 X219.106 Y133.397 E.01543
G1 X218.77 Y133.549 E.01483
G1 X218.536 Y133.735 E.012
G1 X217.516 Y134.756 E.05803
G1 X207.586 Y134.756 E.39909
G1 X207.586 Y125.184 E.38471
G1 X228.27 Y125.185 E.83134
G3 X237.035 Y137.458 I-.008 J9.273 E.70792
G3 X232.073 Y150.541 I-205.939 J-70.629 E.56245
G2 X226.79 Y176.755 I67.03 J27.148 E1.08101
G2 X232.339 Y203.559 I72.46 J-1.022 E1.10683
G3 X237.035 Y215.982 I-193.929 J80.418 E.53387
G3 X228.245 Y228.256 I-8.775 J3.001 E.70893
G1 X207.586 Y228.256 E.83032
G1 X207.586 Y218.684 E.38471
G1 X217.516 Y218.684 E.39909
G1 X218.536 Y219.705 E.05803
G1 X218.77 Y219.892 E.012
G1 X219.106 Y220.044 E.01483
G1 X219.486 Y220.099 E.01543
G1 X221.587 Y220.099 E.08443
G1 X221.95 Y220.048 E.01476
G2 X222.536 Y219.705 I-.364 J-1.292 E.02758
G1 X223.999 Y218.242 E.08317
G1 X224.13 Y218.097 E.00786
G1 X224.34 Y217.711 E.01765
G1 X224.415 Y217.27 E.01797
G1 X224.415 Y209.17 E.32558
G1 X224.388 Y208.902 E.01082
G1 X224.236 Y208.501 E.01721
G1 X224.021 Y208.22 E.01422
G1 X222.536 Y206.735 E.08443
G1 X222.301 Y206.548 E.01207
G1 X221.899 Y206.379 E.01753
G1 X221.582 Y206.342 E.01283
G2 X219.583 Y206.367 I-.584 J32.61 E.08038
G1 X219.586 Y163.886 E1.70744
G1 X219.584 Y147.083 E.67534
G1 X219.375 Y146.515 F24000
G1 F4800
G1 X219.457 Y146.529 E.00335
G1 X220.033 Y146.556 E.02317
G1 X221.584 Y146.561 E.06234
G1 X221.914 Y146.492 E.01355
G1 X222.156 Y146.325 E.01182
G1 X223.642 Y144.84 E.08443
G1 X223.818 Y144.575 E.01279
G1 X223.878 Y144.27 E.01248
G1 X223.878 Y136.17 E.32558
G1 X223.827 Y135.89 E.01142
