; HEADER_BLOCK_START
; generated by OrcaSlicer 1.6.3 on 2023-11-17 at 11:00:05
; total layer number: 150
; HEADER_BLOCK_END

; THUMBNAIL_BLOCK_START
; THUMBNAIL_BLOCK_END

; external perimeters extrusion width = 0.62mm
; perimeters extrusion width = 0.62mm
; infill extrusion width = 0.65mm
; solid infill extrusion width = 0.65mm
; top infill extrusion width = 0.65mm
; first layer extrusion width = 0.68mm

; external perimeters extrusion width = 0.62mm
; perimeters extrusion width = 0.62mm
; infill extrusion width = 0.65mm
; solid infill extrusion width = 0.65mm
; top infill extrusion width = 0.65mm
; first layer extrusion width = 0.68mm

; EXECUTABLE_BLOCK_START
EXCLUDE_OBJECT_DEFINE NAME=OrcaCube_id_0_copy_0 CENTER=165,179.261 POLYGON=[[150,164.261],[175.981,164.261],[180,164.261],[180,190.242],[180,194.261],[154.019,194.261],[150,194.261],[150,168.281],[150,164.261]]
EXCLUDE_OBJECT_DEFINE NAME=OrcaPlug_id_1_copy_0 CENTER=165.344,146.737 POLYGON=[[154.344,146.737],[154.352,146.32],[154.376,145.905],[154.415,145.49],[154.47,145.078],[154.54,144.667],[154.626,144.26],[154.728,143.856],[154.844,143.456],[154.976,143.062],[155.123,142.672],[155.284,142.288],[155.459,141.91],[155.649,141.54],[155.853,141.177],[156.07,140.821],[156.3,140.475],[156.544,140.137],[156.8,139.809],[157.068,139.49],[157.348,139.182],[157.64,138.885],[157.942,138.599],[158.256,138.325],[158.579,138.063],[158.912,137.813],[159.254,137.576],[159.605,137.352],[159.965,137.142],[160.332,136.945],[160.706,136.762],[161.086,136.594],[161.473,136.44],[161.866,136.301],[162.263,136.177],[162.665,136.068],[163.071,135.974],[163.479,135.896],[163.891,135.833],[164.305,135.786],[164.72,135.754],[165.136,135.739],[165.552,135.739],[165.968,135.754],[166.383,135.786],[166.797,135.833],[167.209,135.896],[167.617,135.974],[168.023,136.068],[168.425,136.177],[168.822,136.301],[169.215,136.44],[169.602,136.594],[169.982,136.762],[170.356,136.945],[170.723,137.142],[171.083,137.352],[171.434,137.576],[171.776,137.813],[172.109,138.063],[172.432,138.325],[172.746,138.599],[173.048,138.885],[173.34,139.182],[173.62,139.49],[173.888,139.809],[174.144,140.137],[174.388,140.475],[174.618,140.822],[174.835,141.177],[175.039,141.54],[175.229,141.91],[175.404,142.288],[175.565,142.672],[175.712,143.062],[175.844,143.456],[175.96,143.856],[176.062,144.26],[176.148,144.667],[176.218,145.078],[176.273,145.49],[176.312,145.905],[176.336,146.32],[176.344,146.737],[176.336,147.153],[176.312,147.569],[176.273,147.983],[176.218,148.396],[176.148,148.806],[176.062,149.213],[175.96,149.617],[175.844,150.017],[175.712,150.412],[175.565,150.802],[175.404,151.185],[175.229,151.563],[175.039,151.934],[174.835,152.297],[174.618,152.652],[174.388,152.999],[174.144,153.336],[173.888,153.665],[173.62,153.983],[173.34,154.291],[173.048,154.588],[172.746,154.874],[172.432,155.148],[172.109,155.41],[171.776,155.66],[171.434,155.897],[171.083,156.121],[170.723,156.332],[170.356,156.528],[169.982,156.711],[169.602,156.879],[169.215,157.033],[168.822,157.172],[168.425,157.296],[168.023,157.405],[167.617,157.499],[167.209,157.577],[166.797,157.64],[166.383,157.687],[165.968,157.719],[165.552,157.735],[165.136,157.735],[164.72,157.719],[164.305,157.687],[163.891,157.64],[163.479,157.577],[163.071,157.499],[162.665,157.405],[162.263,157.296],[161.866,157.172],[161.473,157.033],[161.086,156.879],[160.706,156.711],[160.332,156.528],[159.965,156.332],[159.605,156.121],[159.254,155.897],[158.912,155.66],[158.579,155.41],[158.256,155.148],[157.942,154.874],[157.64,154.588],[157.348,154.291],[157.068,153.983],[156.8,153.665],[156.544,153.336],[156.3,152.999],[156.07,152.652],[155.853,152.297],[155.649,151.933],[155.459,151.563],[155.284,151.185],[155.123,150.802],[154.976,150.412],[154.844,150.017],[154.728,149.617],[154.626,149.213],[154.54,148.806],[154.47,148.396],[154.415,147.983],[154.375,147.569],[154.352,147.153],[154.344,146.737]]
M73 P0 R25
;TYPE:Custom
M104 S0
M140 S0
START_PRINT BED=75 HOTEND=215
G90
G21
M83 ; use relative distances for extrusion
; filament start gcode
SET_PRESSURE_ADVANCE ADVANCE=0.032; Override pressure advance value
M106 S0
;LAYER_CHANGE
;Z:0.2
;HEIGHT:0.2
;BEFORE_LAYER_CHANGE
;0.2
G92 E0

;DSLR_SNAPSHOT
TIMELAPSE_TAKE_FRAME
M204 S10000
G1 E-.4 F4200
G1 X155.531 Y137.397 F48000
G1 Z.2
G1 E.4 F4200
;TYPE:Skirt
;WIDTH:0.68
G1 F7200
G1 X156.977 Y136.082 E.09322
G1 X158.321 Y135.152 E.07791
G1 X160.056 Y134.264 E.0929
G1 X161.996 Y133.61 E.09763
G1 X163.601 Y133.302 E.07792
G1 X165.558 Y133.191 E.09347
G1 X167.693 Y133.395 E.10225
G1 X169.676 Y133.901 E.09757
G1 X171.561 Y134.7 E.0976
G1 X172.455 Y135.205 E.04894
G1 X173.633 Y136.021 E.06834
G1 X175.158 Y137.398 E.09796
G1 X176.452 Y138.982 E.0975
G1 X177.539 Y140.837 E.10253
G1 X178.29 Y142.744 E.09771
G1 X178.736 Y144.689 E.09514
G1 X182.306 Y167.872 E1.11827
G1 X182.337 Y190.25 E1.06689
G1 X181.565 Y192.114 E.09623
G1 X177.853 Y195.826 E.25026
G1 X175.988 Y196.598 E.09623
G1 X154.012 Y196.598 E1.04776
G1 X152.147 Y195.826 E.09623
G1 X148.435 Y192.114 E.25026
G1 X147.663 Y190.25 E.09623
G1 X147.706 Y167.797 E1.07045
G1 X152.048 Y144.141 E1.14667
G1 X152.591 Y142.166 E.09766
G1 X153.382 Y140.377 E.09325
G1 X154.235 Y138.983 E.07792
G1 X155.474 Y137.467 E.09334
; printing object OrcaCube id:0 copy 0
EXCLUDE_OBJECT_START NAME=OrcaCube_id_0_copy_0
G1 E-.4 F4200
G1 X154.287 Y172.165 F48000
G1 E.4 F4200
;TYPE:Inner wall
;WIDTH:0.679999
G1 F7200
G1 X154.24 Y172.236 E.00405
G2 X152.639 Y175.739 I10.685 J7.001 E.18434
G1 X152.582 Y176.057 E.01537
;WIDTH:0.640064
G1 X152.525 Y176.374 E.01441
;WIDTH:0.600129
G1 X152.468 Y176.691 E.01344
;WIDTH:0.560193
G1 X152.409 Y177.166 E.01852
;WIDTH:0.52015
G1 X152.35 Y177.641 E.01708
;WIDTH:0.480106
G1 X152.286 Y178.599 E.03144
;WIDTH:0.436529
G1 X152.276 Y179.553 E.02809
;WIDTH:0.459637
G1 X152.319 Y180.513 E.02999
;WIDTH:0.498244
G1 X152.365 Y180.993 E.01641
;WIDTH:0.536851
G1 X152.411 Y181.472 E.01781
;WIDTH:0.584567
G1 X152.456 Y181.794 E.01314
;WIDTH:0.632283
G1 X152.501 Y182.115 E.0143
;WIDTH:0.679999
G1 X152.545 Y182.436 E.01546
G2 X161.593 Y191.654 I12.475 J-3.194 E.6451
G1 X161.912 Y191.707 E.01538
;WIDTH:0.636063
G1 X162.23 Y191.759 E.01432
;WIDTH:0.592127
G1 X162.548 Y191.811 E.01326
;WIDTH:0.54819
G1 X163.022 Y191.866 E.01803
;WIDTH:0.510556
G1 X163.496 Y191.922 E.01669
;WIDTH:0.472922
G1 X164.46 Y191.98 E.0311
;WIDTH:0.433694
G1 X165.411 Y191.983 E.02781
;WIDTH:0.466052
G1 X166.373 Y191.933 E.03048
;WIDTH:0.507639
G1 X166.851 Y191.884 E.01672
;WIDTH:0.549225
G1 X167.329 Y191.835 E.01821
;WIDTH:0.592817
G1 X167.649 Y191.785 E.01333
;WIDTH:0.636408
G1 X167.969 Y191.736 E.01439
;WIDTH:0.679999
G1 X168.29 Y191.686 E.01545
G2 X177.425 Y182.551 I-3.291 J-12.426 E.64533
;WIDTH:0.72464
G1 X177.472 Y182.441 E.00612
;WIDTH:0.76928
G1 X177.52 Y182.331 E.00652
;WIDTH:0.81392
G1 X177.568 Y182.221 E.00692
;WIDTH:0.858561
G1 X177.616 Y182.111 E.00732
;WIDTH:0.903201
G1 X177.664 Y182.002 E.00772
;WIDTH:0.947842
G1 X177.712 Y181.892 E.00812
;WIDTH:0.992482
G1 X177.759 Y181.782 E.00852
;WIDTH:1.03712
G1 X177.807 Y181.672 E.00892
G1 X177.821 Y181.718 E.00359
;WIDTH:1.00949
G1 X177.835 Y181.764 E.00349
;WIDTH:0.98185
G1 X177.856 Y181.886 E.00867
;WIDTH:0.938729
G1 X177.878 Y182.007 E.00827
;WIDTH:0.895607
G1 X177.9 Y182.129 E.00787
;WIDTH:0.852486
G1 X177.921 Y182.25 E.00748
;WIDTH:0.809364
G1 X177.943 Y182.372 E.00708
;WIDTH:0.766242
G1 X177.964 Y182.493 E.00668
;WIDTH:0.723121
G1 X177.986 Y182.615 E.00628
;WIDTH:0.679999
G1 X177.986 Y189.54 E.33015
G1 X175.278 Y192.247 E.18256
G1 X168.231 Y192.247 E.33596
G1 X167.986 Y192.266 E.01176
;WIDTH:0.641447
G1 X167.74 Y192.286 E.01105
;WIDTH:0.602894
G1 X167.494 Y192.305 E.01033
;WIDTH:0.564342
G1 X167.248 Y192.324 E.00962
;WIDTH:0.525789
G1 X166.761 Y192.341 E.0176
;WIDTH:0.492618
G1 X166.275 Y192.357 E.01639
;WIDTH:0.459447
G1 X165.299 Y192.372 E.03041
;WIDTH:0.43665
G1 X164.333 Y192.369 E.02847
;WIDTH:0.480792
G1 X163.349 Y192.347 E.03225
;WIDTH:0.529308
G1 X162.861 Y192.323 E.01777
;WIDTH:0.577823
G1 X162.374 Y192.298 E.01954
;WIDTH:0.611882
G1 X162.09 Y192.281 E.01209
;WIDTH:0.645941
G1 X161.807 Y192.264 E.01282
;WIDTH:0.679999
G1 X161.523 Y192.247 E.01354
G1 X154.722 Y192.247 E.32427
G1 X152.014 Y189.54 E.18256
G1 X152.014 Y182.372 E.34171
G1 X151.994 Y182.126 E.01176
;WIDTH:0.638891
G1 X151.973 Y181.881 E.011
;WIDTH:0.597782
G1 X151.952 Y181.635 E.01024
;WIDTH:0.556673
G1 X151.932 Y181.389 E.00948
;WIDTH:0.515564
G1 X151.916 Y180.901 E.01726
;WIDTH:0.484606
G1 X151.901 Y180.414 E.01613
;WIDTH:0.453647
G1 X151.888 Y179.439 E.02996
;WIDTH:0.44008
G1 X151.894 Y178.47 E.0288
;WIDTH:0.488616
G1 X151.918 Y177.491 E.03266
;WIDTH:0.537975
G1 X151.943 Y177.002 E.01815
;WIDTH:0.587333
G1 X151.968 Y176.512 E.01996
;WIDTH:0.633666
G1 X151.991 Y176.087 E.01881
;WIDTH:0.679999
G1 X152.014 Y175.662 E.02029
G1 X152.014 Y168.983 E.31845
G1 X154.722 Y166.276 E.18256
G1 X162.019 Y166.276 E.34789
;WIDTH:0.723212
G1 X162.145 Y166.297 E.00652
;WIDTH:0.766424
G1 X162.271 Y166.319 E.00693
;WIDTH:0.809637
G1 X162.397 Y166.34 E.00735
;WIDTH:0.852849
G1 X162.523 Y166.362 E.00776
;WIDTH:0.896061
G1 X162.65 Y166.384 E.00817
;WIDTH:0.939274
G1 X162.776 Y166.405 E.00859
;WIDTH:0.982486
G1 X162.902 Y166.427 E.009
G1 X162.863 Y166.445 E.00302
;WIDTH:0.961339
G1 X162.711 Y166.5 E.01113
;WIDTH:0.914449
G1 X162.558 Y166.555 E.01057
;WIDTH:0.867559
G1 X162.406 Y166.61 E.01
;WIDTH:0.820669
G1 X162.254 Y166.666 E.00943
;WIDTH:0.773779
G1 X162.101 Y166.721 E.00886
;WIDTH:0.726889
G1 X161.949 Y166.776 E.00829
;WIDTH:0.679999
G2 X156.085 Y170.003 I3.18 J12.72 E.32269
G1 X155.239 Y170.909 E.05909
G2 X154.802 Y171.446 I9.686 J8.328 E.03303
G1 X154.294 Y172.155 E.04159
G1 E-.4 F4200
G1 X157.688 Y169.626 F48000
G1 X158.057 Y169.357
G1 X158.435 Y169.102
G1 X158.823 Y168.862
G1 X159.214 Y168.639
G1 X159.621 Y168.428
G1 X160.035 Y168.232
G1 X160.447 Y168.056
G1 X160.873 Y167.892
G1 X161.305 Y167.744
G1 X161.742 Y167.613
G1 X162.184 Y167.498
G1 X167.249 Y166.44
G1 E.4 F4200
;WIDTH:1.0088
G1 F7200
G1 X167.316 Y166.422 E.00499
;WIDTH:0.972167
G1 X167.382 Y166.403 E.0048
;WIDTH:0.935537
G1 X167.524 Y166.382 E.00957
;WIDTH:0.892948
G1 X167.665 Y166.361 E.00911
;WIDTH:0.850358
G1 X167.807 Y166.339 E.00866
;WIDTH:0.807768
G1 X167.949 Y166.318 E.0082
;WIDTH:0.765179
G1 X168.09 Y166.297 E.00774
;WIDTH:0.722589
G1 X168.232 Y166.276 E.00729
;WIDTH:0.679999
G1 X175.278 Y166.276 E.33593
G1 X177.986 Y168.983 E.18256
G1 X177.986 Y169.738 E.03598
G1 X177.986 Y175.905 E.29403
;WIDTH:0.729998
G1 X177.961 Y176.046 E.00738
;WIDTH:0.779997
G1 X177.936 Y176.188 E.00792
;WIDTH:0.829995
G1 X177.911 Y176.329 E.00845
;WIDTH:0.879994
G1 X177.886 Y176.47 E.00899
;WIDTH:0.929993
G1 X177.861 Y176.612 E.00953
;WIDTH:0.979992
G1 X177.836 Y176.753 E.01006
;WIDTH:1.02999
G1 X177.811 Y176.894 E.0106
G1 X177.779 Y176.833 E.00507
;WIDTH:0.990894
G1 X177.748 Y176.772 E.00487
;WIDTH:0.951798
G1 X177.689 Y176.619 E.01117
;WIDTH:0.906499
G1 X177.629 Y176.466 E.01062
;WIDTH:0.861199
G1 X177.57 Y176.313 E.01006
;WIDTH:0.815899
G1 X177.511 Y176.159 E.0095
;WIDTH:0.770599
G1 X177.452 Y176.006 E.00895
;WIDTH:0.725299
G1 X177.393 Y175.853 E.00839
;WIDTH:0.679999
G2 X168.174 Y166.807 I-12.393 J3.409 E.64515
;WIDTH:0.72697
G1 X168.042 Y166.754 E.00728
;WIDTH:0.773941
G1 X167.91 Y166.702 E.00778
;WIDTH:0.820912
G1 X167.778 Y166.649 E.00828
;WIDTH:0.867883
G1 X167.646 Y166.597 E.00878
;WIDTH:0.914854
G1 X167.513 Y166.545 E.00928
;WIDTH:0.961825
G1 X167.381 Y166.492 E.00978
;WIDTH:1.0088
G1 X167.26 Y166.444 E.00941
G1 E-.4 F4200
G1 X178.623 Y168.719 F48000
G1 E.4 F4200
;WIDTH:0.679999
G1 F7200
G1 X178.623 Y169.738 E.04856
G1 X178.623 Y189.804 E.95665
G1 X175.542 Y192.884 E.20772
G1 X154.458 Y192.884 E1.00521
G1 X151.377 Y189.804 E.20772
G1 X151.377 Y168.719 E1.00521
G1 X154.458 Y165.638 E.20772
G1 X175.542 Y165.638 E1.00521
G1 X178.614 Y168.711 E.20715
G1 X179.26 Y168.503 F48000
;TYPE:Outer wall
G1 F7200
G1 X179.26 Y169.738 E.05886
G1 X179.26 Y190.067 E.96923
G1 X175.806 Y193.521 E.23288
G1 X154.194 Y193.521 E1.03038
G1 X150.74 Y190.067 E.23288
G1 X150.74 Y168.455 E1.03038
G1 X154.194 Y165.001 E.23288
G1 X175.806 Y165.001 E1.03038
G1 X179.26 Y168.455 E.23288
G1 X179.26 Y168.491 E.00172
G1 X179.175 Y168.588
G1 E-.4 F4200
G1 X178.744 Y168.669 F48000
G1 X167.598 Y167.449
G1 X167.143 Y167.4
G1 X166.689 Y167.361
G1 X166.236 Y167.331
G1 X165.793 Y167.311
G1 X165.341 Y167.3
G1 X164.881 Y167.297
G1 X164.438 Y167.304
G1 X163.994 Y167.32
G1 X163.533 Y167.345
G1 X163.08 Y167.38
G1 X162.634 Y167.423
G1 X162.184 Y167.498
G1 X161.742 Y167.613
G1 X161.305 Y167.744
G1 X160.873 Y167.892
G1 X160.447 Y168.056
G1 X160.035 Y168.232
G1 X159.621 Y168.428
G1 X159.214 Y168.639
G1 X158.823 Y168.862
G1 X158.435 Y169.102
G1 X158.057 Y169.357
G1 X157.688 Y169.626
G1 X157.33 Y169.909
G1 X156.987 Y170.201
G1 X156.651 Y170.509
G1 X156.327 Y170.831
G1 X156.015 Y171.164
G1 X154.807 Y172.531
G1 E.4 F4200
;TYPE:Inner wall
G1 F7200
G1 X155.325 Y171.821 E.04192
G3 X157.958 Y169.279 I9.795 J7.513 E.1751
G1 X158.017 Y169.238 E.00344
G3 X164.029 Y167.085 I6.979 J10.018 E.30801
G1 X165.294 Y167.05 E.06037
G3 X157.037 Y188.52 I-.298 J12.209 E2.22823
G3 X152.885 Y177.691 I8.014 J-9.283 E.57595
G3 X154.792 Y172.572 I12.235 J1.643 E.26263
G1 X154.803 Y172.542 E.00149
G1 X155.361 Y172.848 F48000
;TYPE:Outer wall
G1 F7200
G1 X155.843 Y172.191 E.03884
G3 X158.343 Y169.787 I9.293 J7.16 E.16597
G1 X158.363 Y169.773 E.00115
G3 X164.046 Y167.722 I6.636 J9.486 E.29145
G1 X165.312 Y167.686 E.06037
G3 X167.069 Y190.654 I-.321 J11.576 E1.61952
G3 X153.665 Y176.896 I-2.063 J-11.4 E1.0797
G3 X155.337 Y172.902 I11.472 J2.455 E.20761
G1 X155.356 Y172.859 E.00226
G1 X155.31 Y172.739
G1 E-.4 F4200
G1 X154.928 Y172.565 F48000
G1 X155.161 Y172.225
G1 X155.434 Y171.859
G1 X155.72 Y171.504
G1 X156.015 Y171.164
G1 X156.327 Y170.831
G1 X156.651 Y170.509
G1 X156.987 Y170.201
G1 X157.33 Y169.909
G1 X157.688 Y169.626
G1 X158.057 Y169.357
G1 X158.435 Y169.102
G1 X158.823 Y168.862
G1 X162.902 Y166.427
G1 E.4 F4200
;TYPE:Inner wall
;WIDTH:0.982486
G1 F7200
G1 X163.218 Y166.407 E.02227
;WIDTH:0.9431
G1 X163.534 Y166.387 E.02133
;WIDTH:0.903713
G1 X163.85 Y166.368 E.0204
;WIDTH:0.864326
G1 X164.008 Y166.362 E.00974
;WIDTH:0.852454
G1 X165.275 Y166.344 E.07671
;WIDTH:0.846399
G1 X165.773 Y166.359 E.02999
;WIDTH:0.875602
G1 X166.272 Y166.373 E.03108
;WIDTH:0.92
G1 X166.598 Y166.396 E.02143
;WIDTH:0.964398
G1 X166.923 Y166.418 E.02251
;WIDTH:1.0088
G1 X167.249 Y166.44 E.0236
G1 E-.4 F4200
G1 X178.744 Y168.669 F48000
G1 X177.811 Y176.894
G1 E.4 F4200
;WIDTH:1.02999
G1 F7200
G1 X177.832 Y177.174 E.02073
;WIDTH:0.987804
G1 X177.853 Y177.454 E.01984
;WIDTH:0.945617
G1 X177.874 Y177.734 E.01896
;WIDTH:0.90343
G1 X177.894 Y178.226 E.03171
;WIDTH:0.864045
G1 X177.914 Y178.718 E.03026
;WIDTH:0.82466
G1 X177.916 Y179.682 E.05643
;WIDTH:0.854679
G1 X177.899 Y180.173 E.02982
;WIDTH:0.889346
G1 X177.881 Y180.663 E.03109
;WIDTH:0.936392
G1 X177.858 Y180.986 E.02162
;WIDTH:0.983438
G1 X177.834 Y181.308 E.02276
;WIDTH:1.03048
G1 X177.811 Y181.631 E.0239
;WIDTH:1.03712
G1 X177.807 Y181.672 E.00305
G1 E-.4 F4200
G1 X177.795 Y185.097 F48000
G1 E.4 F4200
;TYPE:Bottom surface
;WIDTH:0.699308
G1 F7200
G1 X177.236 Y184.539 E.03881
G3 X176.941 Y185.172 I-4.676 J-1.791 E.03435
G1 X177.508 Y185.739 E.03937
G1 X177.508 Y186.667 E.0456
G1 X176.619 Y185.778 E.06175
G1 X176.278 Y186.365 E.03335
G1 X177.508 Y187.595 E.08545
G1 X177.508 Y188.524 E.0456
G1 X175.9 Y186.915 E.11172
G3 X175.509 Y187.453 I-3.52 J-2.152 E.03267
G1 X177.453 Y189.397 E.13506
G1 X176.989 Y189.861 E.03224
G1 X175.092 Y187.965 E.13174
G3 X174.649 Y188.449 I-3.633 J-2.882 E.0323
G1 X176.525 Y190.325 E.13033
G1 X176.061 Y190.789 E.03224
G1 X174.185 Y188.914 E.13029
G1 X173.702 Y189.358 E.03227
G1 X175.596 Y191.253 E.13163
G1 X175.132 Y191.717 E.03224
G1 X173.187 Y189.772 E.13514
G3 X172.652 Y190.165 I-2.821 J-3.28 E.03265
G1 X174.256 Y191.769 E.11144
G1 X173.328 Y191.769 E.0456
G1 X172.097 Y190.539 E.0855
G3 X171.514 Y190.884 I-2.585 J-3.696 E.03331
