; HEADER_BLOCK_START
; generated by OrcaSlicer 1.6.3 on 2023-11-03 at 12:31:12
; total layer number: 0
; HEADER_BLOCK_END

; THUMBNAIL_BLOCK_START
; THUMBNAIL_BLOCK_END

; external perimeters extrusion width = 0.62mm
; perimeters extrusion width = 0.62mm
; infill extrusion width = 0.65mm
; solid infill extrusion width = 0.65mm
; top infill extrusion width = 0.65mm
; first layer extrusion width = 0.68mm

; EXECUTABLE_BLOCK_START
EXCLUDE_OBJECT_DEFINE NAME=pressure_advance_test.stl_id_0_copy_0 CENTER=170,160 POLYGON=[[136.014,165.014],[136.036,154.686],[136.059,154.32],[136.125,153.969],[136.269,153.645],[136.464,153.337],[136.709,153.133],[136.973,152.978],[137.271,152.9],[137.587,152.867],[170.21,152.939],[191.381,152.985],[201.244,153.007],[201.761,153.024],[202.271,153.077],[202.768,153.199],[203.256,153.368],[203.554,153.561],[203.683,153.67],[203.79,153.794],[203.868,153.937],[203.921,154.097],[203.986,154.443],[203.165,162.23],[203.139,162.449],[203.08,162.655],[200.942,166.21],[200.83,166.367],[200.698,166.513],[200.478,166.681],[200.243,166.814],[199.983,166.886],[199.709,166.92],[152.457,167.133],[137.914,166.868],[137.525,166.848],[137.152,166.782],[136.806,166.634],[136.479,166.427],[136.259,166.111],[136.1,165.773],[136.032,165.402],[136.014,165.014]]
M73 P0 R2
;TYPE:Custom
M104 S0
M140 S0
START_PRINT BED=75 HOTEND=240
G90
G21
M83 ; use relative distances for extrusion
; filament start gcode
M204 S5000
G1 Z.2 F48000
G1 E-.4 F4200
G1 X113 Y238.5 F48000
G1 E.4 F4200
G1 F1200
G1 X113 Y88 E8.91687
SET_PRESSURE_ADVANCE ADVANCE=0; Override pressure advance value
M73 P4 R2
G1 E-.4 F4200
G1 X115 Y77.5 F48000
G1 E.4 F4200
G1 F1200
G1 X135 Y77.5 E.92643
M73 P5 R2
G1 F12000
G1 X175 Y77.5 E1.85286
G1 F1200
G1 X195 Y77.5 E.92643
SET_PRESSURE_ADVANCE ADVANCE=0.002; Override pressure advance value
M73 P6 R2
G1 E-.4 F4200
G1 X115 Y81 F48000
G1 E.4 F4200
G1 F1200
G1 X135 Y81 E.92643
G1 F12000
G1 X175 Y81 E1.85286
M73 P7 R2
G1 F1200
G1 X195 Y81 E.92643
SET_PRESSURE_ADVANCE ADVANCE=0.004; Override pressure advance value
G1 E-.4 F4200
G1 X115 Y84.5 F48000
G1 E.4 F4200
G1 F1200
G1 X135 Y84.5 E.92643
M73 P8 R2
G1 F12000
G1 X175 Y84.5 E1.85286
G1 F1200
G1 X195 Y84.5 E.92643
SET_PRESSURE_ADVANCE ADVANCE=0.006; Override pressure advance value
M73 P9 R2
G1 E-.4 F4200
G1 X115 Y88 F48000
G1 E.4 F4200
G1 F1200
G1 X135 Y88 E.92643
G1 F12000
G1 X175 Y88 E1.85286
M73 P10 R2
G1 F1200
G1 X195 Y88 E.92643
SET_PRESSURE_ADVANCE ADVANCE=0.008; Override pressure advance value
G1 E-.4 F4200
G1 X115 Y91.5 F48000
G1 E.4 F4200
G1 F1200
G1 X135 Y91.5 E.92643
M73 P11 R2
G1 F12000
G1 X175 Y91.5 E1.85286
G1 F1200
G1 X195 Y91.5 E.92643
SET_PRESSURE_ADVANCE ADVANCE=0.01; Override pressure advance value
M73 P12 R2
G1 E-.4 F4200
G1 X115 Y95 F48000
G1 E.4 F4200
G1 F1200
G1 X135 Y95 E.92643
M73 P13 R2
G1 F12000
G1 X175 Y95 E1.85286
G1 F1200
G1 X195 Y95 E.92643
SET_PRESSURE_ADVANCE ADVANCE=0.012; Override pressure advance value
G1 E-.4 F4200
G1 X115 Y98.5 F48000
G1 E.4 F4200
G1 F1200
G1 X135 Y98.5 E.92643
M73 P14 R2
G1 F12000
G1 X175 Y98.5 E1.85286
G1 F1200
G1 X195 Y98.5 E.92643
SET_PRESSURE_ADVANCE ADVANCE=0.014; Override pressure advance value
M73 P15 R2
G1 E-.4 F4200
G1 X115 Y102 F48000
G1 E.4 F4200
G1 F1200
G1 X135 Y102 E.92643
M73 P16 R2
G1 F12000
G1 X175 Y102 E1.85286
G1 F1200
G1 X195 Y102 E.92643
SET_PRESSURE_ADVANCE ADVANCE=0.016; Override pressure advance value
G1 E-.4 F4200
G1 X115 Y105.5 F48000
G1 E.4 F4200
G1 F1200
G1 X135 Y105.5 E.92643
M73 P17 R2
G1 F12000
G1 X175 Y105.5 E1.85286
G1 F1200
G1 X195 Y105.5 E.92643
SET_PRESSURE_ADVANCE ADVANCE=0.018; Override pressure advance value
M73 P18 R2
G1 E-.4 F4200
G1 X115 Y109 F48000
G1 E.4 F4200
G1 F1200
G1 X135 Y109 E.92643
M73 P19 R2
G1 F12000
G1 X175 Y109 E1.85286
G1 F1200
G1 X195 Y109 E.92643
SET_PRESSURE_ADVANCE ADVANCE=0.02; Override pressure advance value
G1 E-.4 F4200
G1 X115 Y112.5 F48000
G1 E.4 F4200
G1 F1200
G1 X135 Y112.5 E.92643
M73 P20 R2
G1 F12000
G1 X175 Y112.5 E1.85286
G1 F1200
G1 X195 Y112.5 E.92643
SET_PRESSURE_ADVANCE ADVANCE=0.022; Override pressure advance value
M73 P21 R2
G1 E-.4 F4200
G1 X115 Y116 F48000
G1 E.4 F4200
G1 F1200
G1 X135 Y116 E.92643
M73 P22 R2
G1 F12000
G1 X175 Y116 E1.85286
G1 F1200
G1 X195 Y116 E.92643
SET_PRESSURE_ADVANCE ADVANCE=0.024; Override pressure advance value
G1 E-.4 F4200
G1 X115 Y119.5 F48000
G1 E.4 F4200
G1 F1200
G1 X135 Y119.5 E.92643
M73 P23 R2
G1 F12000
G1 X175 Y119.5 E1.85286
G1 F1200
G1 X195 Y119.5 E.92643
SET_PRESSURE_ADVANCE ADVANCE=0.026; Override pressure advance value
M73 P24 R2
G1 E-.4 F4200
G1 X115 Y123 F48000
G1 E.4 F4200
G1 F1200
G1 X135 Y123 E.92643
M73 P25 R2
G1 F12000
G1 X175 Y123 E1.85286
G1 F1200
G1 X195 Y123 E.92643
SET_PRESSURE_ADVANCE ADVANCE=0.028; Override pressure advance value
G1 E-.4 F4200
G1 X115 Y126.5 F48000
G1 E.4 F4200
G1 F1200
G1 X135 Y126.5 E.92643
M73 P26 R2
G1 F12000
G1 X175 Y126.5 E1.85286
G1 F1200
G1 X195 Y126.5 E.92643
SET_PRESSURE_ADVANCE ADVANCE=0.03; Override pressure advance value
M73 P27 R2
G1 E-.4 F4200
G1 X115 Y130 F48000
G1 E.4 F4200
G1 F1200
G1 X135 Y130 E.92643
M73 P28 R2
G1 F12000
G1 X175 Y130 E1.85286
G1 F1200
G1 X195 Y130 E.92643
SET_PRESSURE_ADVANCE ADVANCE=0.032; Override pressure advance value
M73 P28 R1
G1 E-.4 F4200
G1 X115 Y133.5 F48000
G1 E.4 F4200
G1 F1200
G1 X135 Y133.5 E.92643
M73 P29 R1
G1 F12000
G1 X175 Y133.5 E1.85286
G1 F1200
G1 X195 Y133.5 E.92643
SET_PRESSURE_ADVANCE ADVANCE=0.034; Override pressure advance value
M73 P30 R1
G1 E-.4 F4200
G1 X115 Y137 F48000
G1 E.4 F4200
G1 F1200
G1 X135 Y137 E.92643
M73 P31 R1
G1 F12000
G1 X175 Y137 E1.85286
G1 F1200
G1 X195 Y137 E.92643
SET_PRESSURE_ADVANCE ADVANCE=0.036; Override pressure advance value
G1 E-.4 F4200
G1 X115 Y140.5 F48000
G1 E.4 F4200
G1 F1200
G1 X135 Y140.5 E.92643
M73 P32 R1
G1 F12000
G1 X175 Y140.5 E1.85286
G1 F1200
G1 X195 Y140.5 E.92643
SET_PRESSURE_ADVANCE ADVANCE=0.038; Override pressure advance value
M73 P33 R1
G1 E-.4 F4200
G1 X115 Y144 F48000
G1 E.4 F4200
G1 F1200
G1 X135 Y144 E.92643
M73 P34 R1
G1 F12000
G1 X175 Y144 E1.85286
G1 F1200
G1 X195 Y144 E.92643
SET_PRESSURE_ADVANCE ADVANCE=0.04; Override pressure advance value
G1 E-.4 F4200
G1 X115 Y147.5 F48000
G1 E.4 F4200
G1 F1200
G1 X135 Y147.5 E.92643
M73 P35 R1
G1 F12000
G1 X175 Y147.5 E1.85286
G1 F1200
G1 X195 Y147.5 E.92643
SET_PRESSURE_ADVANCE ADVANCE=0.042; Override pressure advance value
M73 P36 R1
G1 E-.4 F4200
G1 X115 Y151 F48000
G1 E.4 F4200
G1 F1200
G1 X135 Y151 E.92643
M73 P37 R1
G1 F12000
G1 X175 Y151 E1.85286
G1 F1200
G1 X195 Y151 E.92643
SET_PRESSURE_ADVANCE ADVANCE=0.044; Override pressure advance value
G1 E-.4 F4200
G1 X115 Y154.5 F48000
G1 E.4 F4200
M73 P38 R1
G1 F1200
G1 X135 Y154.5 E.92643
G1 F12000
G1 X175 Y154.5 E1.85286
G1 F1200
G1 X195 Y154.5 E.92643
SET_PRESSURE_ADVANCE ADVANCE=0.046; Override pressure advance value
M73 P39 R1
G1 E-.4 F4200
G1 X115 Y158 F48000
G1 E.4 F4200
G1 F1200
G1 X135 Y158 E.92643
M73 P40 R1
G1 F12000
G1 X175 Y158 E1.85286
G1 F1200
G1 X195 Y158 E.92643
SET_PRESSURE_ADVANCE ADVANCE=0.048; Override pressure advance value
G1 E-.4 F4200
G1 X115 Y161.5 F48000
M73 P41 R1
G1 E.4 F4200
G1 F1200
G1 X135 Y161.5 E.92643
G1 F12000
G1 X175 Y161.5 E1.85286
G1 F1200
G1 X195 Y161.5 E.92643
SET_PRESSURE_ADVANCE ADVANCE=0.05; Override pressure advance value
M73 P42 R1
G1 E-.4 F4200
G1 X115 Y165 F48000
G1 E.4 F4200
G1 F1200
G1 X135 Y165 E.92643
M73 P43 R1
G1 F12000
G1 X175 Y165 E1.85286
G1 F1200
G1 X195 Y165 E.92643
SET_PRESSURE_ADVANCE ADVANCE=0.052; Override pressure advance value
G1 E-.4 F4200
G1 X115 Y168.5 F48000
M73 P44 R1
G1 E.4 F4200
G1 F1200
G1 X135 Y168.5 E.92643
G1 F12000
G1 X175 Y168.5 E1.85286
G1 F1200
G1 X195 Y168.5 E.92643
SET_PRESSURE_ADVANCE ADVANCE=0.054; Override pressure advance value
M73 P45 R1
G1 E-.4 F4200
G1 X115 Y172 F48000
G1 E.4 F4200
G1 F1200
G1 X135 Y172 E.92643
M73 P46 R1
G1 F12000
G1 X175 Y172 E1.85286
G1 F1200
G1 X195 Y172 E.92643
SET_PRESSURE_ADVANCE ADVANCE=0.056; Override pressure advance value
G1 E-.4 F4200
G1 X115 Y175.5 F48000
M73 P47 R1
G1 E.4 F4200
G1 F1200
G1 X135 Y175.5 E.92643
G1 F12000
G1 X175 Y175.5 E1.85286
G1 F1200
G1 X195 Y175.5 E.92643
SET_PRESSURE_ADVANCE ADVANCE=0.058; Override pressure advance value
M73 P48 R1
G1 E-.4 F4200
G1 X115 Y179 F48000
G1 E.4 F4200
G1 F1200
G1 X135 Y179 E.92643
M73 P49 R1
G1 F12000
G1 X175 Y179 E1.85286
G1 F1200
G1 X195 Y179 E.92643
SET_PRESSURE_ADVANCE ADVANCE=0.06; Override pressure advance value
G1 E-.4 F4200
G1 X115 Y182.5 F48000
M73 P50 R1
G1 E.4 F4200
G1 F1200
G1 X135 Y182.5 E.92643
G1 F12000
G1 X175 Y182.5 E1.85286
G1 F1200
G1 X195 Y182.5 E.92643
SET_PRESSURE_ADVANCE ADVANCE=0.062; Override pressure advance value
M73 P51 R1
G1 E-.4 F4200
G1 X115 Y186 F48000
G1 E.4 F4200
G1 F1200
G1 X135 Y186 E.92643
M73 P52 R1
G1 F12000
G1 X175 Y186 E1.85286
G1 F1200
G1 X195 Y186 E.92643
SET_PRESSURE_ADVANCE ADVANCE=0.064; Override pressure advance value
G1 E-.4 F4200
G1 X115 Y189.5 F48000
M73 P53 R1
G1 E.4 F4200
G1 F1200
G1 X135 Y189.5 E.92643
G1 F12000
G1 X175 Y189.5 E1.85286
G1 F1200
G1 X195 Y189.5 E.92643
SET_PRESSURE_ADVANCE ADVANCE=0.066; Override pressure advance value
M73 P54 R1
G1 E-.4 F4200
G1 X115 Y193 F48000
G1 E.4 F4200
G1 F1200
G1 X135 Y193 E.92643
M73 P55 R1
G1 F12000
G1 X175 Y193 E1.85286
G1 F1200
G1 X195 Y193 E.92643
SET_PRESSURE_ADVANCE ADVANCE=0.068; Override pressure advance value
G1 E-.4 F4200
G1 X115 Y196.5 F48000
M73 P56 R1
G1 E.4 F4200
G1 F1200
G1 X135 Y196.5 E.92643
G1 F12000
G1 X175 Y196.5 E1.85286
G1 F1200
G1 X195 Y196.5 E.92643
SET_PRESSURE_ADVANCE ADVANCE=0.07; Override pressure advance value
M73 P57 R1
G1 E-.4 F4200
G1 X115 Y200 F48000
G1 E.4 F4200
G1 F1200
G1 X135 Y200 E.92643
M73 P58 R1
G1 F12000
G1 X175 Y200 E1.85286
G1 F1200
G1 X195 Y200 E.92643
SET_PRESSURE_ADVANCE ADVANCE=0.072; Override pressure advance value
G1 E-.4 F4200
G1 X115 Y203.5 F48000
M73 P59 R1
G1 E.4 F4200
G1 F1200
G1 X135 Y203.5 E.92643
G1 F12000
G1 X175 Y203.5 E1.85286
G1 F1200
G1 X195 Y203.5 E.92643
SET_PRESSURE_ADVANCE ADVANCE=0.074; Override pressure advance value
M73 P60 R1
G1 E-.4 F4200
G1 X115 Y207 F48000
G1 E.4 F4200
G1 F1200
G1 X135 Y207 E.92643
M73 P61 R1
G1 F12000
G1 X175 Y207 E1.85286
G1 F1200
G1 X195 Y207 E.92643
SET_PRESSURE_ADVANCE ADVANCE=0.076; Override pressure advance value
G1 E-.4 F4200
G1 X115 Y210.5 F48000
M73 P62 R1
G1 E.4 F4200
G1 F1200
G1 X135 Y210.5 E.92643
G1 F12000
G1 X175 Y210.5 E1.85286
G1 F1200
G1 X195 Y210.5 E.92643
SET_PRESSURE_ADVANCE ADVANCE=0.078; Override pressure advance value
M73 P63 R1
G1 E-.4 F4200
G1 X115 Y214 F48000
G1 E.4 F4200
G1 F1200
G1 X135 Y214 E.92643
M73 P64 R1
G1 F12000
G1 X175 Y214 E1.85286
G1 F1200
G1 X195 Y214 E.92643
SET_PRESSURE_ADVANCE ADVANCE=0.08; Override pressure advance value
M73 P64 R0
G1 E-.4 F4200
G1 X115 Y217.5 F48000
M73 P65 R0
G1 E.4 F4200
G1 F1200
G1 X135 Y217.5 E.92643
G1 F12000
G1 X175 Y217.5 E1.85286
G1 F1200
G1 X195 Y217.5 E.92643
SET_PRESSURE_ADVANCE ADVANCE=0.082; Override pressure advance value
M73 P66 R0
G1 E-.4 F4200
G1 X115 Y221 F48000
G1 E.4 F4200
G1 F1200
G1 X135 Y221 E.92643
M73 P67 R0
G1 F12000
G1 X175 Y221 E1.85286
G1 F1200
G1 X195 Y221 E.92643
SET_PRESSURE_ADVANCE ADVANCE=0.084; Override pressure advance value
G1 E-.4 F4200
G1 X115 Y224.5 F48000
M73 P68 R0
G1 E.4 F4200
G1 F1200
G1 X135 Y224.5 E.92643
G1 F12000
G1 X175 Y224.5 E1.85286
G1 F1200
G1 X195 Y224.5 E.92643
SET_PRESSURE_ADVANCE ADVANCE=0.086; Override pressure advance value
M73 P69 R0
G1 E-.4 F4200
G1 X115 Y228 F48000
G1 E.4 F4200
G1 F1200
G1 X135 Y228 E.92643
M73 P70 R0
G1 F12000
G1 X175 Y228 E1.85286
G1 F1200
G1 X195 Y228 E.92643
SET_PRESSURE_ADVANCE ADVANCE=0.088; Override pressure advance value
G1 E-.4 F4200
G1 X115 Y231.5 F48000
M73 P71 R0
G1 E.4 F4200
G1 F1200
G1 X135 Y231.5 E.92643
G1 F12000
G1 X175 Y231.5 E1.85286
G1 F1200
G1 X195 Y231.5 E.92643
SET_PRESSURE_ADVANCE ADVANCE=0.09; Override pressure advance value
M73 P72 R0
G1 E-.4 F4200
G1 X115 Y235 F48000
G1 E.4 F4200
G1 F1200
G1 X135 Y235 E.92643
M73 P73 R0
G1 F12000
G1 X175 Y235 E1.85286
G1 F1200
G1 X195 Y235 E.92643
SET_PRESSURE_ADVANCE ADVANCE=0.092; Override pressure advance value
G1 E-.4 F4200
G1 X115 Y238.5 F48000
M73 P74 R0
G1 E.4 F4200
G1 F1200
G1 X135 Y238.5 E.92643
G1 F12000
G1 X175 Y238.5 E1.85286
G1 F1200
G1 X195 Y238.5 E.92643
SET_PRESSURE_ADVANCE ADVANCE=0.094; Override pressure advance value
M73 P75 R0
G1 E-.4 F4200
G1 X115 Y242 F48000
G1 E.4 F4200
G1 F1200
G1 X135 Y242 E.92643
M73 P76 R0
G1 F12000
G1 X175 Y242 E1.85286
G1 F1200
G1 X195 Y242 E.92643
SET_PRESSURE_ADVANCE ADVANCE=0.096; Override pressure advance value
G1 E-.4 F4200
G1 X115 Y245.5 F48000
M73 P77 R0
G1 E.4 F4200
G1 F1200
G1 X135 Y245.5 E.92643
G1 F12000
G1 X175 Y245.5 E1.85286
G1 F1200
G1 X195 Y245.5 E.92643
SET_PRESSURE_ADVANCE ADVANCE=0.098; Override pressure advance value
M73 P78 R0
G1 E-.4 F4200
G1 X115 Y249 F48000
G1 E.4 F4200
G1 F1200
G1 X135 Y249 E.92643
M73 P79 R0
G1 F12000
G1 X175 Y249 E1.85286
G1 F1200
G1 X195 Y249 E.92643
SET_PRESSURE_ADVANCE ADVANCE=0; Override pressure advance value
G1 F12000
G1 E-.4 F4200
M73 P80 R0
G1 X135 Y251 F48000
G1 E.4 F4200
G1 X135 Y256 E.23112
G1 E-.4 F4200
G1 X175 Y256 F48000
G1 E.4 F4200
G1 X175 Y251 E.23112
G1 F3600
G1 E-.4 F4200
G1 X198 Y79.25 F48000
G1 E.4 F4200
G1 X200 Y79.25 E.07269
G1 X200 Y75.25 E.14537
G1 X198 Y75.25 E.07269
G1 X198 Y79.01 E.14537
G1 F3600
G1 E-.4 F4200
G1 X198 Y86.25 F48000
G1 E.4 F4200
G1 X200 Y86.25 E.07269
G1 X200 Y82.25 E.14537
G1 X198 Y82.25 E.07269
G1 X198 Y86.01 E.14537
G1 E-.4 F4200
G1 X202 Y82.25 F48000
G1 E.4 F4200
G1 X202 Y83.25 E.07269
M73 P81 R0
G1 E-.4 F4200
G1 X204 Y86.25 F48000
G1 E.4 F4200
G1 X206 Y86.25 E.07269
G1 X206 Y82.25 E.14537
G1 X204 Y82.25 E.07269
G1 X204 Y86.01 E.14537
G1 E-.4 F4200
G1 X207 Y86.25 F48000
G1 E.4 F4200
G1 X209 Y86.25 E.07269
G1 X209 Y82.25 E.14537
G1 X207 Y82.25 E.07269
G1 X207 Y86.01 E.14537
G1 E-.4 F4200
G1 X210 Y86.25 F48000
G1 E.4 F4200
G1 X210 Y84.25 E.07269
G1 X212 Y84.25 E.07269
G1 E-.4 F4200
G1 X212 Y86.25 F48000
G1 E.4 F4200
G1 X212 Y82.25 E.14537
G1 F3600
G1 E-.4 F4200
G1 X198 Y93.25 F48000
G1 E.4 F4200
G1 X200 Y93.25 E.07269
G1 X200 Y89.25 E.14537
G1 X198 Y89.25 E.07269
G1 X198 Y93.01 E.14537
G1 E-.4 F4200
G1 X202 Y89.25 F48000
G1 E.4 F4200
G1 X202 Y90.25 E.07269
G1 E-.4 F4200
G1 X204 Y93.25 F48000
G1 E.4 F4200
G1 X206 Y93.25 E.07269
G1 X206 Y89.25 E.14537
G1 X204 Y89.25 E.07269
G1 X204 Y93.01 E.14537
M73 P82 R0
G1 E-.4 F4200
G1 X207 Y93.25 F48000
G1 E.4 F4200
G1 X209 Y93.25 E.07269
G1 X209 Y89.25 E.14537
G1 X207 Y89.25 E.07269
G1 X207 Y93.01 E.14537
G1 E-.4 F4200
G1 X212 Y91.25 F48000
G1 E.4 F4200
G1 X210 Y91.25 E.07269
G1 X210 Y89.25 E.07269
G1 X212 Y89.25 E.07269
G1 X212 Y93.25 E.14537
G1 X210 Y93.25 E.07269
G1 X210 Y91.25 E.07269
G1 F3600
G1 E-.4 F4200
G1 X198 Y100.25 F48000
G1 E.4 F4200
G1 X200 Y100.25 E.07269
G1 X200 Y96.25 E.14537
G1 X198 Y96.25 E.07269
G1 X198 Y100.01 E.14537
G1 E-.4 F4200
G1 X202 Y96.25 F48000
G1 E.4 F4200
G1 X202 Y97.25 E.07269
G1 E-.4 F4200
G1 X204 Y100.25 F48000
G1 E.4 F4200
G1 X206 Y100.25 E.07269
G1 X206 Y96.25 E.14537
G1 X204 Y96.25 E.07269
G1 X204 Y100.01 E.14537
G1 E-.4 F4200
G1 X208 Y100.25 F48000
G1 E.4 F4200
G1 X208 Y96.25 E.14537
G1 E-.4 F4200
G1 X210 Y100.25 F48000
M73 P83 R0
G1 E.4 F4200
G1 X212 Y100.25 E.07269
G1 X212 Y98.25 E.07269
G1 X210 Y98.25 E.07269
G1 X210 Y96.25 E.07269
G1 X212 Y96.25 E.07269
G1 F3600
G1 E-.4 F4200
G1 X198 Y107.25 F48000
G1 E.4 F4200
G1 X200 Y107.25 E.07269
G1 X200 Y103.25 E.14537
G1 X198 Y103.25 E.07269
G1 X198 Y107.01 E.14537
G1 E-.4 F4200
G1 X202 Y103.25 F48000
G1 E.4 F4200
G1 X202 Y104.25 E.07269
G1 E-.4 F4200
G1 X204 Y107.25 F48000
G1 E.4 F4200
G1 X206 Y107.25 E.07269
G1 X206 Y103.25 E.14537
G1 X204 Y103.25 E.07269
G1 X204 Y107.01 E.14537
G1 E-.4 F4200
G1 X208 Y107.25 F48000
G1 E.4 F4200
G1 X208 Y103.25 E.14537
G1 E-.4 F4200
G1 X212 Y107.25 F48000
G1 E.4 F4200
G1 X210 Y107.25 E.07269
G1 X210 Y103.25 E.14537
G1 X212 Y103.25 E.07269
G1 X212 Y105.25 E.07269
G1 X210 Y105.25 E.07269
G1 F3600
G1 E-.4 F4200
G1 X198 Y114.25 F48000
G1 E.4 F4200
G1 X200 Y114.25 E.07269
M73 P84 R0
