; HEADER_BLOCK_START
; generated by OrcaSlicer 1.8.1 on 2024-01-11 at 16:17:46
; total layer number: 0
; HEADER_BLOCK_END

; THUMBNAIL_BLOCK_START

;
; THUMBNAIL_BLOCK_END

; external perimeters extrusion width = 0.52mm
; perimeters extrusion width = 0.52mm
; infill extrusion width = 0.55mm
; solid infill extrusion width = 0.55mm
; top infill extrusion width = 0.55mm
; first layer extrusion width = 0.58mm

; EXECUTABLE_BLOCK_START
EXCLUDE_OBJECT_DEFINE NAME=Orca-PA-Calibration-Test CENTER=0,0 POLYGON=[[5,5],[325,5],[325,325],[5,325],[5,5]]
M73 P0 R6
;TYPE:Custom
M190 S75
M109 S220
START_PRINT HOTEND=220 BED=75
G90
G21
M83 ; use relative distances for extrusion
; filament start gcode
SET_PRESSURE_ADVANCE ADVANCE=0.032; Override pressure advance value
SET_VELOCITY_LIMIT ACCEL=500 ACCEL_TO_DECEL=250
G1 Z.2 F48000
G1 E-.5 F1800
G1 X115 Y252.5 F48000
G1 E.5 F4800
G1 F1500
G1 X115 Y77.5 E9.72749
SET_PRESSURE_ADVANCE ADVANCE=0; Override pressure advance value
M73 P2 R6
G1 E-.5 F1800
G1 X115 Y77.5 F48000
G1 E.5 F4800
G1 F1500
G1 X135 Y77.5 E.92643
G1 F15000
G1 X175 Y77.5 E1.85285
G1 F1500
G1 X195 Y77.5 E.92643
SET_PRESSURE_ADVANCE ADVANCE=0.004; Override pressure advance value
G1 E-.5 F1800
G1 X115 Y81 F48000
G1 E.5 F4800
G1 F1500
G1 X135 Y81 E.92643
M73 P3 R6
G1 F15000
G1 X175 Y81 E1.85285
G1 F1500
G1 X195 Y81 E.92643
SET_PRESSURE_ADVANCE ADVANCE=0.008; Override pressure advance value
G1 E-.5 F1800
G1 X115 Y84.5 F48000
G1 E.5 F4800
G1 F1500
G1 X135 Y84.5 E.92643
G1 F15000
G1 X175 Y84.5 E1.85285
M73 P4 R6
G1 F1500
G1 X195 Y84.5 E.92643
SET_PRESSURE_ADVANCE ADVANCE=0.012; Override pressure advance value
G1 E-.5 F1800
G1 X115 Y88 F48000
G1 E.5 F4800
G1 F1500
G1 X135 Y88 E.92643
G1 F15000
G1 X175 Y88 E1.85285
G1 F1500
G1 X195 Y88 E.92643
SET_PRESSURE_ADVANCE ADVANCE=0.016; Override pressure advance value
M73 P5 R6
G1 E-.5 F1800
G1 X115 Y91.5 F48000
G1 E.5 F4800
G1 F1500
G1 X135 Y91.5 E.92643
G1 F15000
G1 X175 Y91.5 E1.85285
G1 F1500
G1 X195 Y91.5 E.92643
SET_PRESSURE_ADVANCE ADVANCE=0.02; Override pressure advance value
G1 E-.5 F1800
G1 X115 Y95 F48000
G1 E.5 F4800
G1 F1500
G1 X135 Y95 E.92643
M73 P6 R6
G1 F15000
G1 X175 Y95 E1.85285
G1 F1500
G1 X195 Y95 E.92643
SET_PRESSURE_ADVANCE ADVANCE=0.024; Override pressure advance value
G1 E-.5 F1800
G1 X115 Y98.5 F48000
G1 E.5 F4800
G1 F1500
G1 X135 Y98.5 E.92643
G1 F15000
G1 X175 Y98.5 E1.85285
M73 P7 R6
G1 F1500
G1 X195 Y98.5 E.92643
SET_PRESSURE_ADVANCE ADVANCE=0.028; Override pressure advance value
G1 E-.5 F1800
G1 X115 Y102 F48000
G1 E.5 F4800
G1 F1500
G1 X135 Y102 E.92643
G1 F15000
G1 X175 Y102 E1.85285
G1 F1500
G1 X195 Y102 E.92643
SET_PRESSURE_ADVANCE ADVANCE=0.032; Override pressure advance value
M73 P8 R6
G1 E-.5 F1800
G1 X115 Y105.5 F48000
G1 E.5 F4800
G1 F1500
G1 X135 Y105.5 E.92643
G1 F15000
G1 X175 Y105.5 E1.85285
G1 F1500
G1 X195 Y105.5 E.92643
SET_PRESSURE_ADVANCE ADVANCE=0.036; Override pressure advance value
G1 E-.5 F1800
G1 X115 Y109 F48000
M73 P9 R6
G1 E.5 F4800
G1 F1500
G1 X135 Y109 E.92643
G1 F15000
G1 X175 Y109 E1.85285
G1 F1500
G1 X195 Y109 E.92643
SET_PRESSURE_ADVANCE ADVANCE=0.04; Override pressure advance value
G1 E-.5 F1800
G1 X115 Y112.5 F48000
G1 E.5 F4800
G1 F1500
G1 X135 Y112.5 E.92643
M73 P10 R6
G1 F15000
G1 X175 Y112.5 E1.85285
G1 F1500
G1 X195 Y112.5 E.92643
SET_PRESSURE_ADVANCE ADVANCE=0.044; Override pressure advance value
G1 E-.5 F1800
G1 X115 Y116 F48000
G1 E.5 F4800
G1 F1500
G1 X135 Y116 E.92643
G1 F15000
G1 X175 Y116 E1.85285
G1 F1500
G1 X195 Y116 E.92643
SET_PRESSURE_ADVANCE ADVANCE=0.048; Override pressure advance value
M73 P11 R5
G1 E-.5 F1800
G1 X115 Y119.5 F48000
G1 E.5 F4800
G1 F1500
G1 X135 Y119.5 E.92643
G1 F15000
G1 X175 Y119.5 E1.85285
G1 F1500
G1 X195 Y119.5 E.92643
SET_PRESSURE_ADVANCE ADVANCE=0.052; Override pressure advance value
G1 E-.5 F1800
G1 X115 Y123 F48000
M73 P12 R5
G1 E.5 F4800
G1 F1500
G1 X135 Y123 E.92643
G1 F15000
G1 X175 Y123 E1.85285
G1 F1500
G1 X195 Y123 E.92643
SET_PRESSURE_ADVANCE ADVANCE=0.056; Override pressure advance value
G1 E-.5 F1800
G1 X115 Y126.5 F48000
G1 E.5 F4800
G1 F1500
G1 X135 Y126.5 E.92643
M73 P13 R5
G1 F15000
G1 X175 Y126.5 E1.85285
G1 F1500
G1 X195 Y126.5 E.92643
SET_PRESSURE_ADVANCE ADVANCE=0.06; Override pressure advance value
G1 E-.5 F1800
G1 X115 Y130 F48000
G1 E.5 F4800
G1 F1500
G1 X135 Y130 E.92643
G1 F15000
G1 X175 Y130 E1.85285
G1 F1500
G1 X195 Y130 E.92643
SET_PRESSURE_ADVANCE ADVANCE=0.064; Override pressure advance value
M73 P14 R5
G1 E-.5 F1800
G1 X115 Y133.5 F48000
G1 E.5 F4800
G1 F1500
G1 X135 Y133.5 E.92643
G1 F15000
G1 X175 Y133.5 E1.85285
G1 F1500
G1 X195 Y133.5 E.92643
SET_PRESSURE_ADVANCE ADVANCE=0.068; Override pressure advance value
G1 E-.5 F1800
G1 X115 Y137 F48000
M73 P15 R5
G1 E.5 F4800
G1 F1500
G1 X135 Y137 E.92643
G1 F15000
G1 X175 Y137 E1.85285
G1 F1500
G1 X195 Y137 E.92643
SET_PRESSURE_ADVANCE ADVANCE=0.072; Override pressure advance value
G1 E-.5 F1800
G1 X115 Y140.5 F48000
G1 E.5 F4800
G1 F1500
G1 X135 Y140.5 E.92643
M73 P16 R5
G1 F15000
G1 X175 Y140.5 E1.85285
G1 F1500
G1 X195 Y140.5 E.92643
SET_PRESSURE_ADVANCE ADVANCE=0.076; Override pressure advance value
G1 E-.5 F1800
G1 X115 Y144 F48000
G1 E.5 F4800
G1 F1500
G1 X135 Y144 E.92643
G1 F15000
G1 X175 Y144 E1.85285
M73 P17 R5
G1 F1500
G1 X195 Y144 E.92643
SET_PRESSURE_ADVANCE ADVANCE=0.08; Override pressure advance value
G1 E-.5 F1800
G1 X115 Y147.5 F48000
G1 E.5 F4800
G1 F1500
G1 X135 Y147.5 E.92643
G1 F15000
G1 X175 Y147.5 E1.85285
G1 F1500
G1 X195 Y147.5 E.92643
SET_PRESSURE_ADVANCE ADVANCE=0.084; Override pressure advance value
M73 P18 R5
G1 E-.5 F1800
G1 X115 Y151 F48000
G1 E.5 F4800
G1 F1500
G1 X135 Y151 E.92643
G1 F15000
G1 X175 Y151 E1.85285
G1 F1500
G1 X195 Y151 E.92643
SET_PRESSURE_ADVANCE ADVANCE=0.088; Override pressure advance value
G1 E-.5 F1800
G1 X115 Y154.5 F48000
M73 P19 R5
G1 E.5 F4800
G1 F1500
G1 X135 Y154.5 E.92643
G1 F15000
G1 X175 Y154.5 E1.85285
G1 F1500
G1 X195 Y154.5 E.92643
SET_PRESSURE_ADVANCE ADVANCE=0.092; Override pressure advance value
G1 E-.5 F1800
G1 X115 Y158 F48000
G1 E.5 F4800
G1 F1500
G1 X135 Y158 E.92643
G1 F15000
G1 X175 Y158 E1.85285
M73 P20 R5
G1 F1500
G1 X195 Y158 E.92643
SET_PRESSURE_ADVANCE ADVANCE=0.096; Override pressure advance value
G1 E-.5 F1800
G1 X115 Y161.5 F48000
G1 E.5 F4800
G1 F1500
G1 X135 Y161.5 E.92643
G1 F15000
G1 X175 Y161.5 E1.85285
G1 F1500
G1 X195 Y161.5 E.92643
SET_PRESSURE_ADVANCE ADVANCE=0.1; Override pressure advance value
M73 P21 R5
G1 E-.5 F1800
G1 X115 Y165 F48000
G1 E.5 F4800
G1 F1500
G1 X135 Y165 E.92643
G1 F15000
G1 X175 Y165 E1.85285
G1 F1500
G1 X195 Y165 E.92643
SET_PRESSURE_ADVANCE ADVANCE=0.104; Override pressure advance value
G1 E-.5 F1800
G1 X115 Y168.5 F48000
M73 P22 R5
G1 E.5 F4800
G1 F1500
G1 X135 Y168.5 E.92643
G1 F15000
G1 X175 Y168.5 E1.85285
G1 F1500
G1 X195 Y168.5 E.92643
SET_PRESSURE_ADVANCE ADVANCE=0.108; Override pressure advance value
G1 E-.5 F1800
G1 X115 Y172 F48000
G1 E.5 F4800
G1 F1500
G1 X135 Y172 E.92643
M73 P23 R5
G1 F15000
G1 X175 Y172 E1.85285
G1 F1500
G1 X195 Y172 E.92643
SET_PRESSURE_ADVANCE ADVANCE=0.112; Override pressure advance value
G1 E-.5 F1800
G1 X115 Y175.5 F48000
G1 E.5 F4800
G1 F1500
G1 X135 Y175.5 E.92643
G1 F15000
G1 X175 Y175.5 E1.85285
G1 F1500
G1 X195 Y175.5 E.92643
SET_PRESSURE_ADVANCE ADVANCE=0.116; Override pressure advance value
M73 P24 R5
G1 E-.5 F1800
G1 X115 Y179 F48000
G1 E.5 F4800
G1 F1500
G1 X135 Y179 E.92643
G1 F15000
G1 X175 Y179 E1.85285
G1 F1500
G1 X195 Y179 E.92643
SET_PRESSURE_ADVANCE ADVANCE=0.12; Override pressure advance value
G1 E-.5 F1800
G1 X115 Y182.5 F48000
M73 P25 R5
G1 E.5 F4800
G1 F1500
G1 X135 Y182.5 E.92643
G1 F15000
G1 X175 Y182.5 E1.85285
G1 F1500
G1 X195 Y182.5 E.92643
SET_PRESSURE_ADVANCE ADVANCE=0.124; Override pressure advance value
G1 E-.5 F1800
G1 X115 Y186 F48000
M73 P25 R4
G1 E.5 F4800
G1 F1500
G1 X135 Y186 E.92643
M73 P26 R4
G1 F15000
G1 X175 Y186 E1.85285
G1 F1500
G1 X195 Y186 E.92643
SET_PRESSURE_ADVANCE ADVANCE=0.128; Override pressure advance value
G1 E-.5 F1800
G1 X115 Y189.5 F48000
G1 E.5 F4800
G1 F1500
G1 X135 Y189.5 E.92643
G1 F15000
G1 X175 Y189.5 E1.85285
M73 P27 R4
G1 F1500
G1 X195 Y189.5 E.92643
SET_PRESSURE_ADVANCE ADVANCE=0.132; Override pressure advance value
G1 E-.5 F1800
G1 X115 Y193 F48000
G1 E.5 F4800
G1 F1500
G1 X135 Y193 E.92643
G1 F15000
G1 X175 Y193 E1.85285
G1 F1500
G1 X195 Y193 E.92643
SET_PRESSURE_ADVANCE ADVANCE=0.136; Override pressure advance value
M73 P28 R4
G1 E-.5 F1800
G1 X115 Y196.5 F48000
G1 E.5 F4800
G1 F1500
G1 X135 Y196.5 E.92643
G1 F15000
G1 X175 Y196.5 E1.85285
G1 F1500
G1 X195 Y196.5 E.92643
SET_PRESSURE_ADVANCE ADVANCE=0.14; Override pressure advance value
G1 E-.5 F1800
G1 X115 Y200 F48000
G1 E.5 F4800
G1 F1500
G1 X135 Y200 E.92643
M73 P29 R4
G1 F15000
G1 X175 Y200 E1.85285
G1 F1500
G1 X195 Y200 E.92643
SET_PRESSURE_ADVANCE ADVANCE=0.144; Override pressure advance value
G1 E-.5 F1800
G1 X115 Y203.5 F48000
G1 E.5 F4800
G1 F1500
G1 X135 Y203.5 E.92643
G1 F15000
G1 X175 Y203.5 E1.85285
M73 P30 R4
G1 F1500
G1 X195 Y203.5 E.92643
SET_PRESSURE_ADVANCE ADVANCE=0.148; Override pressure advance value
G1 E-.5 F1800
G1 X115 Y207 F48000
G1 E.5 F4800
G1 F1500
G1 X135 Y207 E.92643
G1 F15000
G1 X175 Y207 E1.85285
G1 F1500
G1 X195 Y207 E.92643
SET_PRESSURE_ADVANCE ADVANCE=0.152; Override pressure advance value
M73 P31 R4
G1 E-.5 F1800
G1 X115 Y210.5 F48000
G1 E.5 F4800
G1 F1500
G1 X135 Y210.5 E.92643
G1 F15000
G1 X175 Y210.5 E1.85285
G1 F1500
G1 X195 Y210.5 E.92643
SET_PRESSURE_ADVANCE ADVANCE=0.156; Override pressure advance value
G1 E-.5 F1800
G1 X115 Y214 F48000
M73 P32 R4
G1 E.5 F4800
G1 F1500
G1 X135 Y214 E.92643
G1 F15000
G1 X175 Y214 E1.85285
G1 F1500
G1 X195 Y214 E.92643
SET_PRESSURE_ADVANCE ADVANCE=0.16; Override pressure advance value
G1 E-.5 F1800
G1 X115 Y217.5 F48000
G1 E.5 F4800
G1 F1500
G1 X135 Y217.5 E.92643
M73 P33 R4
G1 F15000
G1 X175 Y217.5 E1.85285
G1 F1500
G1 X195 Y217.5 E.92643
SET_PRESSURE_ADVANCE ADVANCE=0.164; Override pressure advance value
G1 E-.5 F1800
G1 X115 Y221 F48000
G1 E.5 F4800
G1 F1500
G1 X135 Y221 E.92643
G1 F15000
G1 X175 Y221 E1.85285
G1 F1500
G1 X195 Y221 E.92643
SET_PRESSURE_ADVANCE ADVANCE=0.168; Override pressure advance value
M73 P34 R4
G1 E-.5 F1800
G1 X115 Y224.5 F48000
G1 E.5 F4800
G1 F1500
G1 X135 Y224.5 E.92643
G1 F15000
G1 X175 Y224.5 E1.85285
G1 F1500
G1 X195 Y224.5 E.92643
SET_PRESSURE_ADVANCE ADVANCE=0.172; Override pressure advance value
G1 E-.5 F1800
G1 X115 Y228 F48000
M73 P35 R4
G1 E.5 F4800
G1 F1500
G1 X135 Y228 E.92643
G1 F15000
G1 X175 Y228 E1.85285
G1 F1500
G1 X195 Y228 E.92643
SET_PRESSURE_ADVANCE ADVANCE=0.176; Override pressure advance value
G1 E-.5 F1800
G1 X115 Y231.5 F48000
G1 E.5 F4800
G1 F1500
G1 X135 Y231.5 E.92643
M73 P36 R4
G1 F15000
G1 X175 Y231.5 E1.85285
G1 F1500
G1 X195 Y231.5 E.92643
SET_PRESSURE_ADVANCE ADVANCE=0.18; Override pressure advance value
G1 E-.5 F1800
G1 X115 Y235 F48000
G1 E.5 F4800
G1 F1500
G1 X135 Y235 E.92643
G1 F15000
G1 X175 Y235 E1.85285
M73 P37 R4
G1 F1500
G1 X195 Y235 E.92643
SET_PRESSURE_ADVANCE ADVANCE=0.184; Override pressure advance value
G1 E-.5 F1800
G1 X115 Y238.5 F48000
G1 E.5 F4800
G1 F1500
G1 X135 Y238.5 E.92643
G1 F15000
G1 X175 Y238.5 E1.85285
G1 F1500
G1 X195 Y238.5 E.92643
SET_PRESSURE_ADVANCE ADVANCE=0.188; Override pressure advance value
G1 E-.5 F1800
G1 X115 Y242 F48000
M73 P38 R4
G1 E.5 F4800
G1 F1500
G1 X135 Y242 E.92643
G1 F15000
G1 X175 Y242 E1.85285
G1 F1500
G1 X195 Y242 E.92643
SET_PRESSURE_ADVANCE ADVANCE=0.192; Override pressure advance value
G1 E-.5 F1800
G1 X115 Y245.5 F48000
G1 E.5 F4800
G1 F1500
G1 X135 Y245.5 E.92643
M73 P39 R4
G1 F15000
G1 X175 Y245.5 E1.85285
G1 F1500
G1 X195 Y245.5 E.92643
SET_PRESSURE_ADVANCE ADVANCE=0.196; Override pressure advance value
G1 E-.5 F1800
G1 X115 Y249 F48000
G1 E.5 F4800
G1 F1500
G1 X135 Y249 E.92643
G1 F15000
G1 X175 Y249 E1.85285
M73 P40 R4
G1 F1500
G1 X195 Y249 E.92643
SET_PRESSURE_ADVANCE ADVANCE=0; Override pressure advance value
G1 E-.5 F1800
G1 X195 Y74 F48000
G1 E.5 F4800
G1 F15000
G1 X195 Y249 E8.10624
M73 P40 R3
G1 F15000
G1 X219 Y249 E1.11171
G1 F15000
G1 X219 Y74 E8.10624
M73 P41 R3
G1 F15000
G1 X195 Y74 E1.11171
G1 E-.5 F1800
G1 X195.557 Y74.557 F48000
G1 E.5 F4800
G1 F15000
G1 X195.557 Y248.443 E8.05463
G1 F15000
G1 X218.443 Y248.443 E1.0601
G1 F15000
G1 X218.443 Y74.557 E8.05463
M73 P42 R3
G1 F15000
G1 X195.557 Y74.557 E1.0601
G1 E-.5 F1800
G1 X195.957 Y74.957 F48000
G1 E.5 F4800
G1 E-.5 F1800
G1 X196.745 Y74.957 F48000
G1 E.5 F4800
G1 F15000
G1 X195.957 Y75.745 E.05161
G1 E-.5 F1800
G1 X195.957 Y76.533 F48000
G1 E.5 F4800
G1 F15000
G1 X197.533 Y74.957 E.10322
G1 E-.5 F1800
G1 X198.321 Y74.957 F48000
G1 E.5 F4800
G1 F15000
G1 X195.957 Y77.321 E.15483
G1 E-.5 F1800
G1 X195.957 Y78.108 F48000
G1 E.5 F4800
G1 F15000
G1 X199.108 Y74.957 E.20644
G1 E-.5 F1800
G1 X199.896 Y74.957 F48000
G1 E.5 F4800
G1 F15000
G1 X195.957 Y78.896 E.25805
G1 E-.5 F1800
G1 X195.957 Y79.684 F48000
G1 E.5 F4800
G1 F15000
G1 X200.684 Y74.957 E.30966
G1 E-.5 F1800
G1 X201.472 Y74.957 F48000
G1 E.5 F4800
G1 F15000
G1 X195.957 Y80.472 E.36127
G1 E-.5 F1800
G1 X195.957 Y81.26 F48000
G1 E.5 F4800
G1 F15000
G1 X202.26 Y74.957 E.41287
G1 E-.5 F1800
G1 X203.048 Y74.957 F48000
G1 E.5 F4800
G1 F15000
G1 X195.957 Y82.048 E.46448
G1 E-.5 F1800
G1 X195.957 Y82.835 F48000
G1 E.5 F4800
G1 F15000
G1 X203.835 Y74.957 E.51609
M73 P43 R3
G1 E-.5 F1800
G1 X204.623 Y74.957 F48000
G1 E.5 F4800
G1 F15000
G1 X195.957 Y83.623 E.5677
G1 E-.5 F1800
G1 X195.957 Y84.411 F48000
G1 E.5 F4800
G1 F15000
G1 X205.411 Y74.957 E.61931
G1 E-.5 F1800
G1 X206.199 Y74.957 F48000
G1 E.5 F4800
G1 F15000
G1 X195.957 Y85.199 E.67092
G1 E-.5 F1800
G1 X195.957 Y85.987 F48000
G1 E.5 F4800
G1 F15000
G1 X206.987 Y74.957 E.72253
G1 E-.5 F1800
G1 X207.775 Y74.957 F48000
G1 E.5 F4800
G1 F15000
G1 X195.957 Y86.775 E.77414
G1 E-.5 F1800
G1 X195.957 Y87.562 F48000
G1 E.5 F4800
G1 F15000
G1 X208.562 Y74.957 E.82575
G1 E-.5 F1800
G1 X209.35 Y74.957 F48000
G1 E.5 F4800
G1 F15000
G1 X195.957 Y88.35 E.87736
G1 E-.5 F1800
G1 X195.957 Y89.138 F48000
G1 E.5 F4800
G1 F15000
G1 X210.138 Y74.957 E.92897
M73 P44 R3
G1 E-.5 F1800
G1 X210.926 Y74.957 F48000
G1 E.5 F4800
G1 F15000
G1 X195.957 Y89.926 E.98058
G1 E-.5 F1800
G1 X195.957 Y90.714 F48000
G1 E.5 F4800
G1 F15000
G1 X211.714 Y74.957 E1.03219
G1 E-.5 F1800
G1 X212.502 Y74.957 F48000
G1 E.5 F4800
G1 F15000
G1 X195.957 Y91.502 E1.0838
G1 E-.5 F1800
G1 X195.957 Y92.289 F48000
G1 E.5 F4800
G1 F15000
G1 X213.289 Y74.957 E1.13541
G1 E-.5 F1800
G1 X214.077 Y74.957 F48000
G1 E.5 F4800
G1 F15000
G1 X195.957 Y93.077 E1.18702
G1 E-.5 F1800
G1 X195.957 Y93.865 F48000
G1 E.5 F4800
G1 F15000
G1 X214.865 Y74.957 E1.23862
G1 E-.5 F1800
G1 X215.653 Y74.957 F48000
G1 E.5 F4800
G1 F15000
G1 X195.957 Y94.653 E1.29023
G1 E-.5 F1800
G1 X195.957 Y95.441 F48000
G1 E.5 F4800
G1 F15000
G1 X216.441 Y74.957 E1.34184
M73 P45 R3
G1 E-.5 F1800
G1 X217.228 Y74.957 F48000
G1 E.5 F4800
G1 F15000
G1 X195.957 Y96.228 E1.39345
G1 E-.5 F1800
G1 X195.957 Y97.016 F48000
G1 E.5 F4800
G1 F15000
G1 X218.016 Y74.957 E1.44506
G1 E-.5 F1800
G1 X218.043 Y75.718 F48000
G1 E.5 F4800
G1 F15000
G1 X195.957 Y97.804 E1.44681
G1 E-.5 F1800
G1 X195.957 Y98.592 F48000
G1 E.5 F4800
G1 F15000
G1 X218.043 Y76.506 E1.44681
G1 E-.5 F1800
G1 X218.043 Y77.294 F48000
G1 E.5 F4800
G1 F15000
G1 X195.957 Y99.38 E1.44681
G1 E-.5 F1800
G1 X195.957 Y100.168 F48000
G1 E.5 F4800
G1 F15000
G1 X218.043 Y78.082 E1.44681
M73 P46 R3
G1 E-.5 F1800
G1 X218.043 Y78.87 F48000
G1 E.5 F4800
G1 F15000
G1 X195.957 Y100.955 E1.44681
G1 E-.5 F1800
G1 X195.957 Y101.743 F48000
G1 E.5 F4800
G1 F15000
G1 X218.043 Y79.657 E1.44681
G1 E-.5 F1800
G1 X218.043 Y80.445 F48000
G1 E.5 F4800
G1 F15000
G1 X195.957 Y102.531 E1.44681
G1 E-.5 F1800
G1 X195.957 Y103.319 F48000
G1 E.5 F4800
G1 F15000
G1 X218.043 Y81.233 E1.44681
G1 E-.5 F1800
G1 X218.043 Y82.021 F48000
G1 E.5 F4800
G1 F15000
G1 X195.957 Y104.107 E1.44681
G1 E-.5 F1800
G1 X195.957 Y104.895 F48000
G1 E.5 F4800
G1 F15000
G1 X218.043 Y82.809 E1.44681
G1 E-.5 F1800
G1 X218.043 Y83.597 F48000
G1 E.5 F4800
G1 F15000
