; HEADER_BLOCK_START
; generated by OrcaSlicer 1.6.3 on 2023-11-21 at 14:03:53
; total layer number: 36
; HEADER_BLOCK_END

; THUMBNAIL_BLOCK_START
; THUMBNAIL_BLOCK_END

; external perimeters extrusion width = 0.62mm
; perimeters extrusion width = 0.62mm
; infill extrusion width = 0.65mm
; solid infill extrusion width = 0.65mm
; top infill extrusion width = 0.65mm
; first layer extrusion width = 0.68mm

; EXECUTABLE_BLOCK_START
EXCLUDE_OBJECT_DEFINE NAME=Rail.stl_id_0_copy_0 CENTER=165,165 POLYGON=[[49.2513,57.9669],[59.0539,48.2555],[60.5033,48.8661],[280.152,270.578],[280.749,272.033],[270.946,281.744],[269.497,281.134],[49.8483,59.422],[49.2513,57.9669]]
M73 P0 R13
;TYPE:Custom
M104 S0
M140 S0
START_PRINT BED=75 HOTEND=210
G90
G21
M83 ; use relative distances for extrusion
; filament start gcode
SET_PRESSURE_ADVANCE ADVANCE=0.032; Override pressure advance value
M106 S0
;LAYER_CHANGE
;Z:0.28
;HEIGHT:0.28
;BEFORE_LAYER_CHANGE
;0.28
G92 E0

;DSLR_SNAPSHOT
TIMELAPSE_TAKE_FRAME
M204 S10000
G1 E-.4 F4200
G1 X52.318 Y52.81 F36000
G1 Z.28
G1 E.4 F4200
;TYPE:Skirt
;WIDTH:0.68
G1 F7200
G1 X58.094 Y47.088 E.52804
G1 X59.35 Y46.396 E.09313
G1 X60.782 Y46.469 E.09313
G1 X61.799 Y47.105 E.07793
G1 X281.925 Y269.299 E20.31377
G1 X282.617 Y270.555 E.09313
G1 X282.544 Y271.987 E.09313
G1 X281.908 Y273.004 E.07793
G1 X271.906 Y282.912 E.91437
G1 X270.65 Y283.604 E.09313
G1 X269.218 Y283.531 E.09313
G1 X268.201 Y282.895 E.07793
G1 X48.075 Y60.701 E20.31377
G1 X47.383 Y59.445 E.09313
G1 X47.456 Y58.013 E.09313
G1 X48.092 Y56.996 E.07793
G1 X52.254 Y52.873 E.38049
; printing object Rail.stl id:0 copy 0
EXCLUDE_OBJECT_START NAME=Rail.stl_id_0_copy_0
G1 E-.4 F4200
G1 X59.927 Y51.324 F36000
G1 E.4 F4200
;TYPE:Inner wall
;WIDTH:0.68
G1 F7200
G1 X277.688 Y271.132 E20.09555
M73 P1 R13
G1 X270.073 Y278.676 E.69617
G1 X52.312 Y58.868 E20.09555
G1 X59.918 Y51.333 E.69539
G1 X59.931 Y50.448 F36000
G1 F7200
G1 X278.565 Y271.136 E20.17607
G1 X270.069 Y279.552 E.7767
G1 X51.435 Y58.864 E20.17607
M73 P2 R13
G1 X59.922 Y50.456 E.77592
G1 X59.935 Y49.571 F36000
;TYPE:Outer wall
G1 F7200
G1 X279.441 Y271.14 E20.2566
G1 X270.065 Y280.429 E.85722
G1 X50.559 Y58.86 E20.2566
G1 X59.926 Y49.58 E.85644
G1 X60.018 Y49.657
G1 E-.4 F4200
G1 X102.205 Y94.264 F36000
G1 E.4 F4200
;TYPE:Bottom surface
;WIDTH:0.683986
G1 F7200
G1 X59.923 Y51.982 E3.90852
G1 X59.48 Y52.421 E.04078
G1 X153.932 Y146.874 E8.73122
G1 X247.851 Y241.675 E8.72277
M73 P3 R13
G1 X59.037 Y52.861 E17.45408
G1 X58.594 Y53.3 E.04078
G1 X276.725 Y271.431 E20.1642
G1 X276.282 Y271.87 E.04078
G1 X58.15 Y53.739 E20.1642
G1 X57.707 Y54.178 E.04078
G1 X275.839 Y272.309 E20.1642
M73 P4 R13
G1 X275.395 Y272.749 E.04078
G1 X57.264 Y54.617 E20.1642
G1 X56.821 Y55.056 E.04078
G1 X274.952 Y273.188 E20.1642
G1 X274.509 Y273.627 E.04078
G1 X56.377 Y55.495 E20.1642
M73 P5 R13
G1 X55.934 Y55.934 E.04078
G1 X274.066 Y274.066 E20.1642
G1 X273.623 Y274.505 E.04078
G1 X55.491 Y56.373 E20.1642
M73 P5 R12
G1 X55.048 Y56.812 E.04078
G1 X273.179 Y274.944 E20.16421
M73 P6 R12
G1 X272.736 Y275.383 E.04078
G1 X54.604 Y57.252 E20.1642
G1 X54.161 Y57.691 E.04078
G1 X272.293 Y275.822 E20.1642
G1 X271.85 Y276.261 E.04078
G1 X53.718 Y58.13 E20.1642
M73 P7 R12
G1 X53.275 Y58.569 E.04078
G1 X271.406 Y276.7 E20.1642
G1 X270.963 Y277.14 E.04078
G1 X82.164 Y88.34 E17.45274
G1 X176.082 Y183.141 E8.72277
G1 X270.52 Y277.579 E8.72987
G1 X270.077 Y278.018 E.04078
G1 X227.81 Y235.751 E3.90717
; stop printing object Rail.stl id:0 copy 0
EXCLUDE_OBJECT_END NAME=Rail.stl_id_0_copy_0
M106 S224
;LAYER_CHANGE
;Z:0.56
;HEIGHT:0.28
;BEFORE_LAYER_CHANGE
;0.56
G92 E0

;DSLR_SNAPSHOT
TIMELAPSE_TAKE_FRAME
M204 S15000
M140 S75 ; set bed temperature
; printing object Rail.stl id:0 copy 0
EXCLUDE_OBJECT_START NAME=Rail.stl_id_0_copy_0
M204 S16000
M73 P8 R12
G1 E-.4 F4200
G1 X59.65 Y50.292 Z.56 F36000
G1 E.4 F4200
M204 S15000
;TYPE:Inner wall
;WIDTH:0.62
G1 F16073.983
G1 X278.718 Y271.418 E18.25944
G1 X270.35 Y279.708 E.69098
G1 X51.282 Y58.582 E18.25944
G1 X59.641 Y50.3 E.69028
M204 S16000
G1 X59.653 Y49.5 F36000
M204 S15000
G1 F16073.983
G1 X59.693 Y49.54 E.00332
G1 X60.173 Y50.025 E.04003
G1 X278.99 Y270.897 E18.23849
G1 X279.47 Y271.382 E.04003
G1 X279.51 Y271.422 E.00332
G1 X278.985 Y271.942 E.04335
G1 X270.871 Y279.98 E.66999
G1 X270.347 Y280.5 E.04331
G1 X270.307 Y280.46 E.00332
G1 X269.827 Y279.975 E.04003
G1 X51.01 Y59.103 E18.23849
G1 X50.53 Y58.618 E.04003
G1 X50.49 Y58.578 E.00332
G1 X51.015 Y58.058 E.04335
G1 X59.12 Y50.028 E.66929
G1 X59.645 Y49.508 E.04335
M204 S16000
G1 X59.916 Y48.97 F36000
M204 S10000
;TYPE:Outer wall
G1 F7200.012
G1 F8711.005
G1 X60.571 Y49.631 E.05459
G1 F7200
G1 X279.381 Y270.51 E18.23849
M73 P9 R12
G1 X280.036 Y271.17 E.05455
G1 F5473.853
G1 X280.099 Y271.265 E.00669
G1 F5280.001
G1 X280.104 Y271.278 E.00082
G1 F3000
G1 X280.155 Y271.402 E.00787
G1 X280.176 Y271.454 E.00329
M204 S5000
;TYPE:Overhang wall
G1 X280.204 Y271.522 E.00431
G1 X279.282 Y272.436 E.07616
G1 X271.363 Y280.281 E.6539
G1 X270.441 Y281.195 E.07616
G1 X270.372 Y281.166 E.00439
M204 S10000
;TYPE:Outer wall
G1 X270.32 Y281.144 E.00331
G1 F5280.007
G1 X270.197 Y281.092 E.00783
G1 F7200
G1 X270.084 Y281.03 E.00756
G1 X270.084 Y281.03
G1 F8709.752
G1 X269.429 Y280.369 E.05459
G1 F7199.996
G1 X50.612 Y59.497 E18.23849
G1 X49.958 Y58.836 E.05455
G1 F5280.001
G1 X49.896 Y58.722 E.00761
G1 F3000
G1 X49.845 Y58.598 E.00787
G1 X49.824 Y58.546 E.00329
M204 S5000
;TYPE:Overhang wall
G1 X49.796 Y58.478 E.00431
G1 X50.718 Y57.564 E.07616
G1 X58.637 Y49.719 E.6539
G1 X59.559 Y48.805 E.07616
G1 X59.628 Y48.834 E.00439
M204 S10000
;TYPE:Outer wall
G1 X59.68 Y48.856 E.00331
G1 F5279.996
G1 X59.803 Y48.908 E.00783
G1 F7024.238
G1 X59.909 Y48.961 E.00695
M204 S15000
M204 S16000
G1 E-.4 F4200
G1 X277.876 Y270.809 F36000
G1 E.4 F4200
M204 S15000
;TYPE:Internal solid infill
;WIDTH:0.650295
G1 F15248.912
G1 X269.975 Y278.711 E.69099
G1 X269.559 Y278.292 E.0365
G1 X277.273 Y270.578 E.67458
G1 X276.858 Y270.158 E.0365
G1 X269.144 Y277.872 E.67458
G1 X268.728 Y277.453 E.0365
G1 X276.442 Y269.739 E.67458
G1 X276.027 Y269.32 E.0365
G1 X268.313 Y277.034 E.67458
G1 X267.898 Y276.614 E.0365
G1 X275.612 Y268.9 E.67458
G1 X275.196 Y268.481 E.0365
G1 X267.482 Y276.195 E.67458
G1 X267.067 Y275.776 E.0365
G1 X274.781 Y268.062 E.67458
G1 X274.365 Y267.643 E.0365
G1 X266.651 Y275.357 E.67458
G1 X266.236 Y274.937 E.0365
G1 X273.95 Y267.223 E.67458
G1 X273.535 Y266.804 E.0365
G1 X265.821 Y274.518 E.67458
G1 X265.405 Y274.099 E.0365
G1 X273.119 Y266.385 E.67458
G1 X272.704 Y265.965 E.0365
G1 X264.99 Y273.679 E.67458
G1 X264.574 Y273.26 E.0365
G1 X272.288 Y265.546 E.67458
G1 X271.873 Y265.127 E.0365
G1 X264.159 Y272.841 E.67458
G1 X263.744 Y272.422 E.0365
G1 X271.458 Y264.708 E.67458
G1 X271.042 Y264.288 E.0365
G1 X263.328 Y272.002 E.67458
G1 X262.913 Y271.583 E.0365
G1 X270.627 Y263.869 E.67458
G1 X270.212 Y263.45 E.0365
G1 X262.498 Y271.164 E.67458
G1 X262.082 Y270.744 E.0365
G1 X269.796 Y263.03 E.67458
G1 X269.381 Y262.611 E.0365
G1 X261.667 Y270.325 E.67458
G1 X261.251 Y269.906 E.0365
G1 X268.965 Y262.192 E.67458
G1 X268.55 Y261.773 E.0365
G1 X260.836 Y269.487 E.67458
G1 X260.421 Y269.067 E.0365
G1 X268.135 Y261.353 E.67458
G1 X267.719 Y260.934 E.0365
G1 X260.005 Y268.648 E.67458
G1 X259.59 Y268.229 E.0365
G1 X267.304 Y260.515 E.67458
G1 X266.888 Y260.095 E.0365
G1 X259.174 Y267.809 E.67458
G1 X258.759 Y267.39 E.0365
G1 X266.473 Y259.676 E.67458
G1 X266.058 Y259.257 E.0365
G1 X258.344 Y266.971 E.67458
G1 X257.928 Y266.552 E.0365
G1 X265.642 Y258.838 E.67458
G1 X265.227 Y258.418 E.0365
G1 X257.513 Y266.132 E.67458
G1 X257.098 Y265.713 E.0365
G1 X264.811 Y257.999 E.67458
G1 X264.396 Y257.58 E.0365
G1 X256.682 Y265.294 E.67458
G1 X256.267 Y264.874 E.0365
G1 X263.981 Y257.16 E.67458
G1 X263.565 Y256.741 E.0365
G1 X255.851 Y264.455 E.67458
G1 X255.436 Y264.036 E.0365
G1 X263.15 Y256.322 E.67458
G1 X262.735 Y255.903 E.0365
G1 X255.021 Y263.616 E.67458
G1 X254.605 Y263.197 E.0365
G1 X262.319 Y255.483 E.67458
G1 X261.904 Y255.064 E.0365
G1 X254.19 Y262.778 E.67458
G1 X253.774 Y262.359 E.0365
G1 X261.488 Y254.645 E.67458
G1 X261.073 Y254.225 E.0365
G1 X253.359 Y261.939 E.67458
G1 X252.944 Y261.52 E.0365
G1 X260.658 Y253.806 E.67458
G1 X260.242 Y253.387 E.0365
G1 X252.528 Y261.101 E.67458
G1 X252.113 Y260.681 E.0365
G1 X259.827 Y252.967 E.67458
G1 X259.411 Y252.548 E.0365
G1 X251.697 Y260.262 E.67458
G1 X251.282 Y259.843 E.0365
G1 X258.996 Y252.129 E.67458
G1 X258.581 Y251.71 E.0365
G1 X250.867 Y259.424 E.67458
G1 X250.451 Y259.004 E.0365
G1 X258.165 Y251.29 E.67458
G1 X257.75 Y250.871 E.0365
G1 X250.036 Y258.585 E.67458
G1 X249.621 Y258.166 E.0365
G1 X257.335 Y250.452 E.67458
G1 X256.919 Y250.032 E.0365
G1 X249.205 Y257.746 E.67458
G1 X248.79 Y257.327 E.0365
G1 X256.504 Y249.613 E.67458
G1 X256.088 Y249.194 E.0365
G1 X248.374 Y256.908 E.67458
G1 X247.959 Y256.489 E.0365
G1 X255.673 Y248.775 E.67458
G1 X255.258 Y248.355 E.0365
G1 X247.544 Y256.069 E.67458
G1 X247.128 Y255.65 E.0365
G1 X254.842 Y247.936 E.67458
G1 X254.427 Y247.517 E.0365
G1 X246.713 Y255.231 E.67458
M73 P10 R12
G1 X246.297 Y254.811 E.0365
G1 X254.011 Y247.097 E.67458
G1 X253.596 Y246.678 E.0365
G1 X245.882 Y254.392 E.67458
G1 X245.467 Y253.973 E.0365
G1 X253.181 Y246.259 E.67458
G1 X252.765 Y245.84 E.0365
G1 X245.051 Y253.554 E.67458
G1 X244.636 Y253.134 E.0365
G1 X252.35 Y245.42 E.67458
G1 X251.934 Y245.001 E.0365
G1 X244.22 Y252.715 E.67458
G1 X243.805 Y252.296 E.0365
G1 X251.519 Y244.582 E.67458
G1 X251.104 Y244.162 E.0365
G1 X243.39 Y251.876 E.67458
G1 X242.974 Y251.457 E.0365
G1 X250.688 Y243.743 E.67458
G1 X250.273 Y243.324 E.0365
G1 X242.559 Y251.038 E.67458
G1 X242.144 Y250.619 E.0365
G1 X249.858 Y242.905 E.67458
G1 X249.442 Y242.485 E.0365
G1 X241.728 Y250.199 E.67458
G1 X241.313 Y249.78 E.0365
G1 X249.027 Y242.066 E.67458
G1 X248.611 Y241.647 E.0365
G1 X240.897 Y249.361 E.67458
G1 X240.482 Y248.941 E.0365
G1 X248.196 Y241.227 E.67458
G1 X247.781 Y240.808 E.0365
G1 X240.067 Y248.522 E.67458
G1 X239.651 Y248.103 E.0365
G1 X247.365 Y240.389 E.67458
G1 X246.95 Y239.969 E.0365
G1 X239.236 Y247.683 E.67458
G1 X238.82 Y247.264 E.0365
G1 X246.534 Y239.55 E.67458
G1 X246.119 Y239.131 E.0365
G1 X238.405 Y246.845 E.67458
G1 X237.99 Y246.426 E.0365
G1 X245.704 Y238.712 E.67458
G1 X245.288 Y238.292 E.0365
G1 X237.574 Y246.006 E.67458
G1 X237.159 Y245.587 E.0365
G1 X244.873 Y237.873 E.67458
G1 X244.458 Y237.454 E.0365
G1 X236.744 Y245.168 E.67458
G1 X236.328 Y244.748 E.0365
G1 X244.042 Y237.034 E.67458
G1 X243.627 Y236.615 E.0365
G1 X235.913 Y244.329 E.67458
G1 X235.497 Y243.91 E.0365
G1 X243.211 Y236.196 E.67458
G1 X242.796 Y235.777 E.0365
G1 X235.082 Y243.491 E.67458
G1 X234.667 Y243.071 E.0365
G1 X242.381 Y235.357 E.67458
G1 X241.965 Y234.938 E.0365
G1 X234.251 Y242.652 E.67458
G1 X233.836 Y242.233 E.0365
G1 X241.55 Y234.519 E.67458
G1 X241.134 Y234.099 E.0365
G1 X233.42 Y241.813 E.67458
G1 X233.005 Y241.394 E.0365
G1 X240.719 Y233.68 E.67458
G1 X240.304 Y233.261 E.0365
G1 X232.59 Y240.975 E.67458
G1 X232.174 Y240.556 E.0365
G1 X239.888 Y232.842 E.67458
G1 X239.473 Y232.422 E.0365
G1 X231.759 Y240.136 E.67458
G1 X231.343 Y239.717 E.0365
G1 X239.057 Y232.003 E.67458
G1 X238.642 Y231.584 E.0365
G1 X230.928 Y239.298 E.67458
G1 X230.513 Y238.878 E.0365
G1 X238.227 Y231.164 E.67458
G1 X237.811 Y230.745 E.0365
G1 X230.097 Y238.459 E.67458
G1 X229.682 Y238.04 E.0365
G1 X237.396 Y230.326 E.67458
G1 X236.981 Y229.907 E.0365
G1 X229.267 Y237.621 E.67458
G1 X228.851 Y237.201 E.0365
G1 X236.565 Y229.487 E.67458
G1 X236.15 Y229.068 E.0365
G1 X228.436 Y236.782 E.67458
G1 X228.02 Y236.363 E.0365
G1 X235.734 Y228.649 E.67458
G1 X235.319 Y228.229 E.0365
G1 X227.605 Y235.943 E.67458
G1 X227.19 Y235.524 E.0365
G1 X234.904 Y227.81 E.67458
G1 X234.488 Y227.391 E.0365
G1 X226.774 Y235.105 E.67458
G1 X226.359 Y234.685 E.0365
G1 X234.073 Y226.972 E.67458
G1 X233.657 Y226.552 E.0365
G1 X225.943 Y234.266 E.67458
G1 X225.528 Y233.847 E.0365
G1 X233.242 Y226.133 E.67458
G1 X232.827 Y225.714 E.0365
G1 X225.113 Y233.428 E.67458
G1 X224.697 Y233.008 E.0365
G1 X232.411 Y225.294 E.67458
G1 X231.996 Y224.875 E.0365
G1 X224.282 Y232.589 E.67458
G1 X223.867 Y232.17 E.0365
G1 X231.58 Y224.456 E.67458
G1 X231.165 Y224.036 E.0365
G1 X223.451 Y231.75 E.67458
G1 X223.036 Y231.331 E.0365
G1 X230.75 Y223.617 E.67458
G1 X230.334 Y223.198 E.0365
G1 X222.62 Y230.912 E.67458
G1 X222.205 Y230.493 E.0365
G1 X229.919 Y222.779 E.67458
G1 X229.504 Y222.359 E.0365
G1 X221.79 Y230.073 E.67458
G1 X221.374 Y229.654 E.0365
G1 X229.088 Y221.94 E.67458
G1 X228.673 Y221.521 E.0365
G1 X220.959 Y229.235 E.67458
G1 X220.543 Y228.815 E.0365
G1 X228.257 Y221.101 E.67458
G1 X227.842 Y220.682 E.0365
G1 X220.128 Y228.396 E.67458
G1 X219.713 Y227.977 E.0365
G1 X227.427 Y220.263 E.67458
G1 X227.011 Y219.844 E.0365
G1 X219.297 Y227.558 E.67458
G1 X218.882 Y227.138 E.0365
G1 X226.596 Y219.424 E.67458
G1 X226.18 Y219.005 E.0365
G1 X218.466 Y226.719 E.67458
G1 X218.051 Y226.3 E.0365
G1 X225.765 Y218.586 E.67458
G1 X225.35 Y218.166 E.0365
G1 X217.636 Y225.88 E.67458
G1 X217.22 Y225.461 E.0365
G1 X224.934 Y217.747 E.67458
G1 X224.519 Y217.328 E.0365
G1 X216.805 Y225.042 E.67458
G1 X216.39 Y224.623 E.0365
G1 X224.104 Y216.909 E.67458
G1 X223.688 Y216.489 E.0365
G1 X215.974 Y224.203 E.67458
G1 X215.559 Y223.784 E.0365
G1 X223.273 Y216.07 E.67458
G1 X222.857 Y215.651 E.0365
G1 X215.143 Y223.365 E.67458
G1 X214.728 Y222.945 E.0365
G1 X222.442 Y215.231 E.67458
G1 X222.027 Y214.812 E.0365
G1 X214.313 Y222.526 E.67458
G1 X213.897 Y222.107 E.0365
G1 X221.611 Y214.393 E.67458
G1 X221.196 Y213.974 E.0365
G1 X213.482 Y221.688 E.67458
G1 X213.066 Y221.268 E.0365
G1 X220.78 Y213.554 E.67458
G1 X220.365 Y213.135 E.0365
G1 X212.651 Y220.849 E.67458
G1 X212.236 Y220.43 E.0365
G1 X219.95 Y212.716 E.67458
G1 X219.534 Y212.296 E.0365
G1 X211.82 Y220.01 E.67458
G1 X211.405 Y219.591 E.0365
G1 X219.119 Y211.877 E.67458
G1 X218.703 Y211.458 E.0365
G1 X210.989 Y219.172 E.67458
G1 X210.574 Y218.752 E.0365
G1 X218.288 Y211.038 E.67458
G1 X217.873 Y210.619 E.0365
G1 X210.159 Y218.333 E.67458
G1 X209.743 Y217.914 E.0365
G1 X217.457 Y210.2 E.67458
G1 X217.042 Y209.781 E.0365
G1 X209.328 Y217.495 E.67458
G1 X208.913 Y217.075 E.0365
G1 X216.627 Y209.361 E.67458
G1 X216.211 Y208.942 E.0365
G1 X208.497 Y216.656 E.67458
G1 X208.082 Y216.237 E.0365
G1 X215.796 Y208.523 E.67458
G1 X215.38 Y208.103 E.0365
G1 X207.666 Y215.817 E.67458
G1 X207.251 Y215.398 E.0365
G1 X214.965 Y207.684 E.67458
G1 X214.55 Y207.265 E.0365
G1 X206.836 Y214.979 E.67458
G1 X206.42 Y214.56 E.0365
G1 X214.134 Y206.846 E.67458
G1 X213.719 Y206.426 E.0365
G1 X206.005 Y214.14 E.67458
G1 X205.589 Y213.721 E.0365
G1 X213.303 Y206.007 E.67458
G1 X212.888 Y205.588 E.0365
G1 X205.174 Y213.302 E.67458
G1 X204.759 Y212.882 E.0365
G1 X212.473 Y205.168 E.67458
G1 X212.057 Y204.749 E.0365
G1 X204.343 Y212.463 E.67458
G1 X203.928 Y212.044 E.0365
G1 X211.642 Y204.33 E.67458
G1 X211.227 Y203.911 E.0365
G1 X203.513 Y211.625 E.67458
G1 X203.097 Y211.205 E.0365
G1 X210.811 Y203.491 E.67458
G1 X210.396 Y203.072 E.0365
G1 X202.682 Y210.786 E.67458
G1 X202.266 Y210.367 E.0365
G1 X209.98 Y202.653 E.67458
G1 X209.565 Y202.233 E.0365
G1 X201.851 Y209.947 E.67458
G1 X201.436 Y209.528 E.0365
G1 X209.15 Y201.814 E.67458
G1 X208.734 Y201.395 E.0365
G1 X201.02 Y209.109 E.67458
G1 X200.605 Y208.69 E.0365
G1 X208.319 Y200.976 E.67458
G1 X207.903 Y200.556 E.0365
G1 X200.189 Y208.27 E.67458
G1 X199.774 Y207.851 E.0365
G1 X207.488 Y200.137 E.67458
G1 X207.073 Y199.718 E.0365
G1 X199.359 Y207.432 E.67458
M73 P11 R12
G1 X198.943 Y207.012 E.0365
G1 X206.657 Y199.298 E.67458
G1 X206.242 Y198.879 E.0365
G1 X198.528 Y206.593 E.67458
G1 X198.112 Y206.174 E.0365
G1 X205.826 Y198.46 E.67458
G1 X205.411 Y198.041 E.0365
G1 X197.697 Y205.754 E.67458
G1 X197.282 Y205.335 E.0365
G1 X204.996 Y197.621 E.67458
G1 X204.58 Y197.202 E.0365
G1 X196.866 Y204.916 E.67458
G1 X196.451 Y204.497 E.0365
G1 X204.165 Y196.783 E.67458
G1 X203.75 Y196.363 E.0365
G1 X196.036 Y204.077 E.67458
