; HEADER_BLOCK_START
; generated by OrcaSlicer 1.6.3 on 2023-11-21 at 20:10:29
; total layer number: 36
; HEADER_BLOCK_END

; THUMBNAIL_BLOCK_START
; THUMBNAIL_BLOCK_END

; external perimeters extrusion width = 0.62mm
; perimeters extrusion width = 0.62mm
; infill extrusion width = 0.65mm
; solid infill extrusion width = 0.65mm
; top infill extrusion width = 0.65mm
; first layer extrusion width = 0.68mm

; EXECUTABLE_BLOCK_START
EXCLUDE_OBJECT_DEFINE NAME=Rail.stl_id_0_copy_0 CENTER=170,170 POLYGON=[[54.6174,73.9039],[63.3067,64.3955],[63.9268,63.7169],[64.6402,63.9625],[65.3537,64.2081],[284.765,264.719],[285.383,266.096],[276.693,275.604],[276.073,276.283],[274.646,275.792],[55.2347,75.2809],[54.6174,73.9039]]
M73 P0 R13
;TYPE:Custom
M104 S0
M140 S0
START_PRINT BED=75 HOTEND=210
G90
G21
M83 ; use relative distances for extrusion
; filament start gcode
SET_PRESSURE_ADVANCE ADVANCE=0.032; Override pressure advance value
M106 S0
;LAYER_CHANGE
;Z:0.28
;HEIGHT:0.28
;BEFORE_LAYER_CHANGE
;0.28
G92 E0

;DSLR_SNAPSHOT
TIMELAPSE_TAKE_FRAME
M204 S10000
G1 E-.4 F4200
G1 X62.871 Y62.562 F36000
G1 Z.28
G1 E.4 F4200
;TYPE:Skirt
;WIDTH:0.68
G1 F7200
G1 X64.091 Y61.809 E.09313
G1 X65.525 Y61.811 E.09313
G1 X66.572 Y62.396 E.07793
G1 X286.461 Y263.343 E19.34644
G1 X287.214 Y264.563 E.09313
G1 X287.213 Y265.996 E.09313
G1 X286.627 Y267.044 E.07793
G1 X277.129 Y277.438 E.91446
G1 X275.909 Y278.191 E.09313
G1 X274.475 Y278.189 E.09313
G1 X273.428 Y277.604 E.07793
G1 X53.539 Y76.657 E19.34644
G1 X52.786 Y75.437 E.09313
G1 X52.787 Y74.004 E.09313
G1 X53.373 Y72.956 E.07793
G1 X62.81 Y62.629 E.90862
; printing object Rail.stl id:0 copy 0
EXCLUDE_OBJECT_START NAME=Rail.stl_id_0_copy_0
G1 E-.4 F4200
G1 X275.088 Y273.297 F36000
G1 E.4 F4200
;TYPE:Inner wall
;WIDTH:0.68
G1 F7200
G1 X57.68 Y74.617 E19.12822
M73 P1 R13
G1 X64.912 Y66.703 E.69626
G1 X282.32 Y265.383 E19.12822
G1 X278.704 Y269.34 E.34813
G1 X275.096 Y273.288 E.34735
G1 X275.128 Y274.173 F36000
G1 F7200
G1 X56.804 Y74.656 E19.20875
G1 X64.872 Y65.827 E.77679
G1 X283.196 Y265.344 E19.20875
M73 P2 R13
G1 X279.162 Y269.758 E.38839
G1 X275.136 Y274.164 E.38761
G1 X275.167 Y275.049 F36000
;TYPE:Outer wall
G1 F7200
G1 X55.928 Y74.695 E19.28927
G1 X64.833 Y64.951 E.85731
G1 X284.072 Y265.305 E19.28927
G1 X279.619 Y270.177 E.42865
G1 X275.175 Y275.04 E.42788
G1 X275.131 Y274.934
G1 E-.4 F4200
G1 X281.449 Y266.061 F36000
G1 E.4 F4200
;TYPE:Bottom surface
;WIDTH:0.681895
G1 F7200
G1 X271.662 Y256.273 E.9017
G1 X261.454 Y246.945 E.9009
G1 X280.832 Y266.323 E1.78532
G1 X280.412 Y266.782 E.04055
G1 X251.246 Y237.616 E2.68714
G1 X241.037 Y228.287 E.9009
G1 X279.992 Y267.242 E3.58895
G1 X279.572 Y267.701 E.04055
G1 X230.829 Y218.958 E4.49077
M73 P3 R13
G1 X220.621 Y209.629 E.9009
G1 X279.153 Y268.161 E5.39258
G1 X278.733 Y268.62 E.04055
G1 X210.412 Y200.3 E6.2944
M73 P3 R12
G1 X200.204 Y190.971 E.9009
G1 X278.313 Y269.079 E7.19621
G1 X277.893 Y269.539 E.04055
G1 X189.996 Y181.642 E8.09803
G1 X179.787 Y172.313 E.9009
G1 X277.473 Y269.998 E8.99985
G1 X277.053 Y270.458 E.04055
G1 X169.579 Y162.984 E9.90166
G1 X159.371 Y153.655 E.9009
G1 X276.633 Y270.917 E10.80348
G1 X276.213 Y271.377 E.04055
G1 X149.162 Y144.326 E11.70529
M73 P4 R12
G1 X138.954 Y134.997 E.9009
G1 X275.793 Y271.836 E12.60711
G1 X275.374 Y272.296 E.04055
G1 X128.746 Y125.668 E13.50892
G1 X118.537 Y116.339 E.9009
G1 X272.503 Y270.305 E14.18497
G1 X262.295 Y260.976 E.9009
G1 X108.329 Y107.01 E14.18497
M73 P5 R12
G1 X98.121 Y97.681 E.9009
G1 X252.086 Y251.647 E14.18497
G1 X241.878 Y242.318 E.9009
G1 X87.912 Y88.352 E14.18497
G1 X77.704 Y79.023 E.9009
G1 X231.67 Y232.989 E14.18497
G1 X221.461 Y223.66 E.9009
G1 X67.496 Y69.694 E14.18497
M73 P6 R12
G1 X64.941 Y67.36 E.22544
G1 X64.626 Y67.704 E.0304
G1 X211.253 Y214.331 E13.50882
G1 X201.045 Y205.002 E.9009
G1 X64.207 Y68.164 E12.607
G1 X63.787 Y68.623 E.04055
G1 X190.836 Y195.673 E11.70519
G1 X180.628 Y186.344 E.9009
G1 X63.367 Y69.083 E10.80337
G1 X62.947 Y69.542 E.04055
G1 X170.42 Y177.015 E9.90155
M73 P7 R12
G1 X160.211 Y167.686 E.9009
G1 X62.527 Y70.002 E8.99974
G1 X62.107 Y70.461 E.04055
G1 X150.003 Y158.357 E8.09792
G1 X139.795 Y149.028 E.9009
G1 X61.687 Y70.921 E7.19611
G1 X61.267 Y71.38 E.04055
G1 X129.586 Y139.699 E6.29429
G1 X119.378 Y130.37 E.9009
G1 X60.847 Y71.84 E5.39248
G1 X60.428 Y72.299 E.04055
G1 X109.17 Y121.041 E4.49066
G1 X98.961 Y111.712 E.9009
G1 X60.008 Y72.758 E3.58884
G1 X59.588 Y73.218 E.04055
G1 X88.753 Y102.383 E2.68703
G1 X78.545 Y93.054 E.9009
G1 X59.168 Y73.677 E1.78521
G1 X58.748 Y74.137 E.04055
G1 X72.723 Y88.112 E1.28757
; stop printing object Rail.stl id:0 copy 0
EXCLUDE_OBJECT_END NAME=Rail.stl_id_0_copy_0
M106 S227
;LAYER_CHANGE
;Z:0.56
;HEIGHT:0.28
;BEFORE_LAYER_CHANGE
;0.56
G92 E0

;DSLR_SNAPSHOT
TIMELAPSE_TAKE_FRAME
M204 S15000
M140 S75 ; set bed temperature
; printing object Rail.stl id:0 copy 0
EXCLUDE_OBJECT_START NAME=Rail.stl_id_0_copy_0
M204 S16000
G1 E-.4 F4200
G1 X275.392 Y274.293 Z.56 F36000
M73 P8 R12
G1 E.4 F4200
M204 S15000
;TYPE:Inner wall
;WIDTH:0.62
G1 F16073.983
G1 X56.661 Y74.403 E17.38197
G1 X64.608 Y65.707 E.69105
G1 X283.339 Y265.597 E17.38197
G1 X275.4 Y274.284 E.69034
M204 S16000
G1 X275.428 Y275.084 F36000
M204 S15000
G1 F16073.983
G1 X275.41 Y275.068 E.00141
G1 X274.907 Y274.607 E.04002
G1 X56.391 Y74.915 E17.36483
G1 X55.888 Y74.455 E.03999
G1 X55.87 Y74.439 E.00141
G1 X56.346 Y73.918 E.0414
G1 X64.096 Y65.437 E.67394
G1 X64.572 Y64.916 E.0414
G1 X64.59 Y64.932 E.00141
G1 X65.093 Y65.393 E.04002
G1 X283.609 Y265.085 E17.36483
G1 X284.112 Y265.545 E.03999
G1 X284.13 Y265.561 E.00141
G1 X283.654 Y266.082 E.0414
G1 X275.912 Y274.554 E.67324
G1 X275.436 Y275.075 E.0414
M204 S16000
G1 X275.215 Y275.648 F36000
M204 S10000
;TYPE:Outer wall
G1 F7200
G1 F8709.839
G1 X274.529 Y275.021 E.05452
G1 F7199.999
G1 X56.013 Y75.329 E17.36483
G1 X55.327 Y74.701 E.05456
G1 F5280.002
G1 X55.263 Y74.587 E.00767
G1 F3000
G1 X55.208 Y74.464 E.0079
G1 X55.185 Y74.412 E.00334
M204 S5000
;TYPE:Overhang wall
G1 X55.169 Y74.376 E.00231
G1 X56.023 Y73.441 E.07428
G1 X63.592 Y65.158 E.65821
G1 X64.446 Y64.224 E.07424
G1 X64.484 Y64.236 E.00234
M204 S10000
;TYPE:Outer wall
G1 X64.537 Y64.255 E.0033
G1 F5279.999
G1 X64.665 Y64.299 E.00794
G1 F7200
G1 X64.785 Y64.352 E.0077
G1 X64.785 Y64.352
G1 F8711.409
G1 X65.471 Y64.979 E.05452
G1 F7199.999
G1 X283.979 Y264.679 E17.3648
M73 P9 R12
G1 X284.666 Y265.307 E.0546
G1 F5620.804
G1 X284.727 Y265.391 E.00609
G1 F5279.99
G1 X284.737 Y265.413 E.00142
G1 F3000
G1 X284.792 Y265.536 E.0079
G1 X284.815 Y265.588 E.00334
M204 S5000
;TYPE:Overhang wall
G1 X284.831 Y265.624 E.00231
G1 X283.977 Y266.559 E.07428
G1 X276.408 Y274.842 E.65821
G1 X275.554 Y275.776 E.07424
G1 X275.516 Y275.764 E.00234
M204 S10000
;TYPE:Outer wall
G1 X275.463 Y275.745 E.0033
G1 F5280.005
G1 X275.335 Y275.701 E.00794
G1 F7024.966
G1 X275.223 Y275.656 E.00708
M204 S15000
M204 S16000
G1 E-.4 F4200
G1 X282.849 Y265.378 F36000
G1 E.4 F4200
M204 S15000
;TYPE:Internal solid infill
;WIDTH:0.650223
G1 F15250.773
G1 X274.938 Y273.289 E.69169
G1 X274.502 Y272.89 E.03652
G1 X282.225 Y265.167 E.67526
G1 X281.789 Y264.769 E.03652
G1 X274.066 Y272.492 E.67526
G1 X273.63 Y272.093 E.03652
G1 X281.353 Y264.37 E.67526
G1 X280.916 Y263.972 E.03652
G1 X273.194 Y271.694 E.67526
G1 X272.758 Y271.296 E.03652
G1 X280.48 Y263.573 E.67526
G1 X280.044 Y263.175 E.03652
G1 X272.322 Y270.897 E.67526
G1 X271.886 Y270.499 E.03652
G1 X279.608 Y262.776 E.67526
G1 X279.172 Y262.378 E.03652
G1 X271.449 Y270.1 E.67526
G1 X271.013 Y269.702 E.03652
G1 X278.736 Y261.979 E.67526
G1 X278.3 Y261.581 E.03652
G1 X270.577 Y269.303 E.67526
G1 X270.141 Y268.905 E.03652
G1 X277.864 Y261.182 E.67526
G1 X277.428 Y260.784 E.03652
G1 X269.705 Y268.506 E.67526
G1 X269.269 Y268.108 E.03652
G1 X276.992 Y260.385 E.67526
G1 X276.556 Y259.987 E.03652
G1 X268.833 Y267.709 E.67526
G1 X268.397 Y267.311 E.03652
G1 X276.12 Y259.588 E.67526
G1 X275.684 Y259.19 E.03652
G1 X267.961 Y266.912 E.67526
G1 X267.525 Y266.514 E.03652
G1 X275.248 Y258.791 E.67526
G1 X274.811 Y258.393 E.03652
G1 X267.089 Y266.115 E.67526
G1 X266.653 Y265.717 E.03652
G1 X274.375 Y257.994 E.67526
G1 X273.939 Y257.596 E.03652
G1 X266.217 Y265.318 E.67526
G1 X265.781 Y264.92 E.03652
G1 X273.503 Y257.197 E.67526
G1 X273.067 Y256.799 E.03652
G1 X265.345 Y264.521 E.67526
G1 X264.908 Y264.123 E.03652
G1 X272.631 Y256.4 E.67526
G1 X272.195 Y256.002 E.03652
G1 X264.472 Y263.724 E.67526
G1 X264.036 Y263.326 E.03652
G1 X271.759 Y255.603 E.67526
G1 X271.323 Y255.205 E.03652
G1 X263.6 Y262.927 E.67526
G1 X263.164 Y262.529 E.03652
G1 X270.887 Y254.806 E.67526
G1 X270.451 Y254.408 E.03652
G1 X262.728 Y262.13 E.67526
G1 X262.292 Y261.732 E.03652
G1 X270.015 Y254.009 E.67526
G1 X269.579 Y253.611 E.03652
G1 X261.856 Y261.333 E.67526
G1 X261.42 Y260.935 E.03652
G1 X269.143 Y253.212 E.67526
G1 X268.706 Y252.814 E.03652
G1 X260.984 Y260.536 E.67526
G1 X260.548 Y260.138 E.03652
G1 X268.27 Y252.415 E.67526
G1 X267.834 Y252.017 E.03652
G1 X260.112 Y259.739 E.67526
G1 X259.676 Y259.341 E.03652
G1 X267.398 Y251.618 E.67526
G1 X266.962 Y251.22 E.03652
G1 X259.24 Y258.942 E.67526
G1 X258.803 Y258.544 E.03652
G1 X266.526 Y250.821 E.67526
G1 X266.09 Y250.423 E.03652
G1 X258.367 Y258.145 E.67526
G1 X257.931 Y257.747 E.03652
G1 X265.654 Y250.024 E.67526
G1 X265.218 Y249.626 E.03652
G1 X257.495 Y257.348 E.67526
G1 X257.059 Y256.95 E.03652
G1 X264.782 Y249.227 E.67526
G1 X264.346 Y248.829 E.03652
G1 X256.623 Y256.551 E.67526
G1 X256.187 Y256.153 E.03652
G1 X263.91 Y248.43 E.67526
G1 X263.474 Y248.032 E.03652
G1 X255.751 Y255.754 E.67526
G1 X255.315 Y255.356 E.03652
G1 X263.038 Y247.633 E.67526
G1 X262.602 Y247.235 E.03652
G1 X254.879 Y254.957 E.67526
G1 X254.443 Y254.559 E.03652
G1 X262.165 Y246.836 E.67526
G1 X261.729 Y246.438 E.03652
G1 X254.007 Y254.16 E.67526
G1 X253.571 Y253.762 E.03652
G1 X261.293 Y246.039 E.67526
G1 X260.857 Y245.641 E.03652
G1 X253.135 Y253.363 E.67526
G1 X252.698 Y252.965 E.03652
G1 X260.421 Y245.242 E.67526
G1 X259.985 Y244.844 E.03652
G1 X252.262 Y252.566 E.67526
G1 X251.826 Y252.168 E.03652
G1 X259.549 Y244.445 E.67526
G1 X259.113 Y244.047 E.03652
G1 X251.39 Y251.769 E.67526
G1 X250.954 Y251.371 E.03652
G1 X258.677 Y243.648 E.67526
G1 X258.241 Y243.25 E.03652
G1 X250.518 Y250.972 E.67526
G1 X250.082 Y250.574 E.03652
G1 X257.805 Y242.851 E.67526
G1 X257.369 Y242.453 E.03652
G1 X249.646 Y250.175 E.67526
G1 X249.21 Y249.777 E.03652
G1 X256.933 Y242.054 E.67526
G1 X256.497 Y241.655 E.03652
G1 X248.774 Y249.378 E.67526
G1 X248.338 Y248.98 E.03652
G1 X256.06 Y241.257 E.67526
G1 X255.624 Y240.858 E.03652
G1 X247.902 Y248.581 E.67526
G1 X247.466 Y248.183 E.03652
G1 X255.188 Y240.46 E.67526
G1 X254.752 Y240.061 E.03652
G1 X247.03 Y247.784 E.67526
G1 X246.594 Y247.386 E.03652
G1 X254.316 Y239.663 E.67526
G1 X253.88 Y239.264 E.03652
G1 X246.157 Y246.987 E.67526
G1 X245.721 Y246.589 E.03652
G1 X253.444 Y238.866 E.67526
G1 X253.008 Y238.467 E.03652
G1 X245.285 Y246.19 E.67526
G1 X244.849 Y245.792 E.03652
G1 X252.572 Y238.069 E.67526
G1 X252.136 Y237.67 E.03652
G1 X244.413 Y245.393 E.67526
G1 X243.977 Y244.995 E.03652
G1 X251.7 Y237.272 E.67526
G1 X251.264 Y236.873 E.03652
G1 X243.541 Y244.596 E.67526
G1 X243.105 Y244.198 E.03652
G1 X250.828 Y236.475 E.67526
G1 X250.392 Y236.076 E.03652
M73 P10 R12
G1 X242.669 Y243.799 E.67526
G1 X242.233 Y243.401 E.03652
G1 X249.955 Y235.678 E.67526
G1 X249.519 Y235.279 E.03652
G1 X241.797 Y243.002 E.67526
G1 X241.361 Y242.604 E.03652
G1 X249.083 Y234.881 E.67526
G1 X248.647 Y234.482 E.03652
G1 X240.925 Y242.205 E.67526
G1 X240.489 Y241.807 E.03652
G1 X248.211 Y234.084 E.67526
G1 X247.775 Y233.685 E.03652
G1 X240.052 Y241.408 E.67526
G1 X239.616 Y241.01 E.03652
G1 X247.339 Y233.287 E.67526
G1 X246.903 Y232.888 E.03652
G1 X239.18 Y240.611 E.67526
G1 X238.744 Y240.213 E.03652
G1 X246.467 Y232.49 E.67526
G1 X246.031 Y232.091 E.03652
G1 X238.308 Y239.814 E.67526
G1 X237.872 Y239.416 E.03652
G1 X245.595 Y231.693 E.67526
G1 X245.159 Y231.294 E.03652
G1 X237.436 Y239.017 E.67526
G1 X237 Y238.619 E.03652
G1 X244.723 Y230.896 E.67526
G1 X244.287 Y230.497 E.03652
G1 X236.564 Y238.22 E.67526
G1 X236.128 Y237.822 E.03652
G1 X243.851 Y230.099 E.67526
G1 X243.414 Y229.7 E.03652
G1 X235.692 Y237.423 E.67526
G1 X235.256 Y237.024 E.03652
G1 X242.978 Y229.302 E.67526
G1 X242.542 Y228.903 E.03652
G1 X234.82 Y236.626 E.67526
G1 X234.384 Y236.227 E.03652
G1 X242.106 Y228.505 E.67526
G1 X241.67 Y228.106 E.03652
G1 X233.947 Y235.829 E.67526
G1 X233.511 Y235.43 E.03652
G1 X241.234 Y227.708 E.67526
G1 X240.798 Y227.309 E.03652
G1 X233.075 Y235.032 E.67526
G1 X232.639 Y234.633 E.03652
G1 X240.362 Y226.911 E.67526
G1 X239.926 Y226.512 E.03652
G1 X232.203 Y234.235 E.67526
G1 X231.767 Y233.836 E.03652
G1 X239.49 Y226.114 E.67526
G1 X239.054 Y225.715 E.03652
G1 X231.331 Y233.438 E.67526
G1 X230.895 Y233.039 E.03652
G1 X238.618 Y225.317 E.67526
G1 X238.182 Y224.918 E.03652
G1 X230.459 Y232.641 E.67526
G1 X230.023 Y232.242 E.03652
G1 X237.746 Y224.52 E.67526
G1 X237.309 Y224.121 E.03652
G1 X229.587 Y231.844 E.67526
G1 X229.151 Y231.445 E.03652
G1 X236.873 Y223.723 E.67526
G1 X236.437 Y223.324 E.03652
G1 X228.715 Y231.047 E.67526
G1 X228.279 Y230.648 E.03652
G1 X236.001 Y222.926 E.67526
G1 X235.565 Y222.527 E.03652
G1 X227.843 Y230.25 E.67526
G1 X227.406 Y229.851 E.03652
G1 X235.129 Y222.129 E.67526
G1 X234.693 Y221.73 E.03652
G1 X226.97 Y229.453 E.67526
G1 X226.534 Y229.054 E.03652
G1 X234.257 Y221.332 E.67526
G1 X233.821 Y220.933 E.03652
G1 X226.098 Y228.656 E.67526
G1 X225.662 Y228.257 E.03652
G1 X233.385 Y220.535 E.67526
G1 X232.949 Y220.136 E.03652
G1 X225.226 Y227.859 E.67526
G1 X224.79 Y227.46 E.03652
G1 X232.513 Y219.738 E.67526
G1 X232.077 Y219.339 E.03652
G1 X224.354 Y227.062 E.67526
G1 X223.918 Y226.663 E.03652
G1 X231.641 Y218.941 E.67526
G1 X231.204 Y218.542 E.03652
G1 X223.482 Y226.265 E.67526
G1 X223.046 Y225.866 E.03652
G1 X230.768 Y218.144 E.67526
G1 X230.332 Y217.745 E.03652
G1 X222.61 Y225.468 E.67526
G1 X222.174 Y225.069 E.03652
G1 X229.896 Y217.347 E.67526
G1 X229.46 Y216.948 E.03652
G1 X221.738 Y224.671 E.67526
G1 X221.301 Y224.272 E.03652
G1 X229.024 Y216.55 E.67526
G1 X228.588 Y216.151 E.03652
G1 X220.865 Y223.874 E.67526
G1 X220.429 Y223.475 E.03652
G1 X228.152 Y215.753 E.67526
G1 X227.716 Y215.354 E.03652
G1 X219.993 Y223.077 E.67526
G1 X219.557 Y222.678 E.03652
G1 X227.28 Y214.956 E.67526
G1 X226.844 Y214.557 E.03652
G1 X219.121 Y222.28 E.67526
G1 X218.685 Y221.881 E.03652
G1 X226.408 Y214.159 E.67526
G1 X225.972 Y213.76 E.03652
G1 X218.249 Y221.483 E.67526
G1 X217.813 Y221.084 E.03652
G1 X225.536 Y213.362 E.67526
G1 X225.1 Y212.963 E.03652
G1 X217.377 Y220.686 E.67526
G1 X216.941 Y220.287 E.03652
G1 X224.663 Y212.565 E.67526
G1 X224.227 Y212.166 E.03652
G1 X216.505 Y219.889 E.67526
G1 X216.069 Y219.49 E.03652
G1 X223.791 Y211.768 E.67526
G1 X223.355 Y211.369 E.03652
G1 X215.633 Y219.092 E.67526
G1 X215.196 Y218.693 E.03652
G1 X222.919 Y210.971 E.67526
G1 X222.483 Y210.572 E.03652
G1 X214.76 Y218.295 E.67526
G1 X214.324 Y217.896 E.03652
G1 X222.047 Y210.174 E.67526
M73 P10 R11
G1 X221.611 Y209.775 E.03652
G1 X213.888 Y217.498 E.67526
G1 X213.452 Y217.099 E.03652
G1 X221.175 Y209.377 E.67526
G1 X220.739 Y208.978 E.03652
G1 X213.016 Y216.701 E.67526
G1 X212.58 Y216.302 E.03652
G1 X220.303 Y208.58 E.67526
G1 X219.867 Y208.181 E.03652
G1 X212.144 Y215.904 E.67526
G1 X211.708 Y215.505 E.03652
G1 X219.431 Y207.782 E.67526
G1 X218.995 Y207.384 E.03652
G1 X211.272 Y215.107 E.67526
G1 X210.836 Y214.708 E.03652
G1 X218.558 Y206.985 E.67526
G1 X218.122 Y206.587 E.03652
G1 X210.4 Y214.31 E.67526
G1 X209.964 Y213.911 E.03652
G1 X217.686 Y206.188 E.67526
G1 X217.25 Y205.79 E.03652
G1 X209.528 Y213.513 E.67526
G1 X209.092 Y213.114 E.03652
G1 X216.814 Y205.391 E.67526
G1 X216.378 Y204.993 E.03652
G1 X208.655 Y212.716 E.67526
G1 X208.219 Y212.317 E.03652
G1 X215.942 Y204.594 E.67526
G1 X215.506 Y204.196 E.03652
G1 X207.783 Y211.919 E.67526
G1 X207.347 Y211.52 E.03652
G1 X215.07 Y203.797 E.67526
