; HEADER_BLOCK_START
; generated by OrcaSlicer 1.8.1 on 2023-12-18 at 22:19:56
; total layer number: 43
; HEADER_BLOCK_END

; THUMBNAIL_BLOCK_START

;
; THUMBNAIL_BLOCK_END

; external perimeters extrusion width = 0.52mm
; perimeters extrusion width = 0.52mm
; infill extrusion width = 0.55mm
; solid infill extrusion width = 0.55mm
; top infill extrusion width = 0.55mm
; first layer extrusion width = 0.58mm

; external perimeters extrusion width = 0.52mm
; perimeters extrusion width = 0.52mm
; infill extrusion width = 0.55mm
; solid infill extrusion width = 0.55mm
; top infill extrusion width = 0.55mm
; first layer extrusion width = 0.58mm

; external perimeters extrusion width = 0.52mm
; perimeters extrusion width = 0.52mm
; infill extrusion width = 0.55mm
; solid infill extrusion width = 0.55mm
; top infill extrusion width = 0.55mm
; first layer extrusion width = 0.58mm

; external perimeters extrusion width = 0.52mm
; perimeters extrusion width = 0.52mm
; infill extrusion width = 0.55mm
; solid infill extrusion width = 0.55mm
; top infill extrusion width = 0.55mm
; first layer extrusion width = 0.58mm

; external perimeters extrusion width = 0.52mm
; perimeters extrusion width = 0.52mm
; infill extrusion width = 0.55mm
; solid infill extrusion width = 0.55mm
; top infill extrusion width = 0.55mm
; first layer extrusion width = 0.58mm

; external perimeters extrusion width = 0.52mm
; perimeters extrusion width = 0.52mm
; infill extrusion width = 0.55mm
; solid infill extrusion width = 0.55mm
; top infill extrusion width = 0.55mm
; first layer extrusion width = 0.58mm

; EXECUTABLE_BLOCK_START
EXCLUDE_OBJECT_DEFINE NAME=rail_id_0_copy_0 CENTER=103.586,165 POLYGON=[[98.2257,91],[108.946,91],[108.946,239],[98.2257,239],[98.2257,91]]
EXCLUDE_OBJECT_DEFINE NAME=nuholdr_v24_id_1_copy_0 CENTER=165.365,150.805 POLYGON=[[112.365,134.366],[218.365,134.366],[218.365,156.513],[218.361,156.823],[218.344,157.192],[218.32,157.491],[218.279,157.868],[218.239,158.155],[218.172,158.539],[218.116,158.812],[218.023,159.202],[217.952,159.461],[217.832,159.854],[217.748,160.098],[217.6,160.492],[217.505,160.721],[217.328,161.115],[217.224,161.328],[217.018,161.719],[216.905,161.916],[216.67,162.302],[216.551,162.484],[216.285,162.862],[216.161,163.028],[215.866,163.397],[215.739,163.546],[215.414,163.904],[215.285,164.038],[214.931,164.381],[214.801,164.5],[214.419,164.827],[214.29,164.931],[213.879,165.24],[213.752,165.329],[213.314,165.618],[213.191,165.693],[212.727,165.959],[212.608,166.022],[212.119,166.262],[212.006,166.313],[211.494,166.526],[211.387,166.567],[210.852,166.751],[210.754,166.781],[210.198,166.934],[210.108,166.956],[209.534,167.075],[209.452,167.089],[208.862,167.174],[208.79,167.182],[208.185,167.231],[208.123,167.234],[207.506,167.244],[123.224,167.244],[122.607,167.234],[122.545,167.231],[121.94,167.182],[121.868,167.174],[121.278,167.089],[121.196,167.075],[120.622,166.956],[120.532,166.934],[119.976,166.781],[119.878,166.751],[119.343,166.567],[119.236,166.526],[118.724,166.313],[118.611,166.262],[118.122,166.022],[118.003,165.959],[117.539,165.693],[117.416,165.618],[116.978,165.329],[116.851,165.24],[116.44,164.931],[116.311,164.827],[115.929,164.5],[115.799,164.381],[115.445,164.038],[115.316,163.904],[114.991,163.546],[114.864,163.397],[114.569,163.028],[114.445,162.862],[114.179,162.484],[114.06,162.302],[113.825,161.916],[113.712,161.719],[113.506,161.328],[113.402,161.115],[113.225,160.721],[113.13,160.492],[112.982,160.098],[112.898,159.854],[112.778,159.461],[112.707,159.202],[112.614,158.812],[112.558,158.539],[112.491,158.155],[112.451,157.868],[112.41,157.491],[112.386,157.192],[112.369,156.823],[112.365,156.513],[112.365,134.366]]
EXCLUDE_OBJECT_DEFINE NAME=rail_id_2_copy_0 CENTER=226.414,165 POLYGON=[[221.054,91],[231.774,91],[231.774,239],[221.054,239],[221.054,91]]
EXCLUDE_OBJECT_DEFINE NAME=nuholdr_v24_id_3_copy_0 CENTER=165.365,222.561 POLYGON=[[112.365,206.122],[218.365,206.122],[218.365,228.269],[218.361,228.579],[218.344,228.948],[218.32,229.247],[218.279,229.624],[218.239,229.911],[218.172,230.295],[218.116,230.568],[218.023,230.958],[217.952,231.217],[217.832,231.61],[217.748,231.854],[217.6,232.248],[217.505,232.477],[217.328,232.871],[217.224,233.084],[217.018,233.475],[216.905,233.672],[216.67,234.058],[216.551,234.24],[216.285,234.618],[216.161,234.784],[215.866,235.153],[215.739,235.302],[215.414,235.66],[215.285,235.794],[214.931,236.137],[214.801,236.256],[214.419,236.583],[214.29,236.687],[213.879,236.996],[213.752,237.085],[213.314,237.374],[213.191,237.449],[212.727,237.715],[212.608,237.778],[212.119,238.018],[212.006,238.069],[211.494,238.282],[211.387,238.323],[210.852,238.507],[210.754,238.537],[210.198,238.69],[210.108,238.712],[209.534,238.831],[209.452,238.845],[208.862,238.93],[208.79,238.938],[208.185,238.987],[208.123,238.99],[207.506,239],[123.224,239],[122.607,238.99],[122.545,238.987],[121.94,238.938],[121.868,238.93],[121.278,238.845],[121.196,238.831],[120.622,238.712],[120.532,238.69],[119.976,238.537],[119.878,238.507],[119.343,238.323],[119.236,238.282],[118.724,238.069],[118.611,238.018],[118.122,237.778],[118.003,237.715],[117.539,237.449],[117.416,237.374],[116.978,237.085],[116.851,236.996],[116.44,236.687],[116.311,236.583],[115.929,236.256],[115.799,236.137],[115.445,235.794],[115.316,235.66],[114.991,235.302],[114.864,235.153],[114.569,234.784],[114.445,234.618],[114.179,234.24],[114.06,234.058],[113.825,233.672],[113.712,233.475],[113.506,233.084],[113.402,232.871],[113.225,232.477],[113.13,232.248],[112.982,231.854],[112.898,231.61],[112.778,231.217],[112.707,230.958],[112.614,230.568],[112.558,230.295],[112.491,229.911],[112.451,229.624],[112.41,229.247],[112.386,228.948],[112.369,228.579],[112.365,228.269],[112.365,206.122]]
EXCLUDE_OBJECT_DEFINE NAME=nuholdr_v24_id_4_copy_0 CENTER=165.365,114.927 POLYGON=[[112.365,98.488],[218.365,98.488],[218.365,120.635],[218.361,120.945],[218.344,121.314],[218.32,121.613],[218.279,121.99],[218.239,122.277],[218.172,122.661],[218.116,122.934],[218.023,123.324],[217.952,123.583],[217.832,123.976],[217.748,124.22],[217.6,124.614],[217.505,124.843],[217.328,125.237],[217.224,125.45],[217.018,125.841],[216.905,126.038],[216.67,126.424],[216.551,126.606],[216.285,126.984],[216.161,127.15],[215.866,127.519],[215.739,127.668],[215.414,128.026],[215.285,128.16],[214.931,128.503],[214.801,128.622],[214.419,128.949],[214.29,129.053],[213.879,129.362],[213.752,129.451],[213.314,129.74],[213.191,129.815],[212.727,130.081],[212.608,130.144],[212.119,130.384],[212.006,130.435],[211.494,130.648],[211.387,130.689],[210.852,130.873],[210.754,130.903],[210.198,131.056],[210.108,131.078],[209.534,131.197],[209.452,131.211],[208.862,131.296],[208.79,131.304],[208.185,131.353],[208.123,131.356],[207.506,131.366],[123.224,131.366],[122.607,131.356],[122.545,131.353],[121.94,131.304],[121.868,131.296],[121.278,131.211],[121.196,131.197],[120.622,131.078],[120.532,131.056],[119.976,130.903],[119.878,130.873],[119.343,130.689],[119.236,130.648],[118.724,130.435],[118.611,130.384],[118.122,130.144],[118.003,130.081],[117.539,129.815],[117.416,129.74],[116.978,129.451],[116.851,129.362],[116.44,129.053],[116.311,128.949],[115.929,128.622],[115.799,128.503],[115.445,128.16],[115.316,128.026],[114.991,127.668],[114.864,127.519],[114.569,127.15],[114.445,126.984],[114.179,126.606],[114.06,126.424],[113.825,126.038],[113.712,125.841],[113.506,125.45],[113.402,125.237],[113.225,124.843],[113.13,124.614],[112.982,124.22],[112.898,123.976],[112.778,123.583],[112.707,123.324],[112.614,122.934],[112.558,122.661],[112.491,122.277],[112.451,121.99],[112.41,121.613],[112.386,121.314],[112.369,120.945],[112.365,120.635],[112.365,98.488]]
EXCLUDE_OBJECT_DEFINE NAME=nuholdr_v24_id_5_copy_0 CENTER=165.365,186.683 POLYGON=[[112.365,170.244],[218.365,170.244],[218.365,192.391],[218.361,192.701],[218.344,193.07],[218.32,193.369],[218.279,193.746],[218.239,194.033],[218.172,194.417],[218.116,194.69],[218.023,195.08],[217.952,195.339],[217.832,195.732],[217.748,195.976],[217.6,196.37],[217.505,196.599],[217.328,196.993],[217.224,197.206],[217.018,197.597],[216.905,197.794],[216.67,198.18],[216.551,198.362],[216.285,198.74],[216.161,198.906],[215.866,199.275],[215.739,199.424],[215.414,199.782],[215.285,199.916],[214.931,200.259],[214.801,200.378],[214.419,200.705],[214.29,200.809],[213.879,201.118],[213.752,201.207],[213.314,201.496],[213.191,201.571],[212.727,201.837],[212.608,201.9],[212.119,202.14],[212.006,202.191],[211.494,202.404],[211.387,202.445],[210.852,202.629],[210.754,202.659],[210.198,202.812],[210.108,202.834],[209.534,202.953],[209.452,202.967],[208.862,203.052],[208.79,203.06],[208.185,203.109],[208.123,203.112],[207.506,203.122],[123.224,203.122],[122.607,203.112],[122.545,203.109],[121.94,203.06],[121.868,203.052],[121.278,202.967],[121.196,202.953],[120.622,202.834],[120.532,202.812],[119.976,202.659],[119.878,202.629],[119.343,202.445],[119.236,202.404],[118.724,202.191],[118.611,202.14],[118.122,201.9],[118.003,201.837],[117.539,201.571],[117.416,201.496],[116.978,201.207],[116.851,201.118],[116.44,200.809],[116.311,200.705],[115.929,200.378],[115.799,200.259],[115.445,199.916],[115.316,199.782],[114.991,199.424],[114.864,199.275],[114.569,198.906],[114.445,198.74],[114.179,198.362],[114.06,198.18],[113.825,197.794],[113.712,197.597],[113.506,197.206],[113.402,196.993],[113.225,196.599],[113.13,196.37],[112.982,195.976],[112.898,195.732],[112.778,195.339],[112.707,195.08],[112.614,194.69],[112.558,194.417],[112.491,194.033],[112.451,193.746],[112.41,193.369],[112.386,193.07],[112.369,192.701],[112.365,192.391],[112.365,170.244]]
M73 P0 R45
;TYPE:Custom
M104 S0
M140 S0
START_PRINT BED=80 HOTEND=220
G90
G21
M83 ; use relative distances for extrusion
; filament start gcode
SET_PRESSURE_ADVANCE ADVANCE=0.032; Override pressure advance value
M106 S0
;LAYER_CHANGE
;Z:0.2
;HEIGHT:0.2
;BEFORE_LAYER_CHANGE
;0.2
G92 E0

;DSLR_SNAPSHOT
TIMELAPSE_TAKE_FRAME
;_SET_FAN_SPEED_CHANGING_LAYER
SET_VELOCITY_LIMIT ACCEL=10000 ACCEL_TO_DECEL=5000
SET_VELOCITY_LIMIT SQUARE_CORNER_VELOCITY=10
G1 E-.4 F4200
G1 X97.406 Y88.076 F36000
G1 Z.2
G1 E.4 F4200
;TYPE:Skirt
;WIDTH:0.58
G1 F3000
G1 X99.526 Y87.389 E.08956
G1 X230.474 Y87.389 E5.26315
G1 X232.115 Y87.783 E.06784
G1 X233.398 Y88.88 E.06784
G1 X234.085 Y91 E.08956
G1 X234.085 Y239 E5.94849
G1 X233.691 Y240.641 E.06784
G1 X232.594 Y241.924 E.06784
G1 X230.474 Y242.611 E.08956
G1 X99.526 Y242.611 E5.26315
G1 X97.885 Y242.217 E.06784
G1 X96.602 Y241.12 E.06784
G1 X95.915 Y239 E.08956
G1 X95.915 Y91 E5.94849
G1 X96.309 Y89.359 E.06784
G1 X97.374 Y88.114 E.06583
G1 X97.79 Y88.516 F36000
G1 F3000
G1 X97.925 Y88.376 E.00782
G1 X99.526 Y87.926 E.06684
G1 X230.474 Y87.926 E5.26315
G1 X231.979 Y88.319 E.06252
G1 X233.099 Y89.399 E.06252
G1 X233.548 Y91 E.06684
G1 X233.548 Y239 E5.94849
G1 X233.155 Y240.505 E.06252
G1 X232.075 Y241.624 E.06252
G1 X230.474 Y242.074 E.06684
G1 X99.526 Y242.074 E5.26315
G1 X98.021 Y241.681 E.06252
G1 X96.901 Y240.601 E.06252
G1 X96.452 Y239 E.06684
G1 X96.452 Y91 E5.94849
G1 X96.845 Y89.495 E.06252
G1 X97.755 Y88.552 E.05269
G1 X98.133 Y88.978 F36000
G1 F3000
G1 X98.436 Y88.709 E.01627
G1 X99.526 Y88.463 E.0449
G1 X230.474 Y88.463 E5.26315
G1 X231.829 Y88.855 E.05669
G1 X232.765 Y89.91 E.05669
G1 X233.011 Y91 E.0449
G1 X233.011 Y239 E5.94849
M73 P1 R45
G1 X232.619 Y240.355 E.05669
G1 X231.564 Y241.291 E.05669
G1 X230.474 Y241.537 E.0449
G1 X99.526 Y241.537 E5.26315
G1 X98.171 Y241.145 E.05669
G1 X97.235 Y240.09 E.05669
G1 X96.989 Y239 E.0449
G1 X96.989 Y91 E5.94849
G1 X97.381 Y89.645 E.05669
G1 X98.096 Y89.011 E.03841
; printing object rail id:0 copy 0
G1 E-.4 F4200
EXCLUDE_OBJECT_START NAME=rail_id_0_copy_0
G1 X100.99 Y237.536 F36000
G1 E.4 F4200
;TYPE:Inner wall
;WIDTH:0.579999
G1 F7200
G1 X100.99 Y92.464 E5.83079
G1 X106.182 Y92.464 E.20867
G1 X106.182 Y237.536 E5.83079
G1 X103.586 Y237.536 E.10433
G1 X101 Y237.536 E.10393
G1 X100.453 Y238.073 F36000
G1 F7200
G1 X100.453 Y91.927 E5.87396
G1 X106.719 Y91.927 E.25184
G1 X106.719 Y238.073 E5.87396
G1 X103.586 Y238.073 E.12592
G1 X100.463 Y238.073 E.12552
G1 X99.916 Y238.61 F36000
;TYPE:Outer wall
G1 F7200
G1 X99.916 Y91.39 E5.91714
G1 X107.256 Y91.39 E.29501
G1 X107.256 Y238.61 E5.91714
G1 X103.586 Y238.61 E.14751
G1 X99.926 Y238.61 E.1471
G1 E-.4 F4200
G1 X106.021 Y93.712 F36000
M73 P1 R44
G1 E.4 F4200
;TYPE:Bottom surface
;WIDTH:0.580343
G1 F7200
G1 X105.176 Y92.867 E.04805
G1 X104.416 Y92.867 E.03057
G1 X105.779 Y94.23 E.07753
G1 X105.779 Y94.99 E.03057
G1 X103.656 Y92.867 E.12076
G1 X102.896 Y92.867 E.03057
G1 X105.779 Y95.75 E.16398
G1 X105.779 Y96.51 E.03057
G1 X102.136 Y92.867 E.20721
G1 X101.393 Y92.867 E.02988
G1 X101.393 Y92.884 E.00069
G1 X105.779 Y97.27 E.24947
G1 X105.779 Y98.03 E.03057
G1 X101.393 Y93.644 E.24947
G1 X101.393 Y94.404 E.03057
G1 X105.779 Y98.79 E.24947
G1 X105.779 Y99.55 E.03057
G1 X101.393 Y95.164 E.24947
G1 X101.393 Y95.924 E.03057
G1 X105.779 Y100.31 E.24947
G1 X105.779 Y101.07 E.03057
G1 X101.393 Y96.684 E.24947
G1 X101.393 Y97.444 E.03057
G1 X105.779 Y101.83 E.24947
G1 X105.779 Y102.59 E.03057
G1 X101.393 Y98.204 E.24947
G1 X101.393 Y98.964 E.03057
G1 X105.779 Y103.35 E.24947
G1 X105.779 Y104.11 E.03057
G1 X101.393 Y99.724 E.24947
G1 X101.393 Y100.484 E.03057
G1 X105.779 Y104.87 E.24947
G1 X105.779 Y105.63 E.03057
G1 X101.393 Y101.244 E.24947
G1 X101.393 Y102.004 E.03057
G1 X105.779 Y106.391 E.24947
G1 X105.779 Y107.151 E.03057
G1 X101.393 Y102.764 E.24947
G1 X101.393 Y103.525 E.03057
G1 X105.779 Y107.911 E.24947
G1 X105.779 Y108.671 E.03057
G1 X101.393 Y104.285 E.24947
G1 X101.393 Y105.045 E.03057
G1 X105.779 Y109.431 E.24947
G1 X105.779 Y110.191 E.03057
G1 X101.393 Y105.805 E.24947
G1 X101.393 Y106.565 E.03057
G1 X105.779 Y110.951 E.24947
G1 X105.779 Y111.711 E.03057
G1 X101.393 Y107.325 E.24947
G1 X101.393 Y108.085 E.03057
G1 X105.779 Y112.471 E.24947
G1 X105.779 Y113.231 E.03057
G1 X101.393 Y108.845 E.24947
G1 X101.393 Y109.605 E.03057
G1 X105.779 Y113.991 E.24947
G1 X105.779 Y114.751 E.03057
G1 X101.393 Y110.365 E.24947
G1 X101.393 Y111.125 E.03057
G1 X105.779 Y115.511 E.24947
G1 X105.779 Y116.271 E.03057
G1 X101.393 Y111.885 E.24947
G1 X101.393 Y112.645 E.03057
G1 X105.779 Y117.031 E.24947
G1 X105.779 Y117.791 E.03057
G1 X101.393 Y113.405 E.24947
G1 X101.393 Y114.165 E.03057
G1 X105.779 Y118.551 E.24947
G1 X105.779 Y119.311 E.03057
G1 X101.393 Y114.925 E.24947
G1 X101.393 Y115.685 E.03057
G1 X105.779 Y120.071 E.24947
G1 X105.779 Y120.831 E.03057
G1 X101.393 Y116.445 E.24947
G1 X101.393 Y117.205 E.03057
G1 X105.779 Y121.591 E.24947
G1 X105.779 Y122.351 E.03057
G1 X101.393 Y117.965 E.24947
G1 X101.393 Y118.725 E.03057
G1 X105.779 Y123.111 E.24947
G1 X105.779 Y123.871 E.03057
G1 X101.393 Y119.485 E.24947
G1 X101.393 Y120.245 E.03057
G1 X105.779 Y124.631 E.24947
G1 X105.779 Y125.391 E.03057
G1 X101.393 Y121.005 E.24947
G1 X101.393 Y121.765 E.03057
G1 X105.779 Y126.151 E.24947
G1 X105.779 Y126.911 E.03057
G1 X101.393 Y122.525 E.24947
G1 X101.393 Y123.285 E.03057
G1 X105.779 Y127.671 E.24947
G1 X105.779 Y128.431 E.03057
G1 X101.393 Y124.045 E.24947
G1 X101.393 Y124.805 E.03057
G1 X105.779 Y129.191 E.24947
G1 X105.779 Y129.951 E.03057
G1 X101.393 Y125.565 E.24947
G1 X101.393 Y126.325 E.03057
G1 X105.779 Y130.712 E.24947
G1 X105.779 Y131.472 E.03057
G1 X101.393 Y127.085 E.24947
G1 X101.393 Y127.846 E.03057
G1 X105.779 Y132.232 E.24947
G1 X105.779 Y132.992 E.03057
G1 X101.393 Y128.606 E.24947
G1 X101.393 Y129.366 E.03057
G1 X105.779 Y133.752 E.24947
G1 X105.779 Y134.512 E.03057
G1 X101.393 Y130.126 E.24947
G1 X101.393 Y130.886 E.03057
G1 X105.779 Y135.272 E.24947
G1 X105.779 Y136.032 E.03057
G1 X101.393 Y131.646 E.24947
G1 X101.393 Y132.406 E.03057
G1 X105.779 Y136.792 E.24947
G1 X105.779 Y137.552 E.03057
G1 X101.393 Y133.166 E.24947
G1 X101.393 Y133.926 E.03057
G1 X105.779 Y138.312 E.24947
G1 X105.779 Y139.072 E.03057
G1 X101.393 Y134.686 E.24947
G1 X101.393 Y135.446 E.03057
