; HEADER_BLOCK_START
; generated by OrcaSlicer 1.8.1 on 2024-01-23 at 23:23:37
; total layer number: 63
; HEADER_BLOCK_END

; THUMBNAIL_BLOCK_START

;
; THUMBNAIL_BLOCK_END

; external perimeters extrusion width = 0.52mm
; perimeters extrusion width = 0.52mm
; infill extrusion width = 0.55mm
; solid infill extrusion width = 0.55mm
; top infill extrusion width = 0.55mm
; first layer extrusion width = 0.58mm

; external perimeters extrusion width = 0.52mm
; perimeters extrusion width = 0.52mm
; infill extrusion width = 0.55mm
; solid infill extrusion width = 0.55mm
; top infill extrusion width = 0.55mm
; first layer extrusion width = 0.58mm

; EXECUTABLE_BLOCK_START
EXCLUDE_OBJECT_DEFINE NAME=sensor_housing__6mm_collet__x1_rev1.STL_id_0_copy_0 CENTER=174.41,165 POLYGON=[[165.15,149.8],[165.45,149.5],[176.15,149.5],[179.698,150.647],[179.812,150.687],[179.846,150.699],[179.954,150.743],[179.991,150.759],[180.092,150.807],[180.132,150.827],[180.226,150.877],[180.27,150.902],[180.357,150.954],[180.404,150.984],[180.484,151.038],[180.534,151.073],[180.607,151.128],[180.658,151.169],[180.725,151.224],[180.778,151.271],[180.837,151.326],[180.892,151.379],[180.945,151.433],[181,151.493],[181.047,151.546],[181.102,151.612],[181.143,151.664],[181.198,151.737],[181.233,151.786],[181.287,151.866],[181.316,151.913],[181.369,152],[181.394,152.044],[181.444,152.138],[181.464,152.179],[181.511,152.28],[181.527,152.317],[181.571,152.425],[181.584,152.458],[181.624,152.573],[181.633,152.602],[181.668,152.724],[181.675,152.748],[181.705,152.876],[181.709,152.896],[183.631,163.415],[183.634,163.435],[183.644,163.496],[183.65,163.538],[183.653,163.557],[183.659,163.619],[183.663,163.663],[183.664,163.68],[183.668,163.742],[183.67,163.788],[183.67,163.804],[183.67,163.866],[183.67,170.412],[183.663,170.537],[183.65,170.662],[183.631,170.785],[183.605,170.907],[183.605,170.907],[183.573,171.028],[183.573,171.028],[183.534,171.147],[183.534,171.147],[182.744,173.243],[182.736,173.263],[182.727,173.282],[182.717,173.3],[182.706,173.318],[182.694,173.335],[182.681,173.352],[182.668,173.368],[176.45,180.2],[176.15,180.5],[165.451,180.5],[165.15,180.2],[165.15,149.8]]
EXCLUDE_OBJECT_DEFINE NAME=sensor_housing__5mm_collet__x1_rev1.STL_id_1_copy_0 CENTER=155.24,165 POLYGON=[[146.33,152.1],[146.63,151.8],[155.93,151.8],[160.027,152.902],[160.095,152.922],[160.177,152.947],[160.231,152.965],[160.325,152.999],[160.365,153.015],[160.47,153.059],[160.496,153.071],[160.612,153.127],[160.625,153.133],[160.75,153.202],[160.872,153.276],[160.884,153.284],[160.99,153.356],[161.013,153.373],[161.105,153.442],[161.138,153.469],[161.215,153.533],[161.257,153.571],[161.32,153.629],[161.371,153.679],[161.421,153.73],[161.479,153.793],[161.517,153.835],[161.581,153.912],[161.608,153.946],[161.677,154.037],[161.694,154.06],[161.766,154.166],[161.774,154.178],[161.848,154.3],[161.917,154.425],[161.923,154.438],[161.979,154.554],[161.991,154.58],[162.035,154.685],[162.051,154.725],[162.085,154.819],[162.103,154.873],[162.129,154.955],[162.148,155.024],[162.165,155.093],[162.184,155.176],[164.102,164.274],[164.11,164.315],[164.114,164.335],[164.124,164.396],[164.13,164.438],[164.132,164.457],[164.139,164.519],[164.143,164.563],[164.144,164.58],[164.148,164.642],[164.149,164.688],[164.15,164.704],[164.15,164.766],[164.149,171.312],[164.143,171.437],[164.13,171.562],[164.11,171.685],[164.11,171.685],[164.084,171.807],[164.084,171.807],[164.052,171.928],[164.052,171.928],[164.014,172.047],[164.014,172.047],[163.223,174.143],[163.215,174.163],[163.206,174.182],[163.196,174.2],[163.186,174.218],[163.174,174.235],[163.161,174.252],[163.147,174.268],[163.133,174.283],[163.118,174.297],[163.102,174.311],[163.085,174.324],[163.068,174.335],[163.05,174.346],[163.032,174.356],[155.93,178.2],[146.631,178.2],[146.33,177.9],[146.33,152.1]]
M73 P0 R8
;TYPE:Custom
M104 S0
M140 S0
START_PRINT BED=75 HOTEND=220
G90
G21
M83 ; use relative distances for extrusion
; filament start gcode
SET_PRESSURE_ADVANCE ADVANCE=0.036; Override pressure advance value
T0
M106 S0
;LAYER_CHANGE
;Z:0.2
;HEIGHT:0.2
;BEFORE_LAYER_CHANGE
;0.2
G92 E0

;DSLR_SNAPSHOT
TIMELAPSE_TAKE_FRAME
;_SET_FAN_SPEED_CHANGING_LAYER
SET_VELOCITY_LIMIT ACCEL=10000 ACCEL_TO_DECEL=5000
SET_VELOCITY_LIMIT SQUARE_CORNER_VELOCITY=10
G1 E-.4 F4200
G1 X147.337 Y149.803 F48000
G1 Z.2
G1 E.4 F4200
;TYPE:Skirt
;WIDTH:0.58
G1 F3000
G1 X149.493 Y148.88 E.10476
G1 X168.986 Y146.58 E.87656
G1 X178.866 Y146.554 E.4412
G1 X179.964 Y146.656 E.04927
G1 X181.021 Y146.927 E.04869
G1 X182.15 Y147.43 E.05521
G1 X183.058 Y148.033 E.04869
G1 X184.006 Y148.932 E.05835
G1 X184.656 Y149.807 E.04869
G1 X185.161 Y150.774 E.04869
G1 X185.543 Y151.949 E.05521
G1 X187.528 Y162.783 E.49188
G1 X187.618 Y163.785 E.0449
G1 X187.618 Y170.408 E.29577
G1 X187.536 Y171.364 E.04286
G1 X187.293 Y172.356 E.04561
G1 X186.445 Y174.617 E.10785
G1 X185.803 Y175.767 E.0588
G1 X185.037 Y176.532 E.04836
G1 X184.459 Y176.914 E.03096
G1 X174.116 Y182.562 E.52628
G1 X172.84 Y183.008 E.06036
G1 X171.867 Y183.146 E.04387
G1 X170.51 Y183.194 E.06064
G1 X169.33 Y183.1 E.05288
G1 X149.502 Y180.054 E.89585
G1 X147.582 Y179.312 E.09194
G1 X146.368 Y177.968 E.08086
G1 X145.831 Y175.927 E.09426
G1 X145.831 Y153 E1.02387
G1 X146.226 Y151.233 E.08086
G1 X147.306 Y149.842 E.07863
G1 X147.742 Y150.215 F48000
G1 F3000
G1 X147.86 Y150.076 E.00814
G1 X149.556 Y149.414 E.08133
G1 X169.049 Y147.114 E.87656
G1 X178.866 Y147.091 E.43839
G1 X179.867 Y147.184 E.04489
G1 X180.841 Y147.433 E.04493
G1 X181.894 Y147.901 E.05145
G1 X182.731 Y148.459 E.04493
G1 X183.471 Y149.141 E.04492
G1 X184.198 Y150.088 E.05334
G1 X184.665 Y150.979 E.04493
G1 X185.021 Y152.075 E.05145
G1 X186.999 Y162.88 E.49054
G1 X187.081 Y163.795 E.04105
G1 X187.081 Y170.408 E.2953
G1 X187.007 Y171.27 E.03864
G1 X186.782 Y172.191 E.04235
G1 X185.942 Y174.427 E.10669
G1 X185.377 Y175.44 E.05179
G1 X184.71 Y176.106 E.0421
G1 X184.201 Y176.443 E.02725
G1 X173.858 Y182.091 E.52628
G1 X172.748 Y182.479 E.05255
G1 X171.823 Y182.61 E.04171
G1 X170.516 Y182.657 E.05838
G1 X169.405 Y182.568 E.04979
G1 X149.584 Y179.523 E.89557
G1 X149.346 Y179.482 E.01076
G1 X147.8 Y178.806 E.07538
G1 X146.729 Y177.501 E.07538
G1 X146.368 Y175.927 E.07212
G1 X146.368 Y153 E1.02387
M73 P1 R8
G1 X146.763 Y151.359 E.07538
G1 X147.709 Y150.253 E.06501
G1 X148.117 Y150.646 F48000
G1 F3000
G1 X148.379 Y150.376 E.01681
G1 X149.619 Y149.947 E.05862
G1 X169.112 Y147.647 E.87656
G1 X178.866 Y147.628 E.43557
G1 X179.913 Y147.738 E.04703
G1 X180.8 Y147.988 E.04116
G1 X181.777 Y148.454 E.04832
G1 X182.529 Y148.986 E.04116
G1 X183.189 Y149.63 E.04116
G1 X183.789 Y150.449 E.04535
G1 X184.225 Y151.32 E.04349
G1 X184.532 Y152.358 E.04832
G1 X186.511 Y163.263 E.49497
G1 X186.544 Y170.408 E.31907
G1 X186.478 Y171.175 E.03441
G1 X186.306 Y171.917 E.03399
G1 X185.404 Y174.328 E.11497
G1 X184.983 Y175.071 E.03816
G1 X184.383 Y175.68 E.03815
G1 X173.601 Y181.619 E.54974
G1 X172.655 Y181.95 E.04473
G1 X171.455 Y182.102 E.05403
G1 X170.378 Y182.115 E.04811
G1 X169.319 Y182.013 E.04748
G1 X149.665 Y178.992 E.88803
G1 X149.441 Y178.953 E.01019
G1 X148.028 Y178.302 E.06946
G1 X147.115 Y177.043 E.06946
G1 X146.905 Y175.927 E.05071
G1 X146.905 Y153 E1.02387
G1 X147.299 Y151.495 E.06946
G1 X148.083 Y150.682 E.05042
G1 X148.451 Y151.098 F48000
G1 F3000
G1 X148.89 Y150.709 E.02618
G1 X149.682 Y150.48 E.03683
G1 X169.175 Y148.18 E.87656
G1 X178.865 Y148.165 E.43275
G1 X179.815 Y148.267 E.04265
G1 X180.621 Y148.494 E.0374
G1 X181.496 Y148.912 E.04331
G1 X182.18 Y149.395 E.0374
G1 X182.781 Y149.979 E.0374
G1 X183.331 Y150.73 E.04159
G1 X183.728 Y151.526 E.03973
G1 X184.004 Y152.456 E.04331
G1 X185.943 Y163.072 E.48194
G1 X186.008 Y163.865 E.03554
G1 X186.007 Y170.408 E.29219
G1 X185.95 Y171.081 E.03019
G1 X185.76 Y171.861 E.03583
G1 X184.888 Y174.171 E.11027
G1 X184.557 Y174.744 E.02959
G1 X184.056 Y175.254 E.03189
G1 X173.344 Y181.148 E.54604
G1 X172.563 Y181.421 E.03692
G1 X171.411 Y181.567 E.05187
G1 X170.409 Y181.578 E.04472
G1 X169.395 Y181.481 E.04552
G1 X149.747 Y178.462 E.88774
G1 X149.535 Y178.424 E.00962
G1 X148.269 Y177.801 E.06299
G1 X147.442 Y175.927 E.09148
G1 X147.442 Y153 E1.02387
M73 P2 R8
G1 X147.835 Y151.645 E.06299
G1 X148.414 Y151.131 E.03458
; printing object sensor_housing_(6mm_collet)_x1_rev1.STL id:0 copy 0
G1 E-.4 F4200
EXCLUDE_OBJECT_START NAME=sensor_housing__6mm_collet__x1_rev1.STL_id_0_copy_0
G1 X181.054 Y167.691 F48000
G1 E.4 F4200
;TYPE:Inner wall
;WIDTH:0.697099
G1 F7200
G2 X180.398 Y167.816 I.071 J2.158 E.0365
G1 X180.398 Y167.396 E.02286
;WIDTH:0.699606
G1 X180.394 Y166.842 E.03024
G1 X180.255 Y166.348 E.02802
G1 X180.799 Y166.496 E.03077
G1 X181.066 Y166.513 E.01464
G1 X181.049 Y166.962 E.02451
;WIDTH:0.697099
G1 X181.054 Y167.681 E.03912
G1 E-.4 F4200
G1 X170.964 Y160.349 F48000
G1 E.4 F4200
;WIDTH:0.579999
G1 F7200
G1 X171.157 Y160.71 E.01824
G2 X172.201 Y161.786 I3.248 J-2.105 E.06742
G1 X172.909 Y162.154 E.03562
G1 X173.354 Y162.311 E.02109
G1 X174.179 Y162.436 E.03725
G1 X179.056 Y162.439 E.2178
G2 X178.639 Y163.651 I2.503 J1.538 E.05768
G1 X178.672 Y164.22 E.02546
G1 X178.791 Y164.732 E.02348
G2 X179.185 Y165.455 I2.478 J-.881 E.03693
G1 X179.381 Y165.632 E.01178
;WIDTH:0.531061
G1 X179.577 Y165.808 E.01071
G1 X179.353 Y165.669 E.01072
;WIDTH:0.579999
G1 X179.129 Y165.529 E.01179
G2 X176.899 Y164.486 I-11.673 J22.072 E.10999
G1 X176.139 Y164.297 E.03496
G1 X175.3 Y164.241 E.03753
G1 X174.632 Y164.308 E.03002
G1 X174.311 Y164.38 E.0147
G1 X173.709 Y164.61 E.02877
G1 X173.195 Y164.952 E.02755
G1 X172.887 Y165.246 E.01902
;WIDTH:0.627646
G1 X172.791 Y165.339 E.00651
;WIDTH:0.675293
G1 X172.695 Y165.432 E.00704
;WIDTH:0.722939
G1 X172.599 Y165.525 E.00757
;WIDTH:0.770586
G1 X172.503 Y165.619 E.0081
;WIDTH:0.818232
G1 X172.407 Y165.712 E.00863
G1 X172.239 Y166.155 E.03053
;WIDTH:0.812918
G1 X172.237 Y166.267 E.00717
;WIDTH:0.766335
G1 X172.236 Y166.379 E.00674
;WIDTH:0.719751
G1 X172.234 Y166.491 E.0063
;WIDTH:0.673167
G1 X172.232 Y166.602 E.00587
;WIDTH:0.626583
G1 X172.23 Y166.714 E.00543
;WIDTH:0.579999
G1 X172.228 Y167.525 E.03619
G2 X172.688 Y168.733 I3.046 J-.47 E.05816
G1 X172.928 Y169.029 E.01702
G1 X173.431 Y169.456 E.02946
G1 X173.942 Y169.716 E.0256
G1 X174.382 Y169.852 E.02058
G1 X175.06 Y169.956 E.03063
G1 X175.62 Y169.95 E.02503
G1 X176.317 Y169.832 E.03155
G2 X177.764 Y168.872 I-.777 J-2.74 E.07882
G2 X178.833 Y169.34 I2.526 J-4.314 E.05222
G1 X178.665 Y169.949 E.02825
G1 X178.643 Y170.416 E.02087
G1 X178.713 Y170.968 E.02483
G1 X178.838 Y171.354 E.01812
G1 X179.108 Y171.837 E.02472
G1 X174.611 Y171.838 E.20084
G1 X173.959 Y171.859 E.02913
G1 X173.372 Y171.963 E.02663
G1 X173.043 Y172.066 E.01538
G1 X172.503 Y172.315 E.02658
G1 X172.211 Y172.498 E.01537
G1 X171.752 Y172.877 E.02658
G1 X171.517 Y173.128 E.01537
G1 X171.169 Y173.61 E.02657
G1 X170.937 Y174.094 E.02395
G3 X170.964 Y173.453 I6.569 J-.038 E.02865
G1 X170.964 Y166.352 E.31714
G1 X171.14 Y166.168 E.01135
;WIDTH:0.626583
G1 X171.219 Y166.104 E.00495
;WIDTH:0.673167
G1 X171.298 Y166.04 E.00534
;WIDTH:0.719751
G1 X171.378 Y165.976 E.00573
;WIDTH:0.766335
G1 X171.457 Y165.912 E.00613
;WIDTH:0.812918
G1 X171.536 Y165.848 E.00652
;WIDTH:0.818232
G1 X171.685 Y165.45 E.02741
G1 X171.671 Y165.372 E.00509
;WIDTH:0.769709
G1 X171.656 Y165.294 E.00477
;WIDTH:0.721186
G1 X171.642 Y165.217 E.00446
;WIDTH:0.672663
G1 X171.58 Y164.957 E.01398
;WIDTH:0.626331
G1 X171.519 Y164.697 E.01295
;WIDTH:0.579999
G1 X171.326 Y164.341 E.01805
G1 X170.964 Y163.961 E.02346
G1 X170.964 Y160.359 E.16083
G1 E-.4 F4200
G1 X176.415 Y164.916 F48000
G1 E.4 F4200
G1 F7200
G1 X176.756 Y165.004 E.01573
G3 X179.358 Y166.245 I-12.056 J28.641 E.12878
G1 X179.65 Y166.494 E.01714
G3 X179.802 Y166.965 I-.654 J.471 E.02247
G1 X179.802 Y167.994 E.04597
G1 X179.772 Y168.176 E.00824
;WIDTH:0.561608
G1 X179.671 Y168.383 E.00992
;WIDTH:0.526914
G1 X179.431 Y168.628 E.01381
;WIDTH:0.54582
G1 X179.264 Y168.736 E.0083
;WIDTH:0.579999
G1 X179.021 Y168.799 E.01125
G1 X178.793 Y168.773 E.01024
G3 X177.571 Y168.155 I6.095 J-13.56 E.06116
G1 X177.324 Y168.581 E.02197
G1 X176.952 Y168.94 E.0231
G1 X176.417 Y169.232 E.02724
G1 X175.77 Y169.397 E.02978
G1 X175.055 Y169.418 E.03197
G3 X174.182 Y169.236 I.303 J-3.628 E.03994
G1 X173.706 Y168.995 E.02381
G1 X173.294 Y168.636 E.02443
G1 X172.96 Y168.139 E.02672
G1 X172.766 Y167.478 E.03077
G1 X172.767 Y166.737 E.03311
G1 X172.932 Y166.144 E.02749
G1 X173.054 Y165.914 E.01162
G1 X173.41 Y165.466 E.02554
G1 X173.873 Y165.137 E.02539
G1 X174.492 Y164.886 E.02982
G1 X175.354 Y164.776 E.03879
G1 X176.087 Y164.832 E.03283
G1 X176.405 Y164.914 E.01468
G1 E-.4 F4200
G1 X177.202 Y167.278 F48000
G1 E.4 F4200
;TYPE:Outer wall
G1 F7200
G1 X177.185 Y167.694 E.01858
G1 X176.946 Y168.199 E.02494
G1 X176.585 Y168.54 E.02221
G1 X176.1 Y168.78 E.02415
G1 X175.61 Y168.876 E.02229
G1 X175.047 Y168.881 E.02514
G1 X174.491 Y168.779 E.02525
G1 X173.999 Y168.544 E.02437
G1 X173.612 Y168.184 E.02363
G1 X173.391 Y167.789 E.02018
G1 X173.282 Y167.293 E.02269
G1 X173.303 Y166.759 E.02388
G1 X173.441 Y166.315 E.02075
G1 X173.742 Y165.895 E.02307
G1 X174.178 Y165.579 E.02403
G1 X174.674 Y165.391 E.02368
G1 X175.407 Y165.31 E.03294
G1 X176.034 Y165.366 E.02813
G3 X177.109 Y165.73 I-.813 J4.174 E.05083
G3 X179.117 Y166.725 I-35.274 J73.711 E.10006
G1 X179.236 Y166.843 E.00751
G3 X179.265 Y167.994 I-10.984 J.852 E.05142
G1 X179.229 Y168.128 E.0062
G1 X179.088 Y168.246 E.00824
G1 X178.929 Y168.254 E.00711
G3 X177.242 Y167.297 I4.485 J-9.872 E.08669
G1 X177.211 Y167.283 E.00154
G1 E-.4 F4200
G1 X180.742 Y172.375 F48000
G1 E.4 F4200
;TYPE:Inner wall
G1 F7200
G2 X174.052 Y172.388 I-1.885 J792.564 E.29873
G1 X173.268 Y172.553 E.03581
G1 X172.553 Y172.912 E.03574
G1 X171.952 Y173.442 E.03574
G2 X171.467 Y174.21 I2.56 J2.155 E.04071
;WIDTH:0.623981
G1 X171.399 Y174.341 E.00714
;WIDTH:0.667963
G1 X171.332 Y174.473 E.00768
;WIDTH:0.711945
G1 X171.264 Y174.604 E.00822
;WIDTH:0.755927
G1 X171.197 Y174.736 E.00876
G1 X171.137 Y175.371 E.03783
;WIDTH:0.713399
G1 X171.135 Y177.715 E.13069
;WIDTH:0.712433
G1 X171.135 Y178.046 E.0184
G1 X170.466 Y178.041 E.03726
G1 X170.466 Y177.715 E.01818
;WIDTH:0.713399
G1 X170.466 Y175.371 E.13069
;WIDTH:0.719453
G1 X170.469 Y175.201 E.00957
;WIDTH:0.755927
G1 X170.487 Y174.686 E.03056
G1 X170.466 Y174.511 E.01045
;WIDTH:0.711945
G1 X170.444 Y174.336 E.00981
;WIDTH:0.667963
G1 X170.422 Y174.161 E.00916
;WIDTH:0.623981
G1 X170.4 Y173.986 E.00852
;WIDTH:0.579999
G1 X170.427 Y173.453 E.02382
G1 X170.427 Y166.137 E.32673
G1 X170.962 Y165.535 E.03595
G1 X171.059 Y165.189 E.01607
G1 X171.013 Y164.878 E.01402
G1 X170.824 Y164.581 E.01574
G1 X170.427 Y164.183 E.02509
G1 X170.427 Y160.392 E.16931
;WIDTH:0.628195
G1 X170.451 Y160.129 E.01286
;WIDTH:0.676391
G1 X170.475 Y159.866 E.01392
;WIDTH:0.724586
G1 X170.499 Y159.602 E.01498
G1 X170.475 Y158.867 E.04173
;WIDTH:0.676535
G1 X170.475 Y156.547 E.1222
;WIDTH:0.676291
G1 X170.474 Y156.503 E.00232
;WIDTH:0.689085
G1 X170.454 Y155.983 E.02796
G1 X170.454 Y154.274 E.09181
;WIDTH:0.688323
G1 X170.447 Y153.874 E.0215
;WIDTH:0.674867
G1 X170.447 Y152.958 E.04813
;WIDTH:0.703606
G1 X170.461 Y152.65 E.01695
;WIDTH:0.732344
G1 X170.476 Y152.341 E.01769
;WIDTH:0.775453
G1 X170.497 Y151.725 E.03756
G1 X171.591 Y151.725 E.06661
G1 X171.504 Y151.804 E.00713
G1 X171.195 Y152.248 E.03295
G1 X171.155 Y152.423 E.01096
;WIDTH:0.732344
G1 X171.117 Y152.691 E.01547
;WIDTH:0.703606
G1 X171.079 Y152.958 E.01483
;WIDTH:0.688323
G1 X171.099 Y154.274 E.07064
;WIDTH:0.689085
G2 X171.107 Y156.547 I92.91 J.792 E.12212
;WIDTH:0.676535
G1 X171.109 Y158.866 E.1222
;WIDTH:0.682925
G1 X171.115 Y158.992 E.00667
;WIDTH:0.724586
G1 X171.177 Y159.552 E.03198
G1 X171.218 Y159.64 E.00547
;WIDTH:0.690057
G1 X171.259 Y159.727 E.0052
;WIDTH:0.655528
G1 X171.423 Y160.058 E.01878
;WIDTH:0.617764
G1 X171.587 Y160.388 E.01762
;WIDTH:0.579999
G1 X172.071 Y160.992 E.03456
G1 X172.71 Y161.474 E.03574
G1 X173.448 Y161.782 E.03574
G1 X174.179 Y161.899 E.03306
G1 X179.275 Y161.902 E.22757
