; HEADER_BLOCK_START
; generated by OrcaSlicer 1.8.1 on 2023-12-28 at 10:51:46
; total layer number: 100
; HEADER_BLOCK_END

; THUMBNAIL_BLOCK_START

;
; THUMBNAIL_BLOCK_END

; external perimeters extrusion width = 0.52mm
; perimeters extrusion width = 0.52mm
; infill extrusion width = 0.55mm
; solid infill extrusion width = 0.55mm
; top infill extrusion width = 0.55mm
; first layer extrusion width = 0.58mm

; EXECUTABLE_BLOCK_START
EXCLUDE_OBJECT_DEFINE NAME=Shelf_Bracket_no_gap.stl_id_0_copy_0 CENTER=165,165 POLYGON=[[102,105],[113,105],[113.56,105.031],[114.113,105.125],[114.651,105.281],[115.169,105.495],[115.66,105.766],[116.117,106.091],[116.536,106.464],[226.536,216.464],[226.909,216.883],[227.234,217.34],[227.505,217.831],[227.719,218.349],[227.875,218.887],[227.969,219.44],[228,220],[228,225],[102,225],[102,105]]
M73 P0 R41
;TYPE:Custom
M104 S0
M140 S0
START_PRINT BED=75 HOTEND=215
G90
G21
M83 ; use relative distances for extrusion
; filament start gcode
SET_PRESSURE_ADVANCE ADVANCE=0.032; Override pressure advance value
M106 S0
;LAYER_CHANGE
;Z:0.2
;HEIGHT:0.2
;BEFORE_LAYER_CHANGE
;0.2
G92 E0

;DSLR_SNAPSHOT
TIMELAPSE_TAKE_FRAME
;_SET_FAN_SPEED_CHANGING_LAYER
SET_VELOCITY_LIMIT ACCEL=8000 ACCEL_TO_DECEL=4000
SET_VELOCITY_LIMIT SQUARE_CORNER_VELOCITY=10
G1 E-.4 F4200
G1 X99.357 Y103.195 F24000
G1 Z.2
G1 E.4 F4200
;TYPE:Skirt
;WIDTH:0.58
G1 F3000
G1 X100.971 Y102.374 E.07278
G1 X102 Y102.245 E.04169
G1 X113.233 Y102.251 E.45147
G1 X114.498 Y102.394 E.05116
G1 X116.153 Y102.918 E.06977
G1 X117.32 Y103.563 E.05359
G1 X118.484 Y104.516 E.06049
G1 X228.644 Y214.685 E6.26184
G1 X229.437 Y215.68 E.05116
G1 X230.082 Y216.847 E.05359
G1 X230.503 Y218.049 E.05116
G1 X230.749 Y219.767 E.06977
G1 X230.755 Y225 E.21031
G1 X230.36 Y226.767 E.07278
G1 X229.25 Y228.197 E.07278
G1 X227.636 Y229.019 E.07278
G1 X226.607 Y229.148 E.04169
G1 X102 Y229.148 E5.00827
G1 X100.233 Y228.753 E.07278
G1 X98.803 Y227.643 E.07278
G1 X97.981 Y226.029 E.07278
G1 X97.852 Y225 E.04169
G1 X97.852 Y106.393 E4.76712
G1 X98.247 Y104.626 E.07278
G1 X99.326 Y103.235 E.07077
G1 X99.762 Y103.608 F24000
G1 F3000
G1 X99.88 Y103.469 E.00732
G1 X102 Y102.782 E.08956
G1 X113.202 Y102.787 E.45026
G1 X114.408 Y102.923 E.04874
G1 X115.947 Y103.414 E.06494
G1 X117.009 Y104.001 E.04876
G1 X118.104 Y104.896 E.05686
G1 X228.243 Y215.043 E6.26063
G1 X228.999 Y215.991 E.04874
G1 X229.586 Y217.053 E.04876
G1 X229.987 Y218.198 E.04874
G1 X230.213 Y219.797 E.06494
G1 X230.218 Y225 E.2091
G1 X229.824 Y226.641 E.06784
G1 X228.727 Y227.924 E.06784
G1 X226.607 Y228.611 E.08956
G1 X102 Y228.611 E5.00827
G1 X100.359 Y228.217 E.06784
G1 X99.076 Y227.12 E.06784
G1 X98.389 Y225 E.08956
G1 X98.389 Y106.393 E4.76712
G1 X98.783 Y104.752 E.06784
G1 X99.73 Y103.646 E.05851
G1 X100.138 Y104.039 F24000
G1 F3000
G1 X100.399 Y103.768 E.01512
G1 X102 Y103.319 E.06684
G1 X113.172 Y103.324 E.44905
G1 X114.318 Y103.453 E.04632
G1 X115.741 Y103.91 E.06011
G1 X116.698 Y104.439 E.04393
G1 X117.724 Y105.276 E.05323
G1 X227.843 Y215.401 E6.25942
G1 X228.561 Y216.302 E.04632
G1 X229.09 Y217.259 E.04393
G1 X229.471 Y218.346 E.04632
G1 X229.676 Y219.828 E.06011
G1 X229.681 Y225 E.20789
G1 X229.288 Y226.505 E.06252
G1 X228.208 Y227.624 E.06252
G1 X226.607 Y228.074 E.06684
G1 X102 Y228.074 E5.00827
G1 X100.495 Y227.681 E.06252
G1 X99.376 Y226.601 E.06252
G1 X98.926 Y225 E.06684
G1 X98.926 Y106.393 E4.76712
M73 P1 R41
G1 X99.319 Y104.888 E.06252
G1 X100.103 Y104.075 E.04538
G1 X100.472 Y104.491 F24000
G1 F3000
G1 X100.91 Y104.102 E.02356
G1 X102 Y103.856 E.0449
G1 X113.142 Y103.86 E.44783
G1 X114.228 Y103.982 E.0439
G1 X115.536 Y104.406 E.05528
G1 X116.387 Y104.877 E.03909
G1 X117.345 Y105.655 E.0496
G1 X227.442 Y215.759 E6.25821
G1 X228.123 Y216.613 E.0439
G1 X228.594 Y217.464 E.03909
G1 X228.955 Y218.495 E.0439
G1 X229.086 Y219.171 E.02769
G1 X229.144 Y220 E.03339
G1 X229.144 Y225 E.20096
G1 X228.752 Y226.355 E.05669
G1 X227.697 Y227.291 E.05669
G1 X226.607 Y227.537 E.0449
G1 X102 Y227.537 E5.00827
G1 X100.645 Y227.145 E.05669
G1 X99.709 Y226.09 E.05669
G1 X99.463 Y225 E.0449
G1 X99.463 Y106.393 E4.76712
G1 X99.855 Y105.038 E.05669
G1 X100.434 Y104.524 E.03113
; printing object Shelf_Bracket_no_gap.stl id:0 copy 0
G1 E-.4 F4200
EXCLUDE_OBJECT_START NAME=Shelf_Bracket_no_gap.stl_id_0_copy_0
G1 X103.464 Y223.536 F24000
G1 E.4 F4200
;TYPE:Inner wall
;WIDTH:0.579999
G1 F4800
G1 X103.464 Y107.857 E4.64942
G1 X112.921 Y107.857 E.38011
G1 X113.475 Y107.919 E.0224
G1 X113.93 Y108.079 E.01937
G1 X114.493 Y108.471 E.0276
G1 X114.807 Y108.865 E.02023
G1 X115.014 Y109.295 E.01921
G3 X115.143 Y110.041 I-4.665 J1.187 E.03046
G1 X115.143 Y135.627 E1.02837
G1 X115.152 Y135.78 E.00615
G1 X115.276 Y136.21 E.01799
G1 X115.536 Y136.577 E.01807
G1 X196.423 Y217.464 E4.59768
G1 X196.839 Y217.747 E.02022
G2 X197.373 Y217.857 I.533 J-1.232 E.02204
G1 X222.921 Y217.857 E1.02686
G1 X223.475 Y217.919 E.0224
G1 X223.926 Y218.077 E.0192
G1 X224.331 Y218.331 E.01921
G1 X224.669 Y218.669 E.01921
G1 X224.923 Y219.074 E.01921
G1 X225.081 Y219.525 E.0192
G1 X225.143 Y220.211 E.02767
G1 X225.143 Y223.536 E.13365
G1 X103.474 Y223.536 E4.89017
G1 X102.927 Y224.073 F24000
G1 F4800
G1 X102.927 Y107.32 E4.69259
G1 X112.951 Y107.32 E.4029
G1 X113.595 Y107.392 E.02604
G1 X114.163 Y107.591 E.02417
G3 X114.882 Y108.097 I-2.563 J4.407 E.03537
G1 X115.265 Y108.577 E.02468
G1 X115.525 Y109.117 E.02407
G3 X115.68 Y110.026 I-4.636 J1.26 E.03714
G1 X115.68 Y135.627 E1.02898
G2 X115.916 Y136.197 I.806 J0 E.02543
G1 X196.803 Y217.084 E4.59768
G1 X197.053 Y217.254 E.01213
G1 X197.373 Y217.32 E.01313
G1 X222.951 Y217.32 E1.02807
G1 X223.595 Y217.392 E.02604
G1 X224.161 Y217.59 E.02407
G1 X224.668 Y217.909 E.02407
G1 X225.091 Y218.332 E.02407
G1 X225.41 Y218.839 E.02407
G1 X225.608 Y219.405 E.02407
G3 X225.68 Y220.211 I-11.294 J1.421 E.03252
G1 X225.68 Y224.073 E.15524
G1 X102.937 Y224.073 E4.93334
G1 X102.39 Y224.61 F24000
;TYPE:Outer wall
G1 F4800
G1 X102.39 Y106.783 E4.73576
G1 X112.982 Y106.783 E.4257
G1 X113.715 Y106.865 E.02968
G1 X114.396 Y107.103 E.02897
G3 X115.27 Y107.723 I-2.44 J4.373 E.04315
G1 X115.722 Y108.289 E.02914
G1 X116.035 Y108.938 E.02894
G1 X116.197 Y109.647 E.02924
G1 X116.217 Y110.011 E.01463
G1 X116.217 Y135.627 E1.02958
G1 X116.296 Y135.817 E.00826
G1 X197.221 Y216.736 E4.59965
M73 P2 R41
G1 X197.373 Y216.783 E.0064
G1 X222.982 Y216.783 E1.02928
G1 X223.715 Y216.865 E.02968
G1 X224.395 Y217.103 E.02894
G1 X225.005 Y217.486 E.02894
G1 X225.514 Y217.995 E.02894
G1 X225.897 Y218.605 E.02894
G1 X226.135 Y219.285 E.02894
G3 X226.217 Y220.211 I-12.234 J1.557 E.03738
G1 X226.217 Y224.61 E.17683
G1 X102.4 Y224.61 E4.97652
M73 P2 R40
G1 E-.4 F4200
G1 X188.296 Y215.308 F24000
G1 E.4 F4200
;TYPE:Inner wall
G1 F4800
G1 X188.465 Y215.478 E.00963
G3 X188.845 Y216.239 I-1.103 J1.026 E.03467
G1 X188.823 Y216.734 E.01992
G1 X188.623 Y217.237 E.02176
G1 X188.361 Y217.567 E.01691
G1 X187.957 Y217.822 E.01922
G3 X187.454 Y217.92 I-.504 J-1.245 E.02075
G1 X116.423 Y217.92 E2.85491
G1 X115.93 Y217.826 E.02017
G1 X115.53 Y217.58 E.01886
G1 X115.267 Y217.26 E.01667
G1 X115.129 Y216.935 E.01419
G1 X115.08 Y216.577 E.01451
G1 X115.08 Y145.546 E2.85491
G1 X115.159 Y145.091 E.01858
G1 X115.372 Y144.71 E.01754
G1 X115.6 Y144.485 E.01288
G1 X116.059 Y144.244 E.02082
G1 X116.502 Y144.143 E.01826
G3 X117.522 Y144.535 I.071 J1.341 E.04523
G1 X188.289 Y215.301 E4.02243
G1 X187.916 Y215.688 F24000
G1 F4800
G1 X188.086 Y215.858 E.00963
G1 X188.274 Y216.153 E.01408
G1 X188.32 Y216.47 E.01286
G1 X188.3 Y216.612 E.00576
G1 X188.155 Y216.973 E.01567
G1 X187.998 Y217.171 E.01014
G1 X187.756 Y217.324 E.01153
G1 X187.454 Y217.383 E.01237
G1 X116.423 Y217.383 E2.85491
G1 X116.127 Y217.327 E.0121
G1 X115.887 Y217.179 E.01131
G1 X115.679 Y216.888 E.01438
G1 X115.617 Y216.577 E.01273
G1 X115.617 Y145.546 E2.85491
G1 X115.665 Y145.273 E.01115
G1 X115.823 Y145.008 E.01238
G1 X116.114 Y144.802 E.01436
G1 X116.53 Y144.68 E.01743
G1 X116.847 Y144.726 E.01286
G1 X117.142 Y144.914 E.01408
G1 X187.909 Y215.681 E4.02243
G1 X187.536 Y216.068 F24000
;TYPE:Outer wall
G1 F4800
G1 X187.706 Y216.237 E.00963
G1 X187.782 Y216.39 E.00684
G1 X187.777 Y216.489 E.00398
G1 X187.635 Y216.775 E.01286
G1 X187.454 Y216.846 E.00783
G1 X116.423 Y216.846 E2.85491
G1 X116.244 Y216.778 E.00768
G1 X116.157 Y216.619 E.00729
G1 X116.154 Y216.577 E.00167
G1 X116.154 Y145.546 E2.85491
G1 X116.223 Y145.367 E.00771
G1 X116.511 Y145.223 E.01297
G3 X116.763 Y145.294 I.061 J.261 E.01097
G1 X187.529 Y216.061 E4.02243
G1 E-.4 F4200
G1 X114.97 Y110.281 F24000
G1 E.4 F4200
;TYPE:Bottom surface
;WIDTH:0.581327
G1 F4800
G1 X112.956 Y108.266 E.11478
G1 X112.188 Y108.26 E.03094
G1 X114.729 Y110.801 E.14478
G1 X114.729 Y111.562 E.03069
G1 X111.426 Y108.26 E.18818
G1 X110.665 Y108.26 E.03068
G1 X114.729 Y112.324 E.23159
G1 X114.73 Y113.086 E.03069
G1 X109.904 Y108.26 E.275
G1 X109.142 Y108.26 E.03068
G1 X114.73 Y113.848 E.3184
G1 X114.73 Y114.61 E.03069
G1 X108.381 Y108.26 E.36181
G1 X107.619 Y108.26 E.03068
G1 X114.731 Y115.371 E.40522
G1 X114.731 Y116.133 E.03069
G1 X106.858 Y108.26 E.44863
G1 X106.096 Y108.26 E.03068
G1 X114.731 Y116.895 E.49203
G1 X114.732 Y117.657 E.03069
G1 X105.335 Y108.26 E.53544
G1 X104.574 Y108.26 E.03068
G1 X114.732 Y118.418 E.57885
G1 X114.733 Y119.18 E.03069
G1 X103.867 Y108.315 E.61913
G1 X103.867 Y109.076 E.03068
G1 X114.733 Y119.942 E.61915
G1 X114.733 Y120.704 E.03069
G1 X103.867 Y109.837 E.61917
G1 X103.867 Y110.599 E.03068
G1 X114.734 Y121.465 E.61919
G1 X114.734 Y122.227 E.03069
G1 X103.867 Y111.36 E.61921
G1 X103.867 Y112.122 E.03068
G1 X114.734 Y122.989 E.61923
G1 X114.735 Y123.751 E.03069
G1 X103.867 Y112.883 E.61925
G1 X103.867 Y113.645 E.03068
G1 X114.735 Y124.513 E.61927
G1 X114.735 Y125.274 E.03069
G1 X103.867 Y114.406 E.61929
G1 X103.867 Y115.167 E.03068
G1 X114.736 Y126.036 E.61931
G1 X114.736 Y126.798 E.03069
G1 X103.867 Y115.929 E.61933
G1 X103.867 Y116.69 E.03068
G1 X114.736 Y127.56 E.61935
G1 X114.737 Y128.321 E.03069
G1 X103.867 Y117.452 E.61937
G1 X103.867 Y118.213 E.03068
G1 X114.737 Y129.083 E.61939
G1 X114.737 Y129.845 E.03069
G1 X103.867 Y118.975 E.61941
G1 X103.867 Y119.736 E.03068
G1 X114.738 Y130.607 E.61943
G1 X114.738 Y131.369 E.03069
G1 X103.867 Y120.497 E.61945
G1 X103.867 Y121.259 E.03068
G1 X114.739 Y132.13 E.61947
G1 X114.739 Y132.892 E.03069
G1 X103.867 Y122.02 E.6195
G1 X103.867 Y122.782 E.03068
G1 X114.739 Y133.654 E.61952
G1 X114.74 Y134.416 E.03069
G1 X103.867 Y123.543 E.61954
G1 X103.867 Y124.304 E.03068
G1 X114.982 Y135.419 E.63333
G1 E-.4 F4200
G1 X222.708 Y218.018 F24000
G1 E.4 F4200
G1 F4800
G1 X224.734 Y220.044 E.11545
G1 X224.74 Y220.812 E.03094
G1 X222.188 Y218.26 E.14543
G1 X221.426 Y218.26 E.03068
G1 X224.74 Y221.574 E.18882
G1 X224.74 Y222.335 E.03068
G1 X220.665 Y218.26 E.23221
G1 X219.904 Y218.26 E.03068
G1 X224.74 Y223.096 E.27559
G1 X224.74 Y223.133 E.00148
G1 X224.015 Y223.133 E.0292
G1 X219.142 Y218.26 E.27768
G1 X218.381 Y218.26 E.03068
G1 X223.254 Y223.133 E.27768
G1 X222.492 Y223.133 E.03068
G1 X217.619 Y218.26 E.27768
G1 X216.858 Y218.26 E.03068
G1 X221.731 Y223.133 E.27768
G1 X220.97 Y223.133 E.03068
G1 X216.096 Y218.26 E.27768
G1 X215.335 Y218.26 E.03068
G1 X220.208 Y223.133 E.27768
G1 X219.447 Y223.133 E.03068
G1 X214.574 Y218.26 E.27768
G1 X213.812 Y218.26 E.03068
G1 X218.685 Y223.133 E.27768
G1 X217.924 Y223.133 E.03068
G1 X213.051 Y218.26 E.27768
G1 X212.289 Y218.26 E.03068
G1 X217.163 Y223.133 E.27768
G1 X216.401 Y223.133 E.03068
G1 X211.528 Y218.26 E.27768
G1 X210.767 Y218.26 E.03068
G1 X215.64 Y223.133 E.27768
G1 X214.878 Y223.133 E.03068
G1 X210.005 Y218.26 E.27768
G1 X209.244 Y218.26 E.03068
G1 X214.117 Y223.133 E.27768
G1 X213.355 Y223.133 E.03068
G1 X208.482 Y218.26 E.27768
G1 X207.721 Y218.26 E.03068
G1 X212.594 Y223.133 E.27768
G1 X211.833 Y223.133 E.03068
G1 X206.959 Y218.26 E.27768
G1 X206.198 Y218.26 E.03068
G1 X211.071 Y223.133 E.27768
G1 X210.31 Y223.133 E.03068
G1 X205.437 Y218.26 E.27768
G1 X204.675 Y218.26 E.03068
G1 X209.548 Y223.133 E.27768
G1 X208.787 Y223.133 E.03068
G1 X203.914 Y218.26 E.27768
G1 X203.152 Y218.26 E.03068
G1 X208.025 Y223.133 E.27768
G1 X207.264 Y223.133 E.03068
G1 X202.391 Y218.26 E.27768
G1 X201.629 Y218.26 E.03068
G1 X206.503 Y223.133 E.27768
G1 X205.741 Y223.133 E.03068
G1 X200.868 Y218.26 E.27768
G1 X200.107 Y218.26 E.03068
G1 X204.98 Y223.133 E.27768
G1 X204.218 Y223.133 E.03068
G1 X199.345 Y218.26 E.27768
G1 X198.584 Y218.26 E.03068
G1 X203.457 Y223.133 E.27768
G1 X202.696 Y223.133 E.03068
G1 X197.581 Y218.018 E.29145
G1 E-.4 F4200
G1 X202.176 Y223.375 F24000
G1 E.4 F4200
G1 F4800
G1 X197.015 Y218.224 E.29379
G3 X196.143 Y217.753 I.461 J-1.899 E.04037
G1 X115.246 Y136.856 E4.60961
G3 X114.779 Y135.978 I1.431 J-1.325 E.04054
G1 X103.867 Y125.066 E.62177
G1 X103.867 Y125.827 E.03068
G1 X201.173 Y223.133 E5.5446
M73 P3 R40
G1 X200.411 Y223.133 E.03068
G1 X103.867 Y126.589 E5.50122
G1 X103.867 Y127.35 E.03068
G1 X199.65 Y223.133 E5.45783
G1 X198.888 Y223.133 E.03068
G1 X103.867 Y128.112 E5.41444
G1 X103.867 Y128.873 E.03068
G1 X198.127 Y223.133 E5.37106
G1 X197.366 Y223.133 E.03068
G1 X103.867 Y129.634 E5.32767
G1 X103.867 Y130.396 E.03068
G1 X196.604 Y223.133 E5.28428
G1 X195.843 Y223.133 E.03068
G1 X189.256 Y216.546 E.37533
G3 X189.1 Y217.152 I-1.564 J-.079 E.02537
G1 X195.081 Y223.133 E.34082
G1 X194.32 Y223.133 E.03068
G1 X188.833 Y217.646 E.31264
G3 X188.439 Y218.014 I-1.749 J-1.481 E.02176
G1 X193.558 Y223.133 E.2917
G1 X192.797 Y223.133 E.03068
G1 X187.917 Y218.253 E.27807
G3 X187.225 Y218.323 I-.59 J-2.381 E.0281
G1 X192.036 Y223.133 E.27409
G1 X191.274 Y223.133 E.03068
G1 X186.464 Y218.323 E.27409
G1 X185.703 Y218.323 E.03068
G1 X190.513 Y223.133 E.27409
G1 X189.751 Y223.133 E.03068
G1 X184.941 Y218.323 E.27409
G1 X184.18 Y218.323 E.03068
G1 X188.99 Y223.133 E.27409
G1 X188.228 Y223.133 E.03068
G1 X183.418 Y218.323 E.27409
G1 X182.657 Y218.323 E.03068
G1 X187.467 Y223.133 E.27409
G1 X186.706 Y223.133 E.03068
G1 X181.896 Y218.323 E.27409
G1 X181.134 Y218.323 E.03068
G1 X185.944 Y223.133 E.27409
G1 X185.183 Y223.133 E.03068
G1 X180.373 Y218.323 E.27409
G1 X179.611 Y218.323 E.03068
G1 X184.421 Y223.133 E.27409
G1 X183.66 Y223.133 E.03068
G1 X178.85 Y218.323 E.27409
G1 X178.088 Y218.323 E.03068
G1 X182.899 Y223.133 E.27409
G1 X182.137 Y223.133 E.03068
G1 X177.327 Y218.323 E.27409
G1 X176.566 Y218.323 E.03068
G1 X181.376 Y223.133 E.27409
G1 X180.614 Y223.133 E.03068
G1 X175.804 Y218.323 E.27409
G1 X175.043 Y218.323 E.03068
G1 X179.853 Y223.133 E.27409
G1 X179.091 Y223.133 E.03068
G1 X174.281 Y218.323 E.27409
G1 X173.52 Y218.323 E.03068
G1 X178.33 Y223.133 E.27409
G1 X177.569 Y223.133 E.03068
G1 X172.758 Y218.323 E.27409
G1 X171.997 Y218.323 E.03068
G1 X176.807 Y223.133 E.27409
G1 X176.046 Y223.133 E.03068
G1 X171.236 Y218.323 E.27409
G1 X170.474 Y218.323 E.03068
G1 X175.284 Y223.133 E.27409
G1 X174.523 Y223.133 E.03068
G1 X169.713 Y218.323 E.27409
G1 X168.951 Y218.323 E.03068
G1 X173.761 Y223.133 E.27409
G1 X173 Y223.133 E.03068
G1 X168.19 Y218.323 E.27409
G1 X167.428 Y218.323 E.03068
G1 X172.239 Y223.133 E.27409
G1 X171.477 Y223.133 E.03068
G1 X166.667 Y218.323 E.27409
G1 X165.906 Y218.323 E.03068
G1 X170.716 Y223.133 E.27409
G1 X169.954 Y223.133 E.03068
G1 X165.144 Y218.323 E.27409
G1 X164.383 Y218.323 E.03068
G1 X169.193 Y223.133 E.27409
G1 X168.431 Y223.133 E.03068
G1 X163.621 Y218.323 E.27409
G1 X162.86 Y218.323 E.03068
G1 X167.67 Y223.133 E.27409
G1 X166.909 Y223.133 E.03068
G1 X162.099 Y218.323 E.27409
G1 X161.337 Y218.323 E.03068
G1 X166.147 Y223.133 E.27409
G1 X165.386 Y223.133 E.03068
G1 X160.576 Y218.323 E.27409
G1 X159.814 Y218.323 E.03068
G1 X164.624 Y223.133 E.27409
G1 X163.863 Y223.133 E.03068
G1 X159.053 Y218.323 E.27409
G1 X158.291 Y218.323 E.03068
G1 X163.102 Y223.133 E.27409
G1 X162.34 Y223.133 E.03068
G1 X157.53 Y218.323 E.27409
G1 X156.769 Y218.323 E.03068
G1 X161.579 Y223.133 E.27409
G1 X160.817 Y223.133 E.03068
G1 X156.007 Y218.323 E.27409
G1 X155.246 Y218.323 E.03068
G1 X160.056 Y223.133 E.27409
G1 X159.294 Y223.133 E.03068
