; HEADER_BLOCK_START
; generated by OrcaSlicer 1.6.3 on 2023-11-19 at 15:55:21
; total layer number: 27
; HEADER_BLOCK_END

; THUMBNAIL_BLOCK_START
; THUMBNAIL_BLOCK_END

; external perimeters extrusion width = 0.62mm
; perimeters extrusion width = 0.62mm
; infill extrusion width = 0.65mm
; solid infill extrusion width = 0.65mm
; top infill extrusion width = 0.65mm
; first layer extrusion width = 0.68mm

; external perimeters extrusion width = 0.62mm
; perimeters extrusion width = 0.62mm
; infill extrusion width = 0.65mm
; solid infill extrusion width = 0.65mm
; top infill extrusion width = 0.65mm
; first layer extrusion width = 0.68mm

; external perimeters extrusion width = 0.62mm
; perimeters extrusion width = 0.62mm
; infill extrusion width = 0.65mm
; solid infill extrusion width = 0.65mm
; top infill extrusion width = 0.65mm
; first layer extrusion width = 0.68mm

; external perimeters extrusion width = 0.62mm
; perimeters extrusion width = 0.62mm
; infill extrusion width = 0.65mm
; solid infill extrusion width = 0.65mm
; top infill extrusion width = 0.65mm
; first layer extrusion width = 0.68mm

; external perimeters extrusion width = 0.62mm
; perimeters extrusion width = 0.62mm
; infill extrusion width = 0.65mm
; solid infill extrusion width = 0.65mm
; top infill extrusion width = 0.65mm
; first layer extrusion width = 0.68mm

; EXECUTABLE_BLOCK_START
EXCLUDE_OBJECT_DEFINE NAME=spool-roll-inserts.stl_id_0_copy_0 CENTER=179.25,207.75 POLYGON=[[132.75,196.25],[133.75,195.25],[140.25,193.75],[218.25,193.75],[224.75,195.25],[225.75,196.25],[225.75,219.25],[224.75,220.25],[218.25,221.75],[140.25,221.75],[133.75,220.25],[132.75,219.25],[132.75,196.25]]
EXCLUDE_OBJECT_DEFINE NAME=spool-roll-inserts.stl_id_1_copy_0 CENTER=179.25,179.25 POLYGON=[[132.75,167.75],[133.75,166.75],[140.25,165.25],[218.25,165.25],[224.75,166.75],[225.75,167.75],[225.75,190.75],[224.75,191.75],[218.25,193.25],[140.25,193.25],[133.75,191.75],[132.75,190.75],[132.75,167.75]]
EXCLUDE_OBJECT_DEFINE NAME=spool-roll-inserts.stl_id_2_copy_0 CENTER=179.25,150.75 POLYGON=[[132.75,139.25],[133.75,138.25],[140.25,136.75],[218.25,136.75],[224.75,138.25],[225.75,139.25],[225.75,162.25],[224.75,163.25],[218.25,164.75],[140.25,164.75],[133.75,163.25],[132.75,162.25],[132.75,139.25]]
EXCLUDE_OBJECT_DEFINE NAME=spool-roll-inserts.stl_id_3_copy_0 CENTER=179.25,122.25 POLYGON=[[132.75,110.75],[133.75,109.75],[140.25,108.25],[218.25,108.25],[224.75,109.75],[225.75,110.75],[225.75,133.75],[224.75,134.75],[218.25,136.25],[140.25,136.25],[133.75,134.75],[132.75,133.75],[132.75,110.75]]
EXCLUDE_OBJECT_DEFINE NAME=spool-roll-inserts.stl_id_4_copy_0 CENTER=118.25,165 POLYGON=[[104.25,204],[104.25,126],[105.75,119.5],[106.75,118.5],[129.75,118.5],[130.75,119.5],[132.25,126],[132.25,204],[130.75,210.5],[129.75,211.5],[106.75,211.5],[105.75,210.5],[104.25,204]]
M73 P0 R23
M73 C7
;TYPE:Custom
M104 S0
M140 S0
START_PRINT BED=75 HOTEND=225
G90
G21
M83 ; use relative distances for extrusion
; filament start gcode
SET_PRESSURE_ADVANCE ADVANCE=0.032; Override pressure advance value
M106 S0
;LAYER_CHANGE
;Z:0.2
;HEIGHT:0.2
;BEFORE_LAYER_CHANGE
;0.2
G92 E0

;DSLR_SNAPSHOT
TIMELAPSE_TAKE_FRAME
M204 S10000
G1 E-.4 F4200
G1 X104.891 Y116.635 F36000
G1 Z.2
G1 E.4 F4200
;TYPE:Skirt
;WIDTH:0.68
G1 F7200
G1 X105.943 Y115.991 E.05877
G1 X132.937 Y107.246 E1.35285
G1 X139.657 Y105.685 E.3289
G1 X140.25 Y105.617 E.02846
G1 X218.25 Y105.617 E3.71873
G1 X218.843 Y105.685 E.02846
G1 X225.343 Y107.185 E.31805
G1 X226.615 Y107.891 E.06935
G1 X227.615 Y108.891 E.06745
G1 X228.387 Y110.755 E.09619
G1 X228.387 Y219.245 E5.17233
G1 X227.615 Y221.109 E.09619
G1 X226.615 Y222.109 E.06745
G1 X225.343 Y222.815 E.06935
G1 X218.843 Y224.315 E.31805
G1 X218.25 Y224.383 E.02846
G1 X140.25 Y224.383 E3.71873
G1 X139.657 Y224.315 E.02846
G1 X132.937 Y222.754 E.3289
G1 X105.943 Y214.009 E1.35285
G1 X104.891 Y213.365 E.05877
G1 X103.891 Y212.365 E.06745
G1 X103.185 Y211.093 E.06935
G1 X101.685 Y204.593 E.31805
G1 X101.617 Y204 E.02846
G1 X101.617 Y126 E3.71873
G1 X101.685 Y125.407 E.02846
G1 X103.185 Y118.907 E.31805
G1 X103.891 Y117.635 E.06935
G1 X104.828 Y116.698 E.06316
; printing object spool-roll-inserts.stl id:3 copy 0
EXCLUDE_OBJECT_START NAME=spool-roll-inserts.stl_id_3_copy_0
G1 E-.4 F4200
G1 X216.581 Y134.395 F36000
G1 E.4 F4200
;TYPE:Inner wall
;WIDTH:0.679999
G1 F7200
G1 X216.554 Y134.532 E.00667
G1 X141.946 Y134.532 E3.55702
G1 X141.844 Y134.016 E.02504
G1 X141.65 Y133.674 E.01875
G2 X140.858 Y133.107 I-1.384 J1.097 E.04707
G1 X140.371 Y133.031 E.02346
G1 X134.464 Y133.031 E.28164
G1 X134.464 Y128.469 E.21751
G1 X140.371 Y128.469 E.28164
G1 X140.624 Y128.449 E.01206
G1 X141.062 Y128.312 E.02189
G1 X141.367 Y128.119 E.01723
G1 X141.65 Y127.826 E.01942
G1 X141.844 Y127.484 E.01875
G1 X141.946 Y126.968 E.02504
G1 X216.554 Y126.968 E3.55702
G1 X216.656 Y127.484 E.02504
G1 X216.85 Y127.826 E.01875
G2 X217.642 Y128.393 I1.384 J-1.097 E.04707
G1 X218.129 Y128.469 E.02346
G1 X224.036 Y128.469 E.28164
G1 X224.036 Y133.031 E.21751
G1 X218.129 Y133.031 E.28164
G1 X217.876 Y133.051 E.01206
G1 X217.438 Y133.188 E.02189
G1 X217.133 Y133.381 E.01723
G1 X216.85 Y133.674 E.01942
G1 X216.656 Y134.016 E.01875
G1 X216.584 Y134.383 E.0178
G1 X217.196 Y134.509 F36000
G1 F7200
G1 X217.173 Y134.624 E.00557
G1 X217.173 Y135.169 E.02598
G1 X141.327 Y135.169 E3.61603
G1 X141.327 Y134.624 E.02598
G1 X141.255 Y134.259 E.01771
G2 X140.663 Y133.714 I-.947 J.433 E.0394
G1 X140.371 Y133.668 E.01408
G1 X134.196 Y133.668 E.2944
G1 X133.827 Y133.299 E.02491
G1 X133.827 Y128.201 E.24302
G1 X134.196 Y127.832 E.02491
G1 X140.371 Y127.832 E.2944
G2 X141.034 Y127.565 I-.063 J-1.112 E.03466
G1 X141.255 Y127.241 E.01872
G1 X141.327 Y126.876 E.01771
G1 X141.327 Y126.331 E.02598
G1 X217.173 Y126.331 E3.61603
G1 X217.173 Y126.876 E.02598
G1 X217.245 Y127.241 E.01771
G2 X217.837 Y127.786 I.947 J-.433 E.0394
G1 X218.129 Y127.832 E.01408
G1 X224.304 Y127.832 E.2944
G1 X224.673 Y128.201 E.02491
G1 X224.673 Y128.462 E.01245
G1 X224.673 Y133.299 E.23057
G1 X224.304 Y133.668 E.02491
G1 X218.045 Y133.672 E.29838
G1 X217.714 Y133.763 E.01636
G1 X217.466 Y133.935 E.01441
G1 X217.245 Y134.259 E.01872
G1 X217.198 Y134.497 E.01157
G1 X217.81 Y134.624 F36000
;TYPE:Outer wall
G1 F7200
G1 X217.81 Y135.806 E.05636
G1 X140.69 Y135.806 E3.67677
G1 X140.69 Y134.624 E.05636
G2 X140.371 Y134.305 I-.346 J.028 E.02337
G1 X133.932 Y134.305 E.30699
G1 X133.19 Y133.562 E.05007
G1 X133.19 Y127.938 E.26817
G1 X133.932 Y127.195 E.05007
G1 X140.371 Y127.195 E.30699
G1 X140.469 Y127.18 E.00469
G1 X140.627 Y127.066 E.00929
G1 X140.69 Y126.876 E.00954
G1 X140.69 Y125.694 E.05636
G1 X217.81 Y125.694 E3.67677
G1 X217.81 Y126.876 E.05636
G2 X218.129 Y127.195 I.346 J-.028 E.02337
G1 X224.568 Y127.195 E.30699
G1 X225.31 Y127.938 E.05007
G1 X225.31 Y128.462 E.02502
G1 X225.31 Y133.562 E.24315
G1 X224.568 Y134.305 E.05007
G1 X218.129 Y134.305 E.30699
G1 X218.031 Y134.32 E.00469
G1 X217.873 Y134.434 E.00929
G1 X217.814 Y134.612 E.00897
G1 X217.696 Y134.661
G1 E-.4 F4200
G1 X223.845 Y129.958 F36000
G1 E.4 F4200
;TYPE:Bottom surface
;WIDTH:0.684786
G1 F7200
G1 X222.833 Y128.947 E.0687
G1 X221.926 Y128.947 E.0436
G1 X223.558 Y130.579 E.11089
G1 X223.558 Y131.487 E.0436
G1 X221.018 Y128.947 E.17255
G1 X220.11 Y128.947 E.0436
G1 X223.558 Y132.395 E.23421
G1 X223.558 Y132.553 E.00763
G1 X222.809 Y132.553 E.03598
G1 X219.203 Y128.947 E.245
G1 X218.295 Y128.947 E.0436
G1 X221.901 Y132.553 E.245
G1 X220.994 Y132.553 E.0436
G1 X215.886 Y127.446 E.34694
G1 X214.979 Y127.446 E.0436
G1 X220.086 Y132.553 E.34694
G1 X219.178 Y132.553 E.0436
G1 X214.071 Y127.446 E.34694
G1 X213.163 Y127.446 E.0436
G1 X218.27 Y132.553 E.34694
G2 X217.471 Y132.662 I-.074 J2.452 E.03892
G1 X212.255 Y127.446 E.35431
G1 X211.348 Y127.446 E.0436
G1 X216.883 Y132.981 E.37599
G2 X216.435 Y133.441 I1.237 J1.649 E.03096
G1 X210.44 Y127.446 E.40727
G1 X209.532 Y127.446 E.0436
G1 X216.14 Y134.054 E.44887
G1 X215.232 Y134.054 E.0436
G1 X208.625 Y127.446 E.44887
G1 X207.717 Y127.446 E.0436
G1 X214.325 Y134.054 E.44887
G1 X213.417 Y134.054 E.0436
G1 X206.809 Y127.446 E.44887
G1 X205.901 Y127.446 E.0436
G1 X212.509 Y134.054 E.44887
G1 X211.601 Y134.054 E.0436
G1 X204.994 Y127.446 E.44887
G1 X204.086 Y127.446 E.0436
G1 X210.694 Y134.054 E.44887
G1 X209.786 Y134.054 E.0436
G1 X203.178 Y127.446 E.44887
G1 X202.27 Y127.446 E.0436
G1 X208.878 Y134.054 E.44887
G1 X207.97 Y134.054 E.0436
G1 X201.363 Y127.446 E.44887
G1 X200.455 Y127.446 E.0436
G1 X207.063 Y134.054 E.44887
G1 X206.155 Y134.054 E.0436
G1 X199.547 Y127.446 E.44887
G1 X198.639 Y127.446 E.0436
G1 X205.247 Y134.054 E.44887
G1 X204.34 Y134.054 E.0436
G1 X197.732 Y127.446 E.44887
G1 X196.824 Y127.446 E.0436
G1 X203.432 Y134.054 E.44887
G1 X202.524 Y134.054 E.0436
G1 X195.916 Y127.446 E.44887
G1 X195.008 Y127.446 E.0436
G1 X201.616 Y134.054 E.44887
G1 X200.709 Y134.054 E.0436
G1 X194.101 Y127.446 E.44887
G1 X193.193 Y127.446 E.0436
G1 X199.801 Y134.054 E.44887
G1 X198.893 Y134.054 E.0436
G1 X192.285 Y127.446 E.44887
G1 X191.378 Y127.446 E.0436
G1 X197.985 Y134.054 E.44887
G1 X197.078 Y134.054 E.0436
G1 X190.47 Y127.446 E.44887
G1 X189.562 Y127.446 E.0436
G1 X196.17 Y134.054 E.44887
G1 X195.262 Y134.054 E.0436
M73 P1 R23
G1 X188.654 Y127.446 E.44887
G1 X187.747 Y127.446 E.0436
G1 X194.354 Y134.054 E.44887
G1 X193.447 Y134.054 E.0436
G1 X186.839 Y127.446 E.44887
G1 X185.931 Y127.446 E.0436
G1 X192.539 Y134.054 E.44887
G1 X191.631 Y134.054 E.0436
G1 X185.023 Y127.446 E.44887
G1 X184.116 Y127.446 E.0436
G1 X190.724 Y134.054 E.44887
G1 X189.816 Y134.054 E.0436
G1 X183.208 Y127.446 E.44887
G1 X182.3 Y127.446 E.0436
G1 X188.908 Y134.054 E.44887
G1 X188 Y134.054 E.0436
G1 X181.392 Y127.446 E.44887
G1 X180.485 Y127.446 E.0436
G1 X187.093 Y134.054 E.44887
G1 X186.185 Y134.054 E.0436
G1 X179.577 Y127.446 E.44887
G1 X178.669 Y127.446 E.0436
G1 X185.277 Y134.054 E.44887
G1 X184.369 Y134.054 E.0436
G1 X177.762 Y127.446 E.44887
G1 X176.854 Y127.446 E.0436
G1 X183.462 Y134.054 E.44887
G1 X182.554 Y134.054 E.0436
G1 X175.946 Y127.446 E.44887
G1 X175.038 Y127.446 E.0436
G1 X181.646 Y134.054 E.44887
G1 X180.738 Y134.054 E.0436
G1 X174.131 Y127.446 E.44887
G1 X173.223 Y127.446 E.0436
G1 X179.831 Y134.054 E.44887
G1 X178.923 Y134.054 E.0436
G1 X172.315 Y127.446 E.44887
G1 X171.407 Y127.446 E.0436
G1 X178.015 Y134.054 E.44887
G1 X177.107 Y134.054 E.0436
G1 X170.5 Y127.446 E.44887
G1 X169.592 Y127.446 E.0436
G1 X176.2 Y134.054 E.44887
G1 X175.292 Y134.054 E.0436
G1 X168.684 Y127.446 E.44887
G1 X167.776 Y127.446 E.0436
G1 X174.384 Y134.054 E.44887
G1 X173.477 Y134.054 E.0436
G1 X166.869 Y127.446 E.44887
G1 X165.961 Y127.446 E.0436
G1 X172.569 Y134.054 E.44887
G1 X171.661 Y134.054 E.0436
G1 X165.053 Y127.446 E.44887
G1 X164.145 Y127.446 E.0436
G1 X170.753 Y134.054 E.44887
G1 X169.846 Y134.054 E.0436
G1 X163.238 Y127.446 E.44887
G1 X162.33 Y127.446 E.0436
G1 X168.938 Y134.054 E.44887
G1 X168.03 Y134.054 E.0436
G1 X161.422 Y127.446 E.44887
G1 X160.515 Y127.446 E.0436
G1 X167.122 Y134.054 E.44887
G1 X166.215 Y134.054 E.0436
G1 X159.607 Y127.446 E.44887
G1 X158.699 Y127.446 E.0436
G1 X165.307 Y134.054 E.44887
G1 X164.399 Y134.054 E.0436
G1 X157.791 Y127.446 E.44887
G1 X156.884 Y127.446 E.0436
G1 X163.491 Y134.054 E.44887
G1 X162.584 Y134.054 E.0436
G1 X155.976 Y127.446 E.44887
G1 X155.068 Y127.446 E.0436
G1 X161.676 Y134.054 E.44887
G1 X160.768 Y134.054 E.0436
G1 X154.16 Y127.446 E.44887
G1 X153.253 Y127.446 E.0436
G1 X159.86 Y134.054 E.44887
G1 X158.953 Y134.054 E.0436
G1 X152.345 Y127.446 E.44887
G1 X151.437 Y127.446 E.0436
G1 X158.045 Y134.054 E.44887
G1 X157.137 Y134.054 E.0436
G1 X150.529 Y127.446 E.44887
G1 X149.622 Y127.446 E.0436
G1 X156.23 Y134.054 E.44887
G1 X155.322 Y134.054 E.0436
G1 X148.714 Y127.446 E.44887
G1 X147.806 Y127.446 E.0436
G1 X154.414 Y134.054 E.44887
G1 X153.506 Y134.054 E.0436
G1 X146.899 Y127.446 E.44887
G1 X145.991 Y127.446 E.0436
G1 X152.599 Y134.054 E.44887
G1 X151.691 Y134.054 E.0436
G1 X145.083 Y127.446 E.44887
G1 X144.175 Y127.446 E.0436
G1 X150.783 Y134.054 E.44887
G1 X149.875 Y134.054 E.0436
G1 X143.268 Y127.446 E.44887
G1 X142.36 Y127.446 E.0436
G1 X148.968 Y134.054 E.44887
G1 X148.06 Y134.054 E.0436
G1 X142.065 Y128.059 E.40727
G1 X142.036 Y128.109 E.00276
G3 X141.617 Y128.519 I-1.331 J-.94 E.02833
G1 X147.152 Y134.054 E.37599
G1 X146.244 Y134.054 E.0436
G1 X141.029 Y128.838 E.35431
G3 X140.23 Y128.947 I-.725 J-2.344 E.03892
G1 X145.337 Y134.054 E.34694
G1 X144.429 Y134.054 E.0436
G1 X139.322 Y128.947 E.34694
G1 X138.414 Y128.947 E.0436
G1 X143.521 Y134.054 E.34694
G1 X142.614 Y134.054 E.0436
G1 X137.506 Y128.947 E.34694
G1 X136.599 Y128.947 E.0436
G1 X140.205 Y132.553 E.245
G1 X139.297 Y132.553 E.0436
G1 X135.691 Y128.947 E.245
G1 X134.942 Y128.947 E.03597
G1 X134.942 Y129.106 E.00763
G1 X138.39 Y132.553 E.23421
G1 X137.482 Y132.553 E.0436
G1 X134.942 Y130.013 E.17254
G1 X134.942 Y130.921 E.0436
G1 X136.574 Y132.553 E.11088
G1 X135.666 Y132.553 E.0436
G1 X134.655 Y131.542 E.06869
G1 E-.4 F4200
G1 X155.025 Y126.21 F36000
G1 X185.278 Y118.29
G1 X216.579 Y110.096
G1 E.4 F4200
;TYPE:Inner wall
;WIDTH:0.679999
G1 F7200
G1 X216.656 Y110.484 E.01882
G1 X216.85 Y110.826 E.01875
G2 X217.642 Y111.393 I1.384 J-1.097 E.04707
G1 X218.129 Y111.469 E.02346
G1 X224.036 Y111.469 E.28164
G1 X224.036 Y116.031 E.21751
G1 X218.129 Y116.031 E.28164
G1 X217.876 Y116.051 E.01206
G1 X217.438 Y116.188 E.02189
G1 X217.133 Y116.381 E.01723
G1 X216.85 Y116.674 E.01942
G1 X216.656 Y117.016 E.01875
G1 X216.554 Y117.532 E.02504
G1 X141.946 Y117.532 E3.55702
G1 X141.844 Y117.016 E.02504
G1 X141.65 Y116.674 E.01875
G2 X140.858 Y116.107 I-1.384 J1.097 E.04707
G1 X140.371 Y116.031 E.02346
G1 X134.464 Y116.031 E.28164
G1 X134.464 Y111.469 E.21751
G1 X140.371 Y111.469 E.28164
G1 X140.624 Y111.449 E.01206
G1 X141.062 Y111.312 E.02189
G1 X141.367 Y111.119 E.01723
G1 X141.65 Y110.826 E.01942
G1 X141.844 Y110.484 E.01875
G1 X141.946 Y109.968 E.02504
G1 X216.554 Y109.968 E3.55702
G1 X216.577 Y110.085 E.00565
G1 X217.195 Y109.986 F36000
G1 F7200
G1 X217.245 Y110.241 E.01236
G2 X217.837 Y110.786 I.947 J-.433 E.0394
G1 X218.129 Y110.832 E.01408
G1 X224.304 Y110.832 E.2944
G1 X224.673 Y111.201 E.02491
G1 X224.673 Y111.462 E.01245
G1 X224.673 Y116.299 E.23057
G1 X224.304 Y116.668 E.02491
G1 X218.045 Y116.672 E.29838
G1 X217.714 Y116.763 E.01636
G1 X217.466 Y116.935 E.01441
G1 X217.245 Y117.259 E.01872
G1 X217.173 Y117.624 E.01771
G1 X217.173 Y118.169 E.02598
G1 X141.327 Y118.169 E3.61603
G1 X141.327 Y117.624 E.02598
G1 X141.255 Y117.259 E.01771
G2 X140.663 Y116.714 I-.947 J.433 E.0394
G1 X140.371 Y116.668 E.01408
G1 X134.196 Y116.668 E.2944
G1 X133.827 Y116.299 E.02491
G1 X133.827 Y111.201 E.24302
G1 X134.196 Y110.832 E.02491
G1 X140.371 Y110.832 E.2944
G2 X141.034 Y110.565 I-.063 J-1.112 E.03466
G1 X141.255 Y110.241 E.01872
G1 X141.327 Y109.876 E.01771
G1 X141.327 Y109.331 E.02598
G1 X217.173 Y109.331 E3.61603
G1 X217.173 Y109.876 E.02598
G1 X217.192 Y109.974 E.00478
G1 X217.81 Y109.876 F36000
;TYPE:Outer wall
G1 F7200
G2 X218.129 Y110.195 I.346 J-.028 E.02337
G1 X224.568 Y110.195 E.30699
G1 X225.31 Y110.938 E.05007
G1 X225.31 Y111.462 E.02502
G1 X225.31 Y116.562 E.24315
G1 X224.568 Y117.305 E.05007
G1 X218.129 Y117.305 E.30699
G1 X218.031 Y117.32 E.00469
G1 X217.873 Y117.434 E.00929
G1 X217.81 Y117.624 E.00954
G1 X217.81 Y118.806 E.05636
G1 X140.69 Y118.806 E3.67677
G1 X140.69 Y117.624 E.05636
G2 X140.371 Y117.305 I-.346 J.028 E.02337
G1 X133.932 Y117.305 E.30699
G1 X133.19 Y116.562 E.05007
G1 X133.19 Y110.938 E.26817
G1 X133.932 Y110.195 E.05007
G1 X140.371 Y110.195 E.30699
G1 X140.469 Y110.18 E.00469
G1 X140.627 Y110.066 E.00929
G1 X140.69 Y109.876 E.00954
G1 X140.69 Y108.694 E.05636
G1 X217.81 Y108.694 E3.67677
G1 X217.81 Y109.864 E.05579
G1 X217.8 Y109.899
G1 E-.4 F4200
G1 X223.845 Y112.958 F36000
G1 E.4 F4200
;TYPE:Bottom surface
;WIDTH:0.684786
G1 F7200
G1 X222.833 Y111.947 E.0687
G1 X221.926 Y111.947 E.0436
G1 X223.558 Y113.579 E.11089
G1 X223.558 Y114.487 E.0436
