; HEADER_BLOCK_START
; generated by OrcaSlicer 1.6.3 on 2023-11-26 at 20:27:29
; total layer number: 131
; HEADER_BLOCK_END

; THUMBNAIL_BLOCK_START
; THUMBNAIL_BLOCK_END

; external perimeters extrusion width = 0.62mm
; perimeters extrusion width = 0.62mm
; infill extrusion width = 0.65mm
; solid infill extrusion width = 0.65mm
; top infill extrusion width = 0.65mm
; first layer extrusion width = 0.68mm

; EXECUTABLE_BLOCK_START
EXCLUDE_OBJECT_DEFINE NAME=stealthburner_printhead_revo_voron_rear_cw2.stl_id_0_copy_0 CENTER=160,170 POLYGON=[[131.174,153.083],[132.673,150.352],[135.23,149.052],[176.643,140.477],[179.122,140.149],[183.817,141.318],[184.905,141.589],[185.164,141.886],[188.786,152.213],[188.826,152.533],[188.097,158.014],[183.022,195.851],[175.492,199.851],[134.569,199.851],[132.474,195.851],[131.174,153.083]]
M73 P0 R25
;TYPE:Custom
M104 S0
M140 S0
START_PRINT BED=75 HOTEND=200
G90
G21
M83 ; use relative distances for extrusion
; filament start gcode
SET_PRESSURE_ADVANCE ADVANCE=0.032; Override pressure advance value
M106 S0
;LAYER_CHANGE
;Z:0.2
;HEIGHT:0.2
;BEFORE_LAYER_CHANGE
;0.2
G92 E0

;DSLR_SNAPSHOT
TIMELAPSE_TAKE_FRAME
M204 S10000
G1 E-.4 F4200
G1 X133.092 Y147.525 F36000
G1 Z.2
G1 E.4 F4200
;TYPE:Skirt
;WIDTH:0.68
G1 F7200
G1 X134.213 Y146.624 E.06859
G1 X135.242 Y146.415 E.05006
G1 X175.242 Y146.415 E1.90704
G1 X176.626 Y146.807 E.06859
G1 X177.598 Y147.868 E.06859
G1 X177.866 Y148.791 E.04584
G1 X181.271 Y183.034 E1.64061
G1 X181.209 Y183.919 E.0423
G1 X177.249 Y200.175 E.7977
G1 X176.54 Y201.427 E.06859
G1 X174.687 Y202.188 E.09552
G1 X134.987 Y202.188 E1.89271
G1 X133.603 Y201.796 E.06859
G1 X132.631 Y200.735 E.06859
G1 X132.35 Y199.55 E.05809
G1 X132.374 Y152.607 E2.23806
G1 X132.61 Y148.881 E.17798
G1 X133.062 Y147.61 E.0643
; printing object stealthburner_printhead_revo_voron_rear_cw2.stl id:0 copy 0
EXCLUDE_OBJECT_START NAME=stealthburner_printhead_revo_voron_rear_cw2.stl_id_0_copy_0
G1 E-.4 F4200
G1 X173.736 Y156.677 F36000
G1 E.4 F4200
;TYPE:Inner wall
;WIDTH:0.679999
G1 F7200
G1 X173.839 Y156.61 E.00587
G1 X173.839 Y158.528 E.09143
G1 X173.329 Y158.544 E.02432
G1 X173.087 Y158.64 E.01244
G1 X172.752 Y158.864 E.01922
G1 X172.41 Y159.281 E.02572
G1 X172.249 Y159.689 E.0209
G1 X172.209 Y160.207 E.0248
G1 X173.504 Y174.784 E.69771
G1 X171.922 Y179.852 E.2531
G1 X171.85 Y180.313 E.02225
G1 X171.906 Y180.747 E.02089
G1 X173.021 Y184.819 E.2013
G1 X173.279 Y185.348 E.02803
G1 X173.478 Y185.57 E.01424
G1 X173.929 Y185.862 E.02557
G1 X174.387 Y185.982 E.0226
G1 X174.928 Y185.948 E.02587
G1 X176.317 Y185.615 E.06807
G1 X173.989 Y195.172 E.46894
G1 X173.909 Y195.022 E.00808
G2 X172.531 Y193.71 I-3.118 J1.892 E.09179
G1 X171.937 Y193.431 E.03132
G1 X171.559 Y193.342 E.01852
G1 X171.618 Y193.287 E.00385
G2 X172.403 Y192.212 I-5.397 J-4.765 E.06352
G1 X172.802 Y191.265 E.04902
G1 X173.003 Y190.256 E.04902
G1 X172.996 Y189.228 E.04902
G1 X172.871 Y188.532 E.03371
G1 X172.75 Y188.14 E.01956
G1 X172.381 Y187.295 E.04395
G1 X171.862 Y186.539 E.04374
G1 X171.375 Y186.026 E.03373
G1 X171.13 Y185.816 E.01538
G1 X170.266 Y185.253 E.04916
G1 X169.616 Y184.974 E.03371
G1 X169.217 Y184.859 E.01982
G1 X168.376 Y184.705 E.04074
;WIDTH:0.692778
G1 X167.78 Y184.687 E.02899
;WIDTH:0.736399
G1 X167.599 Y184.683 E.00942
;WIDTH:0.78002
G1 X167.417 Y184.68 E.01001
;WIDTH:0.82364
G1 X167.236 Y184.677 E.0106
G1 X166.609 Y184.817 E.03754
;WIDTH:0.796336
G1 X166.076 Y185.007 E.03188
;WIDTH:0.751595
G1 X165.857 Y185.13 E.01331
;WIDTH:0.715797
G1 X165.639 Y185.253 E.01264
;WIDTH:0.679999
G1 X164.924 Y185.682 E.03975
G1 X164.236 Y186.295 E.04392
G1 X163.61 Y187.115 E.04921
G1 X163.163 Y188.04 E.04897
G1 X162.969 Y188.72 E.03371
G2 X162.866 Y190.064 I6.871 J1.199 E.06438
G1 X163.028 Y191.08 E.04902
G1 X163.392 Y192.041 E.04901
G1 X163.927 Y192.895 E.04803
G1 X164.338 Y193.361 E.02962
G1 X164.931 Y193.856 E.03686
G1 X164.776 Y193.837 E.00746
G1 X145.59 Y193.844 E.91472
G1 X145.763 Y193.709 E.01046
G1 X146.419 Y193.062 E.04394
G1 X147.003 Y192.212 E.04916
G1 X147.402 Y191.265 E.04902
G1 X147.603 Y190.256 E.04902
G1 X147.596 Y189.228 E.04902
G1 X147.383 Y188.222 E.04902
G1 X146.981 Y187.295 E.04817
G1 X146.462 Y186.539 E.04374
G1 X145.73 Y185.816 E.04906
G1 X145.148 Y185.41 E.0338
G1 X144.686 Y185.176 E.0247
;WIDTH:0.717378
G1 X144.486 Y185.073 E.01139
;WIDTH:0.754756
G1 X144.285 Y184.969 E.01202
;WIDTH:0.792134
G1 X144.085 Y184.866 E.01265
;WIDTH:0.793635
G1 X143.747 Y184.787 E.01948
;WIDTH:0.819225
G1 X143.23 Y184.667 E.03082
G1 X142.979 Y184.651 E.01463
;WIDTH:0.789249
G1 X142.78 Y184.665 E.01116
;WIDTH:0.752833
G1 X142.58 Y184.679 E.01062
;WIDTH:0.716416
G1 X142.381 Y184.693 E.01007
;WIDTH:0.679999
G1 X141.688 Y184.764 E.03321
G1 X141.242 Y184.867 E.02183
G1 X140.391 Y185.168 E.04304
G1 X139.524 Y185.682 E.04804
G1 X139.048 Y186.081 E.02961
G2 X138.21 Y187.115 I5.102 J4.993 E.06356
G1 X137.763 Y188.04 E.04896
;WIDTH:0.719608
G1 X137.68 Y188.261 E.01198
;WIDTH:0.759217
G1 X137.596 Y188.482 E.01268
;WIDTH:0.798826
G1 X137.512 Y188.704 E.01338
G1 X137.516 Y188.351 E.01995
;WIDTH:0.759217
G1 X137.52 Y187.998 E.0189
;WIDTH:0.719608
G1 X137.524 Y187.646 E.01786
;WIDTH:0.679999
G1 X137.422 Y187.02 E.03024
G1 X137.095 Y186.16 E.04384
G1 X138.578 Y180.747 E.26758
G1 X138.634 Y180.276 E.02263
G1 X138.562 Y179.852 E.0205
G1 X136.979 Y174.784 E.2531
G1 X138.267 Y160.288 E.69385
G1 X138.31 Y159.504 E.03744
G1 X138.245 Y159.183 E.01561
G1 X137.617 Y157.173 E.10037
G1 X137.646 Y157.186 E.00151
G2 X139.279 Y157.428 I1.414 J-3.908 E.07925
G1 X140 Y157.294 E.03496
G1 X140.435 Y157.147 E.02191
;WIDTH:0.728454
G1 X140.575 Y157.103 E.00749
;WIDTH:0.776908
G1 X140.714 Y157.06 E.00802
;WIDTH:0.825362
G1 X140.854 Y157.017 E.00855
;WIDTH:0.873816
G1 X140.993 Y156.974 E.00908
G1 X141.385 Y156.7 E.02974
;WIDTH:0.896159
G1 X141.901 Y156.241 E.04407
G1 X142.214 Y156.506 E.02621
G1 X142.803 Y156.746 E.0406
G1 X142.996 Y156.766 E.01242
G1 X142.815 Y156.837 E.01242
G1 X142.179 Y157.157 E.0455
G1 X141.889 Y157.357 E.02245
;WIDTH:0.88382
G1 X141.467 Y157.674 E.03322
G1 X141.408 Y157.758 E.00648
;WIDTH:0.843056
G1 X141.349 Y157.843 E.00617
;WIDTH:0.802292
G1 X141.291 Y157.928 E.00585
;WIDTH:0.761528
G1 X141.232 Y158.012 E.00554
;WIDTH:0.720764
G1 X141.173 Y158.097 E.00522
;WIDTH:0.679999
G1 X140.761 Y158.569 E.0299
G2 X140.106 Y159.716 I5.995 J4.185 E.06303
G1 X139.86 Y160.495 E.03899
G2 X139.726 Y161.687 I5.01 J1.166 E.0573
G1 X140.042 Y179.225 E.8363
G2 X140.177 Y180.239 I8.229 J-.582 E.04877
G2 X140.851 Y181.826 I5.824 J-1.536 E.0825
G2 X142.158 Y183.197 I4.683 J-3.157 E.09076
G1 X142.62 Y183.477 E.02571
;WIDTH:0.716416
G1 X142.8 Y183.589 E.01071
;WIDTH:0.752833
G1 X142.98 Y183.702 E.01129
;WIDTH:0.789249
G1 X143.16 Y183.815 E.01187
;WIDTH:0.819225
G1 X143.423 Y183.916 E.01635
G1 X144.073 Y184.095 E.03918
;WIDTH:0.78897
G1 X144.445 Y184.125 E.02082
;WIDTH:0.752336
G1 X144.787 Y184.14 E.01819
;WIDTH:0.716168
G1 X145.13 Y184.154 E.01727
;WIDTH:0.679999
G1 X165.504 Y184.147 E.97135
;WIDTH:0.71829
G1 X165.703 Y184.148 E.01005
;WIDTH:0.75658
G1 X165.901 Y184.148 E.01062
;WIDTH:0.79487
G1 X166.1 Y184.149 E.01119
G1 X166.587 Y184.039 E.02807
;WIDTH:0.82364
G1 X167.09 Y183.912 E.03033
G1 X167.318 Y183.782 E.01535
;WIDTH:0.77576
G1 X167.546 Y183.651 E.01441
;WIDTH:0.72788
G1 X167.774 Y183.52 E.01346
;WIDTH:0.679999
G2 X169.067 Y182.542 I-2.383 J-4.499 E.07763
G1 X169.594 Y181.896 E.03976
G1 X170.06 Y181.023 E.04717
G1 X170.274 Y180.384 E.03214
G2 X170.442 Y179.216 I-6.895 J-1.588 E.05628
G1 X170.758 Y161.687 E.83585
G2 X170.429 Y159.851 I-5.722 J.077 E.08935
G1 X170.051 Y159.055 E.04202
G1 X169.714 Y158.552 E.02886
;WIDTH:0.691747
G1 X169.262 Y158.044 E.03299
;WIDTH:0.73305
G1 X169.194 Y157.947 E.00612
;WIDTH:0.774352
G1 X169.125 Y157.851 E.00648
;WIDTH:0.815654
G1 X169.057 Y157.754 E.00685
;WIDTH:0.856956
G1 X168.989 Y157.657 E.00722
;WIDTH:0.87518
G1 X168.605 Y157.373 E.02974
;WIDTH:0.89811
G1 X168.093 Y157.036 E.03921
G1 X167.502 Y156.768 E.04157
G1 X167.613 Y156.759 E.00714
G1 X168.09 Y156.609 E.03203
G2 X168.583 Y156.242 I-.71 J-1.469 E.03957
G2 X169.3 Y156.856 I4.252 J-4.233 E.06049
;WIDTH:0.865614
G1 X169.473 Y156.934 E.01165
;WIDTH:0.831047
G1 X169.645 Y157.011 E.01116
;WIDTH:0.79648
G1 X169.87 Y157.09 E.01342
;WIDTH:0.757653
G1 X170.095 Y157.168 E.01273
;WIDTH:0.718826
G1 X170.319 Y157.246 E.01204
;WIDTH:0.679999
G2 X171.3 Y157.429 I1.177 J-3.598 E.04768
G1 X172.074 Y157.397 E.03692
G2 X173.203 Y157.026 I-1.254 J-5.727 E.05678
G1 X173.726 Y156.684 E.02981
G1 E-.4 F4200
G1 X171.568 Y156.684 F36000
G1 X171.176 Y156.668
G1 X170.889 Y156.622
G1 X170.768 Y156.582
G1 X170.538 Y156.406
G1 X170.271 Y156.076
G1 X170.054 Y155.746
G1 X169.884 Y155.441
G1 X169.763 Y155.13
G1 X169.518 Y154.292
G1 X169.465 Y154.091
G1 X169.451 Y154.027
G1 X169.178 Y152.598
G1 E.4 F4200
;TYPE:Outer wall
;WIDTH:0.96063
G1 F7200
G1 X169.513 Y152.041 E.04465
G1 E-.4 F4200
G1 X174.747 Y150.386 F36000
G1 X174.057 Y151.653
G1 E.4 F4200
;TYPE:Inner wall
;WIDTH:0.895129
G1 F7200
G1 X173.649 Y151.217 E.03809
G1 X173.408 Y151.026 E.01964
G1 X173.258 Y150.968 E.0103
;WIDTH:0.849674
G1 X173.107 Y150.909 E.00975
;WIDTH:0.804219
G1 X172.956 Y150.851 E.0092
;WIDTH:0.758764
G1 X172.806 Y150.793 E.00865
;WIDTH:0.713309
G1 X172.655 Y150.735 E.0081
;WIDTH:0.667853
G1 X172.383 Y150.686 E.01294
;WIDTH:0.632117
G1 X172.111 Y150.636 E.0122
;WIDTH:0.59638
G1 X171.839 Y150.587 E.01146
;WIDTH:0.560643
G1 X171.262 Y150.585 E.02234
;WIDTH:0.559603
G1 X170.906 Y150.652 E.01401
G1 X171.259 Y150.069 E.02636
G1 X171.404 Y150.069 E.00563
;WIDTH:0.584714
G1 X172.168 Y150.081 E.03096
;WIDTH:0.623745
G1 X172.397 Y150.101 E.01001
;WIDTH:0.662775
G1 X172.627 Y150.12 E.01068
;WIDTH:0.701805
G1 X172.856 Y150.14 E.01135
;WIDTH:0.740835
G1 X173.085 Y150.159 E.01202
;WIDTH:0.779409
G1 X173.222 Y150.179 E.0076
;WIDTH:0.817982
G1 X173.358 Y150.198 E.00799
;WIDTH:0.856556
G1 X173.495 Y150.217 E.00839
;WIDTH:0.895129
G2 X174.057 Y150.237 I.35 J-1.981 E.03602
G1 X174.057 Y151.641 E.08959
G1 E-.4 F4200
G1 X172.409 Y151.373 F36000
G1 X172.167 Y151.372
G1 X171.842 Y151.432
G1 X171.003 Y151.636
G1 X170.804 Y151.695
G1 X170.743 Y151.718
G1 X170.552 Y151.802
G1 X168.491 Y152.851
G1 X167.398 Y155.172
G1 X166.796 Y155.561
G1 X166.305 Y155.657
G1 X147.544 Y157.027
G1 E.4 F4200
;WIDTH:0.918591
G1 F7200
G1 X147.775 Y156.965 E.01567
;WIDTH:0.881754
G1 X148.017 Y156.901 E.0157
;WIDTH:0.844917
G1 X148.258 Y156.837 E.01501
;WIDTH:0.808079
G1 X148.497 Y156.788 E.01398
;WIDTH:0.771663
G1 X148.736 Y156.738 E.01332
;WIDTH:0.735247
G1 X148.976 Y156.688 E.01265
;WIDTH:0.69883
G1 X149.348 Y156.637 E.01845
;WIDTH:0.66233
G1 X149.72 Y156.586 E.01742
;WIDTH:0.625829
G1 X149.725 Y156.585 E.00021
;WIDTH:0.625277
G1 X150.324 Y156.544 E.02616
;WIDTH:0.595719
G1 X150.385 Y156.542 E.00253
;WIDTH:0.593579
G1 X152.729 Y156.506 E.09662
;WIDTH:0.569855
G1 X154.613 Y156.494 E.07426
;WIDTH:0.561919
G1 X154.621 Y156.494 E.00034
;WIDTH:0.563094
G1 X156.483 Y156.496 E.07246
;WIDTH:0.569658
G1 X157.735 Y156.506 E.04937
;WIDTH:0.584467
G1 X159.374 Y156.528 E.06642
;WIDTH:0.59728
G1 X160.22 Y156.547 E.03511
;WIDTH:0.637413
G1 X160.945 Y156.606 E.03237
;WIDTH:0.682142
G1 X161.348 Y156.67 E.01952
;WIDTH:0.72687
G1 X161.751 Y156.734 E.02089
;WIDTH:0.767747
G1 X161.998 Y156.791 E.01373
;WIDTH:0.808623
G1 X162.244 Y156.849 E.01451
;WIDTH:0.849499
G1 X162.491 Y156.906 E.01528
;WIDTH:0.884067
G1 X162.731 Y156.968 E.01563
;WIDTH:0.918635
G1 X162.972 Y157.03 E.01628
;WIDTH:0.918863
G1 X165.45 Y157.03 E.16245
G1 X165.558 Y157.061 E.00734
;WIDTH:0.871091
G1 X165.665 Y157.092 E.00694
;WIDTH:0.823318
G1 X165.773 Y157.123 E.00654
;WIDTH:0.775545
G1 X165.881 Y157.154 E.00614
;WIDTH:0.727772
G1 X165.988 Y157.186 E.00574
;WIDTH:0.679999
G3 X167.152 Y157.432 I-.219 J3.911 E.05694
G1 X167.777 Y157.712 E.03263
G1 X168.426 Y158.139 E.03705
G3 X169.184 Y158.906 I-5.179 J5.881 E.05148
G1 X169.521 Y159.409 E.02886
G1 X169.847 Y160.109 E.03678
G3 X170.121 Y161.676 I-4.859 J1.659 E.07616
G1 X169.805 Y179.205 E.83585
G3 X169.67 Y180.181 I-7.25 J-.506 E.047
G1 X169.456 Y180.82 E.03214
G1 X169.041 Y181.578 E.0412
G3 X168.362 Y182.353 I-5.154 J-3.833 E.04919
G1 X167.859 Y182.743 E.03033
G3 X166.205 Y183.426 I-2.947 J-4.791 E.08568
G3 X164.822 Y183.517 I-1.116 J-6.359 E.06619
G1 X145.13 Y183.517 E.93887
G3 X144.138 Y183.397 I.609 J-9.207 E.04766
G1 X143.485 Y183.196 E.03259
G3 X142.553 Y182.697 I2.852 J-6.444 E.05042
G1 X142.048 Y182.284 E.03112
G3 X141.409 Y181.519 I4.922 J-4.756 E.04756
G1 X141.069 Y180.901 E.03362
G1 X140.786 Y180.05 E.04275
G3 X140.679 Y179.214 I9.195 J-1.6 E.04022
G1 X140.363 Y161.675 E.8363
G3 X140.487 Y160.603 I4.418 J-.029 E.05159
G1 X140.708 Y159.923 E.03411
G1 X141.129 Y159.146 E.04209
G1 X141.653 Y158.516 E.03911
G3 X142.361 Y157.919 I2.932 J2.76 E.04426
G1 X143.15 Y157.503 E.04252
G1 X143.984 Y157.248 E.04159
G1 X144.488 Y157.183 E.02422
;WIDTH:0.727766
G1 X144.597 Y157.153 E.00579
;WIDTH:0.775532
G1 X144.706 Y157.122 E.0062
;WIDTH:0.823299
G1 X144.815 Y157.091 E.0066
;WIDTH:0.871065
G1 X144.924 Y157.061 E.00701
;WIDTH:0.918831
G1 X145.032 Y157.03 E.00741
G1 X147.532 Y157.029 E.16386
G1 E-.4 F4200
G1 X143.687 Y155.561 F36000
G1 X143.086 Y155.172
G1 X141.09 Y152.221
G1 E.4 F4200
;TYPE:Outer wall
;WIDTH:0.97274
G1 F7200
G1 X141.406 Y152.807 E.04635
G1 E-.4 F4200
G1 X139.583 Y150.657 F36000
G1 E.4 F4200
;TYPE:Inner wall
;WIDTH:0.552712
G1 F7200
G1 X139.255 Y150.606 E.01266
;WIDTH:0.555409
G1 X138.805 Y150.576 E.01727
;WIDTH:0.599143
G1 X138.401 Y150.631 E.01699
;WIDTH:0.642876
G1 X137.996 Y150.686 E.01832
;WIDTH:0.677565
G1 X137.836 Y150.736 E.00801
;WIDTH:0.712253
G1 X137.675 Y150.787 E.00844
;WIDTH:0.746941
G1 X137.514 Y150.838 E.00888
;WIDTH:0.795994
G1 X137.373 Y150.897 E.00864
;WIDTH:0.845047
G1 X137.231 Y150.956 E.0092
;WIDTH:0.894099
G1 X137.089 Y151.015 E.00977
G1 X136.846 Y151.206 E.01974
G1 X136.426 Y151.657 E.03923
G1 X136.426 Y150.236 E.0905
G2 X137.026 Y150.212 I.213 J-2.143 E.03837
;WIDTH:0.845047
G1 X137.2 Y150.187 E.01056
;WIDTH:0.795994
G1 X137.374 Y150.162 E.00992
;WIDTH:0.746941
G1 X137.646 Y150.138 E.01438
;WIDTH:0.697571
G1 X137.918 Y150.113 E.01337
;WIDTH:0.6482
G1 X138.19 Y150.088 E.01236
;WIDTH:0.598829
G1 X139.217 Y150.065 E.04274
;WIDTH:0.552712
G2 X139.576 Y150.647 I8.141 J-4.625 E.02608
G1 E-.4 F4200
G1 X135.074 Y152.624 F36000
G1 X137.371 Y158.93
G1 X137.57 Y159.567
G1 X137.911 Y180.311
G1 X137.412 Y190.035
G1 E.4 F4200
;WIDTH:0.782124
G1 F7200
G1 X137.419 Y190.07 E.00199
;WIDTH:0.775999
G1 X137.524 Y190.575 E.02828
;WIDTH:0.727999
G1 X137.629 Y191.08 E.02642
;WIDTH:0.679999
G1 X137.992 Y192.041 E.04901
G1 X138.528 Y192.895 E.04803
G1 X138.911 Y193.33 E.02766
G2 X137.06 Y194.396 I.985 J3.848 E.1031
G1 X137.31 Y190.773 E.17317
;WIDTH:0.714041
G1 X137.344 Y190.527 E.01247
;WIDTH:0.748083
G1 X137.378 Y190.281 E.0131
;WIDTH:0.782124
G1 X137.41 Y190.047 E.01307
G1 E-.4 F4200
G1 X141.913 Y195.715 F36000
G1 X144.277 Y194.603
G1 E.4 F4200
;WIDTH:0.799146
G1 F7200
G1 X143.409 Y196.107 E.09824
G2 X142.908 Y194.908 I-4.219 J1.06 E.0738
G2 X143.668 Y194.793 I-2.493 J-19.012 E.04351
G1 X144.266 Y194.607 E.03541
G1 E-.4 F4200
G1 X166.212 Y194.619 F36000
G1 E.4 F4200
;WIDTH:0.792075
G1 F7200
G2 X167.064 Y194.842 I3.266 J-10.717 E.0494
G1 X167.594 Y194.891 E.02987
G1 X167.317 Y195.382 E.03162
G1 X167.079 Y196.121 E.04352
G1 X166.218 Y194.629 E.09656
G1 E-.4 F4200
G1 X164.449 Y192.33 F36000
G1 X164.208 Y191.971
G1 X164.005 Y191.582
G1 X163.843 Y191.175
G1 X163.722 Y190.753
G1 X163.644 Y190.322
G1 X163.611 Y189.884
G1 X163.622 Y189.446
G1 X163.678 Y189.011
G1 X163.777 Y188.583
G1 X163.919 Y188.168
G1 X164.102 Y187.77
G1 X164.322 Y187.396
G1 X164.51 Y187.134
G1 X164.591 Y187.031
G1 X168.68 Y181.858
G1 X168.887 Y181.594
G1 X168.98 Y181.457
G1 X169.155 Y181.172
G1 X169.312 Y180.856
G1 X169.435 Y180.548
G1 X169.488 Y180.392
G1 X169.578 Y180.063
G1 X169.635 Y179.756
G1 X172.911 Y155.8
G1 X173.387 Y156.148
G1 E.4 F4200
;WIDTH:0.679999
G1 F7200
G1 X173.49 Y156.08 E.00589
G1 X174.055 Y155.477 E.0394
G1 X174.346 Y154.977 E.02757
