; HEADER_BLOCK_START
; generated by OrcaSlicer 1.6.3 on 2023-11-16 at 17:28:21
; total layer number: 10
; HEADER_BLOCK_END

; THUMBNAIL_BLOCK_START
; THUMBNAIL_BLOCK_END

; external perimeters extrusion width = 0.62mm
; perimeters extrusion width = 0.62mm
; infill extrusion width = 0.65mm
; solid infill extrusion width = 0.65mm
; top infill extrusion width = 0.65mm
; first layer extrusion width = 0.68mm

; EXECUTABLE_BLOCK_START
EXCLUDE_OBJECT_DEFINE NAME=SuperRedCard.stl_id_0_copy_0 CENTER=170,170 POLYGON=[[127,147],[127.019,146.608],[127.077,146.22],[127.172,145.839],[127.304,145.469],[127.472,145.114],[127.674,144.778],[127.908,144.462],[128.172,144.172],[128.462,143.908],[128.778,143.674],[129.114,143.472],[129.469,143.304],[129.839,143.172],[130.22,143.077],[130.608,143.019],[131,143],[209,143],[209.392,143.019],[209.78,143.077],[210.161,143.172],[210.531,143.304],[210.886,143.472],[211.222,143.674],[211.538,143.908],[211.828,144.172],[212.092,144.462],[212.326,144.778],[212.528,145.114],[212.696,145.469],[212.828,145.839],[212.923,146.22],[212.981,146.608],[213,147],[213,193],[212.981,193.392],[212.923,193.78],[212.828,194.161],[212.696,194.531],[212.528,194.886],[212.326,195.222],[212.092,195.538],[211.828,195.828],[211.538,196.092],[211.222,196.326],[210.886,196.528],[210.531,196.696],[210.161,196.828],[209.78,196.923],[209.392,196.981],[209,197],[131,197],[130.608,196.981],[130.22,196.923],[129.839,196.828],[129.469,196.696],[129.114,196.528],[128.778,196.326],[128.462,196.092],[128.172,195.828],[127.908,195.538],[127.674,195.222],[127.472,194.886],[127.304,194.531],[127.172,194.161],[127.077,193.78],[127.019,193.392],[127,193],[127,147]]
M73 P0 R11
M73 C7
;TYPE:Custom
M104 S0
M140 S0
START_PRINT BED=75 HOTEND=235
G90
G21
M83 ; use relative distances for extrusion
; filament start gcode
SET_PRESSURE_ADVANCE ADVANCE=0.04; Override pressure advance value
M106 S0
;LAYER_CHANGE
;Z:0.2
;HEIGHT:0.2
;BEFORE_LAYER_CHANGE
;0.2
G92 E0

;DSLR_SNAPSHOT
TIMELAPSE_TAKE_FRAME
M204 S5000
G1 E-.4 F4200
G1 X126.691 Y141.954 F36000
G1 Z.2
G1 E.4 F4200
;TYPE:Skirt
;WIDTH:0.68
G1 F7200
G1 X127.207 Y141.556 E.03105
G1 X127.987 Y141.088 E.04336
G1 X128.95 Y140.689 E.04972
G1 X129.833 Y140.468 E.04336
G1 X131 Y140.363 E.05588
G1 X209.039 Y140.365 E3.7206
G1 X210.167 Y140.468 E.05401
G1 X211.419 Y140.822 E.06201
G1 X212.578 Y141.412 E.06201
G1 X213.599 Y142.218 E.06201
G1 X214.444 Y143.207 E.06201
G1 X215.079 Y144.342 E.06201
G1 X215.386 Y145.198 E.04336
G1 X215.615 Y146.479 E.06201
G1 X215.615 Y193.521 E2.24282
G1 X215.311 Y195.05 E.07428
G1 X214.79 Y196.241 E.06201
G1 X214.444 Y196.793 E.03105
G1 X213.782 Y197.599 E.04972
G1 X212.793 Y198.444 E.06201
G1 X212.013 Y198.912 E.04336
G1 X211.05 Y199.311 E.04972
G1 X210.167 Y199.532 E.04336
G1 X209 Y199.637 E.05588
G1 X131 Y199.637 E3.71873
G1 X129.579 Y199.481 E.06815
G1 X128.95 Y199.311 E.03105
G1 X127.987 Y198.912 E.04972
G1 X126.691 Y198.046 E.07428
G1 X126.191 Y197.57 E.03291
G1 X125.556 Y196.793 E.04785
G1 X125.088 Y196.013 E.04336
G1 X124.689 Y195.05 E.04972
G1 X124.468 Y194.167 E.04336
G1 X124.363 Y193 E.05588
G1 X124.366 Y146.871 E2.19927
G1 X124.416 Y146.182 E.03291
G1 X124.614 Y145.198 E.04785
G1 X125.088 Y143.987 E.06202
G1 X125.954 Y142.691 E.07428
G1 X126.628 Y142.018 E.04543
; printing object SuperRedCard.stl id:0 copy 0
EXCLUDE_OBJECT_START NAME=SuperRedCard.stl_id_0_copy_0
G1 E-.4 F4200
G1 X130.128 Y144.895 F36000
G1 E.4 F4200
;TYPE:Inner wall
;WIDTH:0.679999
G1 F7200
G3 X130.555 Y144.766 I.872 J2.105 E.02132
G1 X131.081 Y144.714 E.02518
G1 X208.833 Y144.716 E3.70688
G1 X209.443 Y144.765 E.02917
G3 X211.234 Y146.555 I-.444 J2.236 E.12803
G1 X211.286 Y147.203 E.03097
G1 X211.286 Y192.919 E2.17955
G1 X211.234 Y193.445 E.02518
G3 X209.445 Y195.234 I-2.234 J-.445 E.12793
G1 X208.919 Y195.286 E.02518
G1 X131.081 Y195.286 E3.711
G1 X130.555 Y195.234 E.02518
G3 X128.766 Y193.445 I.445 J-2.234 E.12793
G1 X128.714 Y192.919 E.02518
G1 X128.714 Y172.738 E.96215
G1 X128.87 Y173.152 E.02109
G1 X129.307 Y173.983 E.04479
G1 X129.85 Y174.741 E.04446
G1 X130.495 Y175.409 E.04425
G1 X131.233 Y175.966 E.0441
G1 X132.052 Y176.392 E.04398
G1 X132.93 Y176.669 E.04388
G1 X133.841 Y176.782 E.04377
G1 X134.754 Y176.728 E.04361
G1 X135.638 Y176.51 E.04344
G1 X136.469 Y176.142 E.04331
G1 X137.227 Y175.641 E.04329
G1 X137.898 Y175.027 E.04338
G1 X138.474 Y174.317 E.0436
G1 X138.963 Y173.497 E.04552
G1 X139.43 Y172.351 E.05899
G1 X139.699 Y171.194 E.05663
G2 X139.531 Y168.001 I-8.135 J-1.172 E.15341
G1 X139.13 Y166.848 E.05821
G1 X138.693 Y166.017 E.04479
G1 X138.15 Y165.259 E.04445
G1 X137.505 Y164.591 E.04425
G1 X136.767 Y164.034 E.0441
G1 X135.948 Y163.608 E.04398
G1 X135.07 Y163.331 E.04389
G2 X134.11 Y163.22 I-.997 J4.408 E.04618
G1 X133.279 Y163.271 E.03967
G1 X132.947 Y163.327 E.01608
G1 X132.078 Y163.597 E.04339
G1 X131.269 Y164.011 E.04329
G1 X130.54 Y164.552 E.0433
G1 X129.899 Y165.2 E.04344
G1 X129.356 Y165.938 E.0437
G1 X128.915 Y166.749 E.04402
G1 X128.714 Y167.247 E.02557
G1 X128.714 Y147.081 E.96142
M73 P1 R11
G1 X128.766 Y146.555 E.02518
G3 X130.117 Y144.9 I2.234 J.445 E.10604
G1 X129.883 Y144.304 F36000
G1 F7200
G1 X130.431 Y144.138 E.02727
G1 X131.05 Y144.077 E.02967
G1 X208.988 Y144.079 E3.71578
G1 X209.568 Y144.138 E.0278
G1 X210.117 Y144.304 E.02733
G1 X210.621 Y144.574 E.02727
G1 X211.063 Y144.937 E.02727
G1 X211.426 Y145.379 E.02727
G1 X211.696 Y145.883 E.02727
G1 X211.862 Y146.431 E.02727
G1 X211.923 Y147.203 E.03694
G1 X211.923 Y192.95 E2.18104
G1 X211.862 Y193.569 E.02967
G1 X211.696 Y194.117 E.02727
G1 X211.426 Y194.621 E.02727
G1 X211.063 Y195.063 E.02727
G1 X210.621 Y195.426 E.02727
G1 X210.117 Y195.696 E.02727
G1 X209.569 Y195.862 E.02727
G1 X208.95 Y195.923 E.02967
G1 X131.05 Y195.923 E3.71397
G1 X130.431 Y195.862 E.02967
G1 X129.883 Y195.696 E.02727
G1 X129.379 Y195.426 E.02727
G1 X128.937 Y195.063 E.02727
G1 X128.574 Y194.621 E.02727
G1 X128.304 Y194.117 E.02727
G1 X128.138 Y193.569 E.02727
G1 X128.077 Y192.95 E.02967
G1 X128.077 Y172.944 E.95383
;WIDTH:0.692197
G1 X128.083 Y171.782 E.05647
;WIDTH:0.741741
G1 X128.108 Y171.476 E.01605
;WIDTH:0.791284
G2 X128.116 Y170.559 I-4.2 J-.494 E.05146
;WIDTH:0.757259
G1 X128.111 Y169.947 E.03268
;WIDTH:0.761462
G2 X128.117 Y168.663 I-51.398 J-.9 E.06904
;WIDTH:0.760186
G1 X128.097 Y168.165 E.02678
;WIDTH:0.720093
G1 X128.077 Y167.666 E.02528
;WIDTH:0.679999
G1 X128.077 Y147.05 E.98291
G1 X128.138 Y146.431 E.02967
G1 X128.304 Y145.883 E.02727
G1 X128.574 Y145.379 E.02727
G1 X128.937 Y144.937 E.02727
G1 X129.379 Y144.574 E.02727
G1 X129.873 Y144.31 E.0267
G1 X129.638 Y143.713 F36000
;TYPE:Outer wall
G1 F7200
G1 X130.306 Y143.51 E.03325
G1 X131.019 Y143.44 E.03415
G1 X209.02 Y143.442 E3.7188
G1 X209.694 Y143.51 E.03228
G1 X210.362 Y143.713 E.03327
G1 X210.977 Y144.041 E.03326
G1 X211.516 Y144.484 E.03326
G1 X211.959 Y145.023 E.03326
G1 X212.287 Y145.638 E.03326
G1 X212.49 Y146.306 E.03325
G3 X212.56 Y147.203 I-13.553 J1.51 E.04292
G1 X212.56 Y192.981 E2.18253
G1 X212.49 Y193.694 E.03415
G1 X212.287 Y194.362 E.03325
G1 X211.959 Y194.977 E.03326
G1 X211.516 Y195.516 E.03326
G1 X210.977 Y195.959 E.03326
G1 X210.362 Y196.287 E.03326
G1 X209.694 Y196.49 E.03325
G1 X208.981 Y196.56 E.03415
G1 X131.019 Y196.56 E3.71695
G1 X130.306 Y196.49 E.03415
G1 X129.638 Y196.287 E.03325
G1 X129.023 Y195.959 E.03326
G1 X128.484 Y195.516 E.03326
G1 X128.041 Y194.977 E.03326
G1 X127.713 Y194.362 E.03326
G1 X127.51 Y193.694 E.03325
G1 X127.44 Y192.981 E.03415
G1 X127.44 Y147.019 E2.19132
G1 X127.51 Y146.306 E.03415
G1 X127.713 Y145.638 E.03325
G1 X128.041 Y145.023 E.03326
G1 X128.484 Y144.484 E.03326
G1 X129.023 Y144.041 E.03326
G1 X129.628 Y143.718 E.03268
G1 X129.733 Y143.786
G1 E-.4 F4200
G1 X128.885 Y171.139 F36000
G1 E.4 F4200
;TYPE:Inner wall
;WIDTH:0.790349
G1 F7200
G1 X128.834 Y170.623 E.02903
;WIDTH:0.761461
G1 X128.815 Y170.039 E.03143
;WIDTH:0.757259
G1 X128.83 Y169.455 E.0312
;WIDTH:0.791284
G1 X128.878 Y168.874 E.03265
G1 X128.982 Y168.516 E.02089
;WIDTH:0.754189
G1 X129.086 Y168.158 E.01986
;WIDTH:0.717094
G1 X129.189 Y167.799 E.01882
;WIDTH:0.679999
G1 X129.506 Y166.987 E.04154
G1 X129.911 Y166.251 E.04008
G1 X130.406 Y165.586 E.03952
G1 X130.984 Y165.008 E.03899
G1 X131.638 Y164.531 E.03855
G1 X132.354 Y164.171 E.03824
G1 X133.119 Y163.941 E.03808
G1 X134.149 Y163.856 E.04928
G1 X134.973 Y163.961 E.03961
G1 X135.74 Y164.21 E.03844
G1 X136.458 Y164.591 E.03875
G1 X137.109 Y165.091 E.03914
G1 X137.683 Y165.692 E.0396
G1 X138.168 Y166.378 E.0401
G1 X138.562 Y167.136 E.04069
G1 X138.926 Y168.202 E.0537
G3 X139.152 Y170 I-8.199 J1.945 E.08658
G3 X139.066 Y171.119 I-7.482 J-.012 E.05356
G1 X138.811 Y172.201 E.05299
G1 X138.378 Y173.246 E.05396
G1 X137.933 Y173.979 E.04086
G1 X137.41 Y174.617 E.03934
G1 X136.806 Y175.163 E.03883
G1 X136.13 Y175.603 E.03843
G1 X135.395 Y175.921 E.03817
G1 X134.619 Y176.105 E.03805
M73 P2 R11
G1 X133.821 Y176.145 E.03808
G1 X133.027 Y176.039 E.03821
G1 X132.26 Y175.79 E.03843
G1 X131.542 Y175.409 E.03875
G1 X130.891 Y174.909 E.03914
G1 X130.317 Y174.308 E.0396
G1 X129.832 Y173.622 E.0401
G1 X129.438 Y172.864 E.04069
G1 X129.074 Y171.798 E.0537
;WIDTH:0.716783
G1 X129.013 Y171.601 E.01044
;WIDTH:0.753566
G1 X128.952 Y171.403 E.01101
;WIDTH:0.790349
G1 X128.892 Y171.205 E.01157
G1 X128.886 Y171.151 E.00301
G1 X129.574 Y171.068 F36000
;TYPE:Outer wall
;WIDTH:0.679999
G1 F7200
G3 X129.566 Y168.956 I6.889 J-1.082 E.10109
G1 X129.808 Y167.95 E.04935
G1 X130.096 Y167.225 E.03715
G1 X130.466 Y166.564 E.03614
G1 X130.913 Y165.972 E.03535
G1 X131.429 Y165.464 E.03454
G1 X132.006 Y165.051 E.0338
G1 X132.631 Y164.745 E.03319
G1 X133.291 Y164.554 E.03276
G1 X134.188 Y164.492 E.04287
G1 X134.876 Y164.591 E.03314
G1 X135.532 Y164.812 E.03299
G1 X136.149 Y165.148 E.03352
G1 X136.714 Y165.59 E.03419
G1 X137.215 Y166.125 E.03496
G1 X137.644 Y166.74 E.03575
G1 X137.993 Y167.424 E.03659
G1 X138.321 Y168.402 E.04919
G3 X138.515 Y170 I-6.402 J1.588 E.07694
G3 X138.434 Y171.044 I-6.767 J-.003 E.04997
G1 X138.192 Y172.05 E.04935
G1 X137.792 Y172.996 E.04893
G1 X137.393 Y173.642 E.0362
G1 X136.922 Y174.207 E.03508
G1 X136.385 Y174.685 E.03429
G1 X135.791 Y175.064 E.03358
G1 X135.152 Y175.332 E.03302
G1 X134.484 Y175.482 E.03267
G1 X133.801 Y175.509 E.03255
G1 X133.124 Y175.409 E.03266
G1 X132.468 Y175.188 E.03299
G1 X131.851 Y174.852 E.03352
G1 X131.286 Y174.41 E.03419
G1 X130.785 Y173.875 E.03496
G1 X130.356 Y173.26 E.03575
G1 X130.007 Y172.576 E.03659
G1 X129.679 Y171.598 E.04919
G3 X129.576 Y171.08 I6.785 J-1.612 E.02517
G1 X129.475 Y171.032
G1 E-.4 F4200
G1 X211.095 Y147.454 F36000
G1 E.4 F4200
;TYPE:Bottom surface
;WIDTH:0.681233
G1 F7200
G1 X208.835 Y145.194 E.15266
G1 X207.932 Y145.194 E.04312
G1 X210.808 Y148.07 E.19427
G1 X210.808 Y148.972 E.04312
G1 X207.03 Y145.194 E.25526
G1 X206.127 Y145.194 E.04312
G1 X210.808 Y149.875 E.31624
G1 X210.808 Y150.778 E.04312
G1 X205.224 Y145.194 E.37722
G1 X204.321 Y145.194 E.04312
G1 X210.808 Y151.68 E.43821
G1 X210.808 Y152.583 E.04312
G1 X203.419 Y145.194 E.49919
G1 X202.516 Y145.194 E.04312
G1 X210.808 Y153.486 E.56018
G1 X210.808 Y154.389 E.04312
G1 X201.613 Y145.194 E.62116
G1 X200.71 Y145.194 E.04312
G1 X210.808 Y155.291 E.68214
G1 X210.808 Y156.194 E.04312
G1 X199.808 Y145.194 E.74313
G1 X198.905 Y145.194 E.04312
G1 X210.808 Y157.097 E.80411
G1 X210.808 Y157.999 E.04312
G1 X198.002 Y145.194 E.8651
G1 X197.099 Y145.194 E.04312
G1 X210.808 Y158.902 E.92608
G1 X210.808 Y159.805 E.04312
G1 X196.197 Y145.194 E.98706
G1 X195.294 Y145.194 E.04312
G1 X210.808 Y160.708 E1.04805
G1 X210.808 Y161.61 E.04312
G1 X194.391 Y145.194 E1.10903
G1 X193.489 Y145.193 E.04312
G1 X210.808 Y162.513 E1.17001
G1 X210.808 Y163.416 E.04312
G1 X192.586 Y145.193 E1.231
G1 X191.683 Y145.193 E.04312
G1 X210.808 Y164.318 E1.29198
G1 X210.808 Y165.221 E.04312
G1 X190.78 Y145.193 E1.35297
G1 X189.878 Y145.193 E.04312
G1 X210.808 Y166.124 E1.41395
G1 X210.808 Y167.027 E.04312
G1 X188.975 Y145.193 E1.47493
G1 X188.072 Y145.193 E.04312
G1 X210.808 Y167.929 E1.53592
G1 X210.808 Y168.832 E.04312
G1 X187.169 Y145.193 E1.5969
G1 X186.267 Y145.193 E.04312
G1 X210.808 Y169.735 E1.65788
G1 X210.808 Y170.637 E.04312
G1 X185.364 Y145.193 E1.71887
M73 P3 R11
G1 X184.461 Y145.193 E.04312
G1 X210.808 Y171.54 E1.77985
G1 X210.808 Y172.443 E.04312
G1 X183.558 Y145.193 E1.84084
G1 X182.656 Y145.193 E.04312
G1 X210.808 Y173.346 E1.90182
G1 X210.808 Y174.248 E.04312
G1 X181.753 Y145.193 E1.9628
G1 X180.85 Y145.193 E.04312
G1 X210.808 Y175.151 E2.02379
G1 X210.808 Y176.054 E.04312
G1 X179.948 Y145.193 E2.08477
G1 X179.045 Y145.193 E.04312
G1 X210.808 Y176.956 E2.14576
G1 X210.808 Y177.859 E.04312
G1 X178.142 Y145.193 E2.20674
G1 X177.239 Y145.193 E.04312
G1 X210.808 Y178.762 E2.26772
G1 X210.808 Y179.665 E.04312
G1 X176.337 Y145.193 E2.32871
G1 X175.434 Y145.193 E.04312
G1 X210.808 Y180.567 E2.38969
G1 X210.808 Y181.47 E.04312
G1 X174.531 Y145.193 E2.45067
G1 X173.628 Y145.193 E.04312
G1 X210.808 Y182.373 E2.51166
G1 X210.808 Y183.275 E.04312
G1 X172.726 Y145.193 E2.57264
G1 X171.823 Y145.193 E.04312
G1 X210.808 Y184.178 E2.63363
G1 X210.808 Y185.081 E.04312
G1 X170.92 Y145.193 E2.69461
M73 P4 R11
G1 X170.017 Y145.193 E.04312
G1 X210.808 Y185.984 E2.75559
G1 X210.808 Y186.886 E.04312
G1 X169.115 Y145.193 E2.81658
G1 X168.212 Y145.193 E.04312
G1 X210.808 Y187.789 E2.87756
G1 X210.808 Y188.692 E.04312
G1 X167.309 Y145.193 E2.93854
G1 X166.407 Y145.193 E.04312
G1 X210.808 Y189.594 E2.99953
G1 X210.808 Y190.497 E.04312
G1 X165.504 Y145.193 E3.06051
G1 X164.601 Y145.193 E.04312
G1 X210.808 Y191.4 E3.1215
G1 X210.808 Y192.302 E.04312
G1 X163.698 Y145.193 E3.18248
G1 X162.796 Y145.193 E.04312
G1 X210.78 Y193.177 E3.24159
G3 X210.566 Y193.866 I-1.783 J-.178 E.03468
G1 X161.893 Y145.193 E3.2881
G1 X160.99 Y145.193 E.04312
G1 X210.16 Y194.363 E3.32166
G3 X209.587 Y194.692 I-1.191 J-1.41 E.03176
G1 X160.087 Y145.193 E3.3439
M73 P5 R11
G1 X159.185 Y145.193 E.04312
G1 X208.8 Y194.808 E3.35175
G1 X207.897 Y194.808 E.04312
G1 X158.282 Y145.193 E3.35175
G1 X157.379 Y145.193 E.04312
G1 X206.995 Y194.808 E3.35175
G1 X206.092 Y194.808 E.04312
G1 X156.476 Y145.193 E3.35175
G1 X155.574 Y145.193 E.04312
G1 X205.189 Y194.808 E3.35176
G1 X204.286 Y194.808 E.04312
G1 X154.671 Y145.193 E3.35176
G1 X153.768 Y145.193 E.04312
G1 X203.384 Y194.808 E3.35176
G1 X202.481 Y194.808 E.04312
G1 X152.866 Y145.192 E3.35176
G1 X151.963 Y145.192 E.04312
G1 X201.578 Y194.808 E3.35176
G1 X200.676 Y194.808 E.04312
G1 X151.06 Y145.192 E3.35176
G1 X150.157 Y145.192 E.04312
G1 X199.773 Y194.808 E3.35177
G1 X198.87 Y194.808 E.04312
G1 X149.255 Y145.192 E3.35177
M73 P6 R11
G1 X148.352 Y145.192 E.04312
G1 X197.968 Y194.808 E3.35177
G1 X197.065 Y194.808 E.04312
G1 X147.449 Y145.192 E3.35177
G1 X146.546 Y145.192 E.04312
G1 X196.162 Y194.808 E3.35177
G1 X195.259 Y194.808 E.04312
G1 X145.644 Y145.192 E3.35177
G1 X144.741 Y145.192 E.04312
G1 X194.357 Y194.808 E3.35177
G1 X193.454 Y194.808 E.04312
G1 X143.838 Y145.192 E3.35178
G1 X142.935 Y145.192 E.04312
G1 X192.551 Y194.808 E3.35178
G1 X191.649 Y194.808 E.04312
G1 X142.033 Y145.192 E3.35178
M73 C6
G1 X141.13 Y145.192 E.04312
G1 X190.746 Y194.808 E3.35178
G1 X189.843 Y194.808 E.04312
G1 X140.227 Y145.192 E3.35178
G1 X139.325 Y145.192 E.04312
G1 X188.94 Y194.808 E3.35178
M73 P7 R11
G1 X188.038 Y194.808 E.04312
G1 X138.422 Y145.192 E3.35178
G1 X137.519 Y145.192 E.04312
G1 X187.135 Y194.808 E3.35179
G1 X186.232 Y194.808 E.04312
G1 X136.616 Y145.192 E3.35179
G1 X135.714 Y145.192 E.04312
G1 X185.33 Y194.808 E3.35179
G1 X184.427 Y194.808 E.04312
G1 X134.811 Y145.192 E3.35179
M73 P7 R10
G1 X133.908 Y145.192 E.04312
G1 X183.524 Y194.808 E3.35179
G1 X182.621 Y194.808 E.04312
G1 X133.005 Y145.192 E3.35179
G1 X132.103 Y145.192 E.04312
G1 X181.719 Y194.808 E3.3518
G1 X180.816 Y194.808 E.04312
G1 X131.201 Y145.193 E3.35175
G1 X130.648 Y145.237 E.0265
G1 X130.413 Y145.308 E.01169
G1 X179.913 Y194.808 E3.34394
G1 X179.011 Y194.808 E.04312
G1 X129.84 Y145.637 E3.3217
M73 P8 R10
G1 X129.729 Y145.729 E.00688
