; HEADER_BLOCK_START
; generated by OrcaSlicer 1.8.1 on 2023-12-26 at 20:36:54
; total layer number: 18
; HEADER_BLOCK_END

; THUMBNAIL_BLOCK_START

;
; THUMBNAIL_BLOCK_END

; external perimeters extrusion width = 0.52mm
; perimeters extrusion width = 0.52mm
; infill extrusion width = 0.55mm
; solid infill extrusion width = 0.55mm
; top infill extrusion width = 0.55mm
; first layer extrusion width = 0.58mm

; external perimeters extrusion width = 0.52mm
; perimeters extrusion width = 0.52mm
; infill extrusion width = 0.55mm
; solid infill extrusion width = 0.55mm
; top infill extrusion width = 0.55mm
; first layer extrusion width = 0.58mm

; external perimeters extrusion width = 0.52mm
; perimeters extrusion width = 0.52mm
; infill extrusion width = 0.55mm
; solid infill extrusion width = 0.55mm
; top infill extrusion width = 0.55mm
; first layer extrusion width = 0.58mm

; external perimeters extrusion width = 0.52mm
; perimeters extrusion width = 0.52mm
; infill extrusion width = 0.55mm
; solid infill extrusion width = 0.55mm
; top infill extrusion width = 0.55mm
; first layer extrusion width = 0.58mm

; external perimeters extrusion width = 0.52mm
; perimeters extrusion width = 0.52mm
; infill extrusion width = 0.55mm
; solid infill extrusion width = 0.55mm
; top infill extrusion width = 0.55mm
; first layer extrusion width = 0.58mm

; external perimeters extrusion width = 0.52mm
; perimeters extrusion width = 0.52mm
; infill extrusion width = 0.55mm
; solid infill extrusion width = 0.55mm
; top infill extrusion width = 0.55mm
; first layer extrusion width = 0.58mm

; EXECUTABLE_BLOCK_START
EXCLUDE_OBJECT_DEFINE NAME=test.stl_id_0_copy_0 CENTER=182,175 POLYGON=[[174,167.5],[179,165.5],[182,165.5],[190,167.5],[190,182.5],[182,184.5],[179,184.5],[174,182.5],[174,167.5]]
EXCLUDE_OBJECT_DEFINE NAME=test.stl_id_1_copy_0 CENTER=165,175 POLYGON=[[157,167.5],[162,165.5],[165,165.5],[173,167.5],[173,182.5],[165,184.5],[162,184.5],[157,182.5],[157,167.5]]
EXCLUDE_OBJECT_DEFINE NAME=test.stl_id_2_copy_0 CENTER=165,155 POLYGON=[[157,147.5],[162,145.5],[165,145.5],[173,147.5],[173,162.5],[165,164.5],[162,164.5],[157,162.5],[157,147.5]]
EXCLUDE_OBJECT_DEFINE NAME=test.stl_id_3_copy_0 CENTER=182,155 POLYGON=[[174,147.5],[179,145.5],[182,145.5],[190,147.5],[190,162.5],[182,164.5],[179,164.5],[174,162.5],[174,147.5]]
EXCLUDE_OBJECT_DEFINE NAME=test.stl_id_4_copy_0 CENTER=148,155 POLYGON=[[140,147.5],[145,145.5],[148,145.5],[156,147.5],[156,162.5],[148,164.5],[145,164.5],[140,162.5],[140,147.5]]
EXCLUDE_OBJECT_DEFINE NAME=test.stl_id_5_copy_0 CENTER=148,175 POLYGON=[[140,167.5],[145,165.5],[148,165.5],[156,167.5],[156,182.5],[148,184.5],[145,184.5],[140,182.5],[140,167.5]]
M73 P0 R8
;TYPE:Custom
M104 S0
M140 S0
START_PRINT BED=75 HOTEND=215
G90
G21
M83 ; use relative distances for extrusion
; filament start gcode
SET_PRESSURE_ADVANCE ADVANCE=0.032; Override pressure advance value
M106 S0
;LAYER_CHANGE
;Z:0.2
;HEIGHT:0.2
;BEFORE_LAYER_CHANGE
;0.2
G92 E0

;DSLR_SNAPSHOT
TIMELAPSE_TAKE_FRAME
;_SET_FAN_SPEED_CHANGING_LAYER
SET_VELOCITY_LIMIT ACCEL=10000 ACCEL_TO_DECEL=5000
SET_VELOCITY_LIMIT SQUARE_CORNER_VELOCITY=10
G1 E-.4 F4200
G1 X137.357 Y144.303 F24000
G1 Z.2
G1 E.4 F4200
;TYPE:Skirt
;WIDTH:0.58
G1 F3000
G1 X138.459 Y143.648 E.05152
G1 X143.459 Y141.648 E.21644
G1 X145 Y141.352 E.06306
G1 X182 Y141.352 E1.48712
G1 X183.006 Y141.476 E.04074
G1 X191.006 Y143.476 E.33144
G1 X192.625 Y144.287 E.07278
G1 X193.743 Y145.712 E.07278
G1 X194.148 Y147.5 E.07371
G1 X194.148 Y182.5 E1.40674
G1 X193.753 Y184.267 E.07278
G1 X192.643 Y185.697 E.07278
G1 X191.006 Y186.524 E.07371
G1 X183.006 Y188.524 E.33144
G1 X182 Y188.648 E.04074
G1 X145 Y188.648 E1.48712
G1 X143.459 Y188.352 E.06306
G1 X138.459 Y186.352 E.21644
G1 X136.965 Y185.328 E.07278
G1 X136.05 Y183.766 E.07278
G1 X135.852 Y182.5 E.05152
G1 X135.852 Y147.5 E1.40674
G1 X136.247 Y145.733 E.07278
G1 X137.326 Y144.342 E.07077
G1 X137.762 Y144.715 F24000
G1 F3000
G1 X137.88 Y144.576 E.00732
G1 X138.659 Y144.147 E.03573
G1 X143.659 Y142.147 E.21644
G1 X145 Y141.889 E.0549
G1 X182 Y141.889 E1.48712
M73 P1 R8
G1 X182.876 Y141.997 E.03547
G1 X190.876 Y143.997 E.33144
G1 X192.372 Y144.777 E.06784
G1 X193.351 Y146.153 E.06784
G1 X193.611 Y147.5 E.05515
G1 X193.611 Y182.5 E1.40674
G1 X193.217 Y184.141 E.06784
G1 X192.12 Y185.424 E.06784
G1 X190.876 Y186.003 E.05515
G1 X182.876 Y188.003 E.33144
G1 X182 Y188.111 E.03547
G1 X145 Y188.111 E1.48712
G1 X143.659 Y187.853 E.0549
G1 X138.659 Y185.853 E.21644
G1 X137.282 Y184.877 E.06784
G1 X136.498 Y183.382 E.06784
G1 X136.389 Y182.5 E.03573
G1 X136.389 Y147.5 E1.40674
G1 X136.783 Y145.859 E.06784
G1 X137.73 Y144.753 E.05851
G1 X138.167 Y145.252 F24000
G1 F3000
G1 X138.858 Y144.646 E.03695
G1 X143.858 Y142.646 E.21644
G1 X145 Y142.426 E.04673
G1 X182 Y142.426 E1.48712
G1 X182.746 Y142.518 E.03019
G1 X190.746 Y144.518 E.33144
G1 X192.11 Y145.264 E.06252
G1 X192.934 Y146.583 E.06252
G1 X193.074 Y147.5 E.03727
G1 X193.074 Y182.5 E1.40674
G1 X192.681 Y184.005 E.06252
G1 X191.601 Y185.124 E.06252
G1 X190.746 Y185.482 E.03727
G1 X182.746 Y187.482 E.33144
M73 P2 R8
G1 X182 Y187.574 E.03019
G1 X145 Y187.574 E1.48712
G1 X143.858 Y187.354 E.04673
G1 X138.858 Y185.354 E.21644
G1 X137.607 Y184.43 E.06252
G1 X136.926 Y182.5 E.08227
G1 X136.926 Y147.5 E1.40674
G1 X137.319 Y145.995 E.06252
G1 X138.13 Y145.285 E.04331
G1 X138.44 Y145.658 F24000
G1 F3000
G1 X139.058 Y145.144 E.03229
G1 X144.058 Y143.144 E.21644
G1 X145 Y142.963 E.03857
G1 X182 Y142.963 E1.48712
G1 X182.615 Y143.039 E.02492
G1 X190.615 Y145.039 E.33144
G1 X191.835 Y145.748 E.05669
G1 X192.537 Y147.5 E.07588
G1 X192.537 Y182.5 E1.40674
G1 X192.145 Y183.855 E.05669
G1 X190.615 Y184.961 E.07588
G1 X182.615 Y186.961 E.33144
G1 X182 Y187.037 E.02492
G1 X145 Y187.037 E1.48712
G1 X144.058 Y186.856 E.03857
G1 X139.058 Y184.856 E.21644
G1 X137.945 Y183.988 E.05669
G1 X137.463 Y182.5 E.06288
G1 X137.463 Y147.5 E1.40674
M73 P3 R8
G1 X137.855 Y146.145 E.05669
G1 X138.402 Y145.69 E.02859
; printing object test.stl id:5 copy 0
G1 E-.4 F4200
EXCLUDE_OBJECT_START NAME=test.stl_id_5_copy_0
G1 X147.558 Y180.551 F24000
G1 E.4 F4200
;TYPE:Inner wall
;WIDTH:0.530779
G1 F4800
G1 X147.208 Y180.649 E.01328
G1 X146.66 Y180.98 E.02334
G1 X146.5 Y181.174 E.00921
G1 X146.34 Y180.98 E.00921
G1 X145.793 Y180.649 E.02334
G1 X145.121 Y180.538 E.02484
G2 X147.548 Y180.552 I1.724 J-88.345 E.0886
G1 E-.4 F4200
G1 X151.885 Y172.762 F24000
G1 E.4 F4200
;WIDTH:0.579999
G1 F4800
G1 X151.62 Y173.215 E.0211
G1 X151.573 Y173.547 E.01346
;WIDTH:0.552061
G1 X151.527 Y173.879 E.01276
;WIDTH:0.524123
G1 X151.527 Y176.121 E.08077
;WIDTH:0.539321
G1 X151.547 Y176.444 E.012
;WIDTH:0.579817
G1 X151.651 Y176.861 E.01728
;WIDTH:0.579999
G1 X152.04 Y177.441 E.02809
G1 X152.531 Y177.799 E.02442
G1 X152.789 Y177.906 E.0112
G1 X153.379 Y178.001 E.02402
G1 X153.999 Y178.001 E.02493
G1 X153.999 Y178.621 E.02493
G1 X153.999 Y180.499 E.07545
G2 X149.517 Y180.524 I-1.607 J114.541 E.18015
;WIDTH:0.577871
G1 X149.97 Y180.408 E.01873
;WIDTH:0.579999
G1 X150.563 Y179.987 E.02923
G1 X150.911 Y179.468 E.02512
G1 X151.056 Y178.973 E.02071
G1 X151.076 Y178.695 E.0112
G1 X151.075 Y176.98 E.06896
;WIDTH:0.579817
G1 X151.061 Y176.551 E.01724
;WIDTH:0.551644
G1 X151.046 Y176.122 E.01634
;WIDTH:0.524123
G1 X151.045 Y173.879 E.08077
;WIDTH:0.552061
G1 X151.059 Y173.497 E.01454
;WIDTH:0.579999
G1 X151.073 Y173.116 E.01534
G1 X151.071 Y169.501 E.1453
G1 X153.999 Y169.501 E.11768
G1 X153.999 Y171.999 E.10039
G2 X152.984 Y172.041 I-.31 J4.803 E.04089
G1 X152.364 Y172.296 E.02696
G1 X151.94 Y172.669 E.0227
G1 X151.89 Y172.754 E.00396
G1 E-.4 F4200
G1 X145.827 Y167.553 F24000
G1 E.4 F4200
G1 F4800
G2 X145.922 Y166.427 I-8.022 J-1.242 E.04544
G1 X147.078 Y166.427 E.04645
G2 X147.172 Y167.551 I9.132 J-.202 E.04536
G1 X146.334 Y167.516 E.03373
G1 X145.837 Y167.552 E.02001
G1 E-.4 F4200
G1 X142.464 Y169.469 F24000
G1 E.4 F4200
;WIDTH:0.525086
G1 F4800
G1 X142.453 Y169.875 E.01467
;WIDTH:0.522891
G1 X142.452 Y178.696 E.31686
;WIDTH:0.550666
G1 X142.487 Y178.996 E.01145
;WIDTH:0.578609
G1 X142.522 Y179.295 E.01208
;WIDTH:0.62053
G1 X142.572 Y179.435 E.00643
;WIDTH:0.662451
G1 X142.621 Y179.576 E.0069
;WIDTH:0.704372
G1 X142.67 Y179.716 E.00736
;WIDTH:0.746292
G1 X142.72 Y179.856 E.00783
G1 X143.361 Y180.416 E.04478
G1 X142.084 Y180.416 E.06718
G2 X142.063 Y179.893 I-2.142 J-.176 E.0276
;WIDTH:0.704372
G1 X142.042 Y179.722 E.00853
;WIDTH:0.662451
G1 X142.022 Y179.551 E.00798
;WIDTH:0.62053
G1 X142.001 Y179.38 E.00744
;WIDTH:0.578609
G1 X141.987 Y179.038 E.01372
;WIDTH:0.550667
G1 X141.973 Y178.696 E.013
;WIDTH:0.522891
G1 X141.973 Y169.875 E.31686
;WIDTH:0.525086
G1 X141.974 Y169.47 E.01462
G1 X142.454 Y169.469 E.01734
G1 E-.4 F4200
G1 X152.314 Y173.077 F24000
G1 E.4 F4200
;WIDTH:0.579999
G1 F4800
G1 X152.122 Y173.405 E.01528
G1 X152.036 Y173.879 E.01935
G1 X152.036 Y176.121 E.09015
G2 X152.144 Y176.65 I1.343 J0 E.02183
G1 X152.423 Y177.064 E.02006
G1 X152.773 Y177.32 E.01745
G1 X152.957 Y177.396 E.008
G1 X153.379 Y177.464 E.01716
G1 X154.536 Y177.464 E.04651
G1 X154.536 Y178.621 E.04651
G1 X154.536 Y181.036 E.09704
G1 X147.879 Y181.036 E.26757
G1 X147.393 Y181.127 E.01986
G1 X146.997 Y181.366 E.0186
G1 X146.714 Y181.71 E.01789
;WIDTH:0.615842
G1 X146.607 Y182.044 E.01505
;WIDTH:0.651684
G1 X146.5 Y182.379 E.01599
G1 X146.393 Y182.044 E.01599
;WIDTH:0.615842
G1 X146.286 Y181.71 E.01505
;WIDTH:0.579999
G1 X146.003 Y181.366 E.01789
G1 X145.607 Y181.127 E.0186
G1 X145.121 Y181.036 E.01986
G1 X141.464 Y181.036 E.147
G1 X141.464 Y168.961 E.48531
G1 X142.992 Y168.958 E.06139
G1 X142.961 Y169.875 E.03688
G1 X142.961 Y178.696 E.35456
G1 X143.031 Y179.124 E.01742
G1 X143.22 Y179.49 E.01655
G1 X143.664 Y179.877 E.02366
G1 X144.304 Y180.039 E.02653
G1 X149.196 Y180.039 E.19666
G2 X149.75 Y179.92 I0 J-1.343 E.02291
G1 X150.173 Y179.618 E.02088
G1 X150.421 Y179.247 E.01794
G1 X150.525 Y178.894 E.0148
G1 X150.539 Y178.696 E.008
G1 X150.534 Y169.43 E.37242
G1 X150.498 Y168.958 E.01902
G2 X154.536 Y168.964 I2.29 J-176.548 E.16231
G1 X154.536 Y172.536 E.14356
G1 X153.379 Y172.536 E.04651
G1 X153.097 Y172.566 E.01139
G1 X152.654 Y172.748 E.01925
G1 X152.351 Y173.014 E.01621
G1 X152.319 Y173.068 E.0025
G1 X152.744 Y173.391 F24000
G1 F4800
G1 X152.635 Y173.598 E.0094
G2 X152.573 Y173.879 I.837 J.331 E.01159
G1 X152.573 Y176.121 E.09015
G1 X152.638 Y176.439 E.01301
G1 X152.805 Y176.687 E.01204
G1 X153.073 Y176.867 E.01296
G1 X153.379 Y176.927 E.01253
G1 X155.073 Y176.927 E.0681
G1 X155.073 Y178.621 E.0681
G1 X155.073 Y181.573 E.11863
G1 X147.879 Y181.573 E.28916
G1 X147.587 Y181.627 E.01192
G1 X147.349 Y181.771 E.01116
G1 X147.18 Y181.977 E.01074
G1 X147.073 Y182.379 E.01669
G1 X147.073 Y183.573 E.04801
G1 X145.927 Y183.573 E.04605
G1 X145.927 Y182.379 E.04801
G1 X145.82 Y181.977 E.01669
G1 X145.651 Y181.771 E.01074
G1 X145.413 Y181.627 E.01116
G1 X145.121 Y181.573 E.01192
G1 X140.927 Y181.573 E.16858
G1 X140.927 Y168.425 E.52844
G2 X143.595 Y168.386 I.74 J-40.679 E.10728
G2 X143.498 Y169.875 I11.346 J1.488 E.06
G1 X143.498 Y178.696 E.35456
G1 X143.51 Y178.836 E.00562
G1 X143.654 Y179.172 E.01471
G1 X143.92 Y179.405 E.0142
G1 X144.304 Y179.502 E.01592
G1 X149.196 Y179.502 E.19666
G1 X149.528 Y179.431 E.01365
G1 X149.782 Y179.25 E.01253
G1 X149.931 Y179.027 E.01076
G1 X150.002 Y178.696 E.01361
G1 X149.997 Y169.43 E.37242
G1 X149.901 Y168.386 E.04214
G2 X151 Y168.427 I1.133 J-15.809 E.04418
G1 X155.073 Y168.427 E.16371
G1 X155.073 Y173.073 E.18673
G1 X153.379 Y173.073 E.0681
G1 X153.209 Y173.091 E.00683
G1 X152.944 Y173.2 E.01155
G2 X152.769 Y173.366 I.528 J.729 E.0097
G1 X152.751 Y173.384 E.00105
G1 X153.173 Y173.706 F24000
;TYPE:Outer wall
G1 F4800
G1 X153.11 Y173.879 E.00739
G1 X153.11 Y176.121 E.09015
G1 X153.132 Y176.227 E.00434
G1 X153.258 Y176.361 E.00739
G1 X153.379 Y176.39 E.005
G1 X155.61 Y176.39 E.08969
G1 X155.61 Y178.621 E.08969
G1 X155.61 Y182.11 E.14021
G1 X147.879 Y182.11 E.31075
G1 X147.702 Y182.176 E.00757
G1 X147.61 Y182.379 E.00894
G1 X147.61 Y184.11 E.06959
G1 X145.39 Y184.11 E.08923
G1 X145.39 Y182.379 E.06959
G1 X145.298 Y182.176 E.00894
G1 X145.121 Y182.11 E.00757
G1 X140.39 Y182.11 E.19017
G1 X140.39 Y167.889 E.57156
G2 X143.03 Y167.882 I-1.148 J-923.848 E.10611
G2 X144.013 Y167.792 I-.287 J-8.511 E.03969
;WIDTH:0.53198
G1 X144.406 Y167.742 E.01451
;WIDTH:0.48396
G1 X145.019 Y167.742 E.02022
;WIDTH:0.53216
G1 X145.173 Y167.711 E.00576
;WIDTH:0.579999
G1 X145.285 Y167.557 E.00766
G2 X145.388 Y165.89 I-9.573 J-1.43 E.06721
G1 X147.612 Y165.89 E.08937
G2 X147.715 Y167.557 I9.701 J.235 E.06721
G1 X147.839 Y167.724 E.00835
;WIDTH:0.538259
G1 X147.91 Y167.733 E.00266
;WIDTH:0.51111
G1 X147.981 Y167.742 E.00252
;WIDTH:0.48396
G1 X149.094 Y167.742 E.03672
;WIDTH:0.520398
G1 X149.288 Y167.76 E.00697
;WIDTH:0.556836
G1 X149.482 Y167.778 E.0075
;WIDTH:0.579999
G2 X150.997 Y167.889 I1.358 J-8.136 E.06113
G1 X155.61 Y167.89 E.18542
G1 X155.61 Y173.61 E.2299
G1 X153.322 Y173.616 E.09195
G1 X153.182 Y173.701 E.0066
G1 E-.4 F4200
G1 X149.517 Y180.524 F24000
M73 P4 R8
G1 E.4 F4200
;TYPE:Inner wall
;WIDTH:0.530426
G1 F4800
G1 X149.196 Y180.538 E.0117
;WIDTH:0.502526
G1 X147.879 Y180.538 E.04533
;WIDTH:0.530426
G1 X147.558 Y180.551 E.0117
G1 E-.4 F4200
G1 X145.121 Y180.538 F24000
G1 E.4 F4200
;WIDTH:0.502526
G1 F4800
G1 X144.304 Y180.538 E.02813
G1 E-.4 F4200
G1 X146.5 Y183 F24000
G1 E.4 F4200
;WIDTH:0.651684
G1 F4800
G1 X146.5 Y182.379 E.02831
G1 E-.4 F4200
G1 X144.406 Y168.183 F24000
G1 E.4 F4200
;TYPE:Outer wall
;WIDTH:0.48396
G1 F4800
G1 X145.019 Y168.183 E.02022
;WIDTH:0.53198
G1 X145.409 Y168.139 E.01437
;WIDTH:0.579999
G3 X146.275 Y168.053 I2.134 J17.051 E.03498
G1 X147.204 Y168.093 E.03737
G1 X147.702 Y168.156 E.02019
;WIDTH:0.538259
G1 X147.842 Y168.169 E.0052
;WIDTH:0.51111
G1 X147.981 Y168.183 E.00491
;WIDTH:0.48396
G1 X149.094 Y168.183 E.03672
;WIDTH:0.520398
G1 X149.186 Y168.203 E.00336
;WIDTH:0.556836
G1 X149.277 Y168.224 E.00362
;WIDTH:0.579999
G1 X149.366 Y168.431 E.00907
G1 X149.46 Y169.43 E.04032
G1 X149.465 Y178.696 E.37242
G1 X149.392 Y178.881 E.00798
G1 X149.196 Y178.965 E.00855
G1 X144.304 Y178.965 E.19666
G1 X144.176 Y178.933 E.00531
G1 X144.049 Y178.782 E.00791
G1 X144.035 Y178.696 E.00348
G1 X144.035 Y169.875 E.35456
G3 X144.129 Y168.45 I8.459 J-.161 E.05748
G1 X144.227 Y168.229 E.00973
;WIDTH:0.543632
G1 X144.317 Y168.206 E.00346
;WIDTH:0.513796
G1 X144.397 Y168.185 E.0029
G1 E-.4 F4200
G1 X153.838 Y170.856 F24000
G1 E.4 F4200
;TYPE:Bottom surface
;WIDTH:0.630955
G1 F4800
G1 X152.885 Y169.904 E.05926
G1 X152.054 Y169.904 E.0366
G1 X153.596 Y171.446 E.09598
G1 X153.596 Y171.596 E.00661
G2 X152.958 Y171.64 I-.112 J3.027 E.02818
G1 X151.474 Y170.156 E.09237
G1 X151.475 Y170.988 E.03662
G1 X152.348 Y171.861 E.05435
G1 X152.145 Y171.957 E.00989
G1 X151.861 Y172.206 E.01661
G1 X151.233 Y171.578 E.03908
G1 E-.4 F4200
G1 X152.472 Y177.948 F24000
G1 E.4 F4200
;WIDTH:0.611217
G1 F4800
G1 X153.596 Y179.073 E.06761
G1 X153.596 Y179.876 E.03418
G1 X151.478 Y177.759 E.12736
G1 X151.479 Y178.563 E.0342
G1 X153.012 Y180.096 E.0922
G1 X152.208 Y180.096 E.03418
G1 X151.385 Y179.273 E.04951
G1 X151.279 Y179.635 E.01608
G1 X151.145 Y179.836 E.01026
G1 X151.646 Y180.338 E.03018
; stop printing object test.stl id:5 copy 0
; printing object test.stl id:1 copy 0
G1 E-.4 F4200
EXCLUDE_OBJECT_END NAME=test.stl_id_5_copy_0
EXCLUDE_OBJECT_START NAME=test.stl_id_1_copy_0
G1 X164.558 Y180.551 F24000
G1 E.4 F4200
;TYPE:Inner wall
;WIDTH:0.530779
G1 F4800
G1 X164.208 Y180.649 E.01328
G1 X163.66 Y180.98 E.02334
G1 X163.5 Y181.174 E.00921
G1 X163.34 Y180.98 E.00921
G1 X162.793 Y180.649 E.02334
G1 X162.121 Y180.538 E.02484
G2 X164.548 Y180.552 I1.724 J-88.345 E.0886
G1 E-.4 F4200
G1 X168.885 Y172.762 F24000
G1 E.4 F4200
;WIDTH:0.579999
G1 F4800
G1 X168.62 Y173.215 E.0211
G1 X168.573 Y173.547 E.01346
;WIDTH:0.552061
G1 X168.527 Y173.879 E.01276
;WIDTH:0.524123
G1 X168.527 Y176.121 E.08077
;WIDTH:0.539321
G1 X168.547 Y176.444 E.012
;WIDTH:0.579817
G1 X168.651 Y176.861 E.01728
;WIDTH:0.579999
