; HEADER_BLOCK_START
; generated by OrcaSlicer 1.8.1 on 2024-01-11 at 12:41:59
; total layer number: 60
; HEADER_BLOCK_END

; THUMBNAIL_BLOCK_START

;
; THUMBNAIL_BLOCK_END

; external perimeters extrusion width = 0.52mm
; perimeters extrusion width = 0.52mm
; infill extrusion width = 0.55mm
; solid infill extrusion width = 0.55mm
; top infill extrusion width = 0.55mm
; support material extrusion width = 0.55mm
; first layer extrusion width = 0.58mm

; EXECUTABLE_BLOCK_START
EXCLUDE_OBJECT_DEFINE NAME=toasterv2.stl_id_0_copy_0 CENTER=165,165 POLYGON=[[144.038,164.744],[144.058,164.233],[144.098,163.724],[144.159,163.216],[144.239,162.711],[144.34,162.21],[144.46,161.713],[144.6,161.221],[144.759,160.735],[144.937,160.256],[145.134,159.784],[145.35,159.32],[145.584,158.865],[145.835,158.42],[146.104,157.985],[146.39,157.561],[146.692,157.149],[147.011,156.749],[147.345,156.362],[147.694,155.988],[148.058,155.629],[148.435,155.284],[148.826,154.954],[149.23,154.64],[149.646,154.343],[150.073,154.062],[150.511,153.798],[150.959,153.551],[151.415,153.323],[151.882,153.113],[152.356,152.921],[152.838,152.748],[153.325,152.595],[153.819,152.461],[154.317,152.346],[154.82,152.252],[155.325,152.177],[155.834,152.122],[156.344,152.088],[156.855,152.073],[157.366,152.079],[157.877,152.105],[158.386,152.151],[158.893,152.218],[159.397,152.304],[159.898,152.41],[160.393,152.536],[160.882,152.681],[161.367,152.846],[161.845,153.03],[185.962,162.5],[185.962,167.5],[161.845,176.97],[161.367,177.154],[160.882,177.319],[160.393,177.464],[159.898,177.59],[159.397,177.696],[158.893,177.782],[158.386,177.849],[157.877,177.895],[157.366,177.921],[156.855,177.927],[156.344,177.912],[155.834,177.878],[155.325,177.823],[154.82,177.748],[154.317,177.654],[153.819,177.539],[153.325,177.405],[152.838,177.252],[152.356,177.079],[151.882,176.887],[151.415,176.677],[150.959,176.449],[150.511,176.202],[150.073,175.938],[149.646,175.657],[149.23,175.36],[148.826,175.046],[148.435,174.716],[148.058,174.371],[147.694,174.012],[147.345,173.638],[147.011,173.251],[146.692,172.851],[146.39,172.439],[146.104,172.015],[145.835,171.58],[145.584,171.135],[145.35,170.68],[145.134,170.216],[144.937,169.744],[144.759,169.265],[144.6,168.779],[144.46,168.287],[144.34,167.79],[144.239,167.289],[144.159,166.784],[144.098,166.276],[144.058,165.767],[144.038,165.256],[144.038,164.744]]
M73 P0 R6
;TYPE:Custom
M190 S75
M109 S220
START_PRINT HOTEND=220 BED=75
G90
G21
M83 ; use relative distances for extrusion
; filament start gcode
SET_PRESSURE_ADVANCE ADVANCE=0.032; Override pressure advance value
M106 S0
;LAYER_CHANGE
;Z:0.2
;HEIGHT:0.2
;BEFORE_LAYER_CHANGE
;0.2
G92 E0

G1 E-.5 F1800
;DSLR_SNAPSHOT
TIMELAPSE_TAKE_FRAME
;_SET_FAN_SPEED_CHANGING_LAYER
SET_VELOCITY_LIMIT ACCEL=10000 ACCEL_TO_DECEL=5000
SET_VELOCITY_LIMIT SQUARE_CORNER_VELOCITY=10
G1 X145.068 Y148.075 F48000
G1 Z.2
G1 E.5 F4800
;TYPE:Skirt
;WIDTH:0.58
G1 F3000
G1 X146.597 Y147.105 E.08086
G1 X148.001 Y146.86 E.06366
G1 X166.963 Y146.86 E.84682
G1 X169.11 Y147.459 E.09954
G1 X188.109 Y158.95 E.9916
G1 X189.417 Y160.203 E.08086
G1 X190.111 Y162.5 E.10715
G1 X190.111 Y167.5 E.22329
G1 X189.715 Y169.267 E.08086
G1 X188.109 Y171.05 E.10715
G1 X169.11 Y182.541 E.9916
G1 X166.963 Y183.14 E.09954
G1 X148.001 Y183.14 E.84682
G1 X146.234 Y182.745 E.08086
G1 X145.068 Y181.925 E.06366
G1 X142.061 Y178.918 E.18992
G1 X141.284 Y177.84 E.05935
G1 X138.277 Y171.826 E.30028
G1 X137.839 Y169.971 E.08513
G1 X137.839 Y160.029 E.44395
G1 X138.277 Y158.174 E.08513
G1 X141.284 Y152.16 E.30028
G1 X142.061 Y151.082 E.05935
G1 X145.025 Y148.117 E.18724
G1 X145.405 Y148.497 F48000
G1 F3000
G1 X145.448 Y148.455 E.00268
G1 X146.887 Y147.573 E.07538
G1 X148.001 Y147.397 E.05037
G1 X166.963 Y147.397 E.84682
M73 P1 R6
G1 X168.832 Y147.918 E.08665
G1 X187.831 Y159.41 E.9916
G1 X189.031 Y160.597 E.07538
G1 X189.574 Y162.5 E.08837
G1 X189.574 Y167.5 E.22329
G1 X189.179 Y169.141 E.07538
G1 X187.831 Y170.59 E.08837
G1 X168.832 Y182.082 E.9916
G1 X166.963 Y182.603 E.08665
G1 X148.001 Y182.603 E.84682
G1 X146.36 Y182.209 E.07538
G1 X145.448 Y181.545 E.05037
G1 X142.441 Y178.538 E.18992
G1 X141.764 Y177.6 E.05167
G1 X138.757 Y171.586 E.30028
G1 X138.376 Y169.971 E.07411
G1 X138.376 Y160.029 E.44395
G1 X138.757 Y158.414 E.07411
G1 X141.764 Y152.4 E.30028
G1 X142.441 Y151.462 E.05167
G1 X145.363 Y148.54 E.18456
G1 X145.743 Y148.919 F48000
G1 F3000
G1 X145.827 Y148.834 E.00536
G1 X147.17 Y148.049 E.06946
G1 X148.001 Y147.934 E.03748
G1 X166.963 Y147.934 E.84682
G1 X168.554 Y148.378 E.07377
G1 X187.553 Y159.87 E.9916
G1 X188.637 Y160.985 E.06946
G1 X189.037 Y162.5 E.06996
G1 X189.037 Y167.5 E.22329
G1 X188.643 Y169.005 E.06946
M73 P2 R6
G1 X187.553 Y170.13 E.06996
G1 X168.554 Y181.622 E.9916
G1 X166.963 Y182.066 E.07377
G1 X148.001 Y182.066 E.84682
G1 X146.496 Y181.672 E.06946
G1 X145.827 Y181.166 E.03748
G1 X142.82 Y178.158 E.18992
G1 X142.244 Y177.359 E.04398
G1 X139.237 Y171.345 E.30028
G1 X138.913 Y169.971 E.06308
G1 X138.913 Y160.029 E.44395
G1 X139.237 Y158.655 E.06308
G1 X142.244 Y152.641 E.30028
G1 X142.82 Y151.842 E.04398
G1 X145.7 Y148.962 E.18188
G1 X146.08 Y149.342 F48000
G1 F3000
G1 X146.207 Y149.214 E.00804
G1 X148.001 Y148.471 E.08672
G1 X166.963 Y148.471 E.84682
G1 X168.277 Y148.837 E.06088
G1 X187.275 Y160.329 E.9916
G1 X188.232 Y161.366 E.06299
G1 X188.499 Y162.5 E.05204
G1 X188.499 Y167.5 E.22329
G1 X188.107 Y168.855 E.06299
G1 X187.275 Y169.671 E.05204
G1 X168.277 Y181.163 E.9916
G1 X166.963 Y181.529 E.06088
G1 X148.001 Y181.529 E.84682
M73 P3 R6
G1 X146.207 Y180.786 E.08672
G1 X143.2 Y177.779 E.18992
G1 X142.725 Y177.119 E.0363
G1 X139.718 Y171.105 E.30028
G1 X139.45 Y169.971 E.05206
G1 X139.45 Y160.029 E.44395
G1 X139.718 Y158.895 E.05206
G1 X142.725 Y152.881 E.30028
G1 X143.2 Y152.221 E.0363
G1 X146.037 Y149.384 E.1792
; printing object toasterv2.stl id:0 copy 0
G1 E-.35 F1800
;WIPE_START
G1 F3000
G1 X146.207 Y149.214 E-.036
G1 X146.909 Y148.923 E-.114
;WIPE_END
EXCLUDE_OBJECT_START NAME=toasterv2.stl_id_0_copy_0
G1 X166.963 Y157.022 F48000
G1 E.5 F4800
;TYPE:Support
G1 F7200
G1 X169.971 Y157.022 E.13429
G1 X169.971 Y161.86 E.21604
G1 X168.551 Y161.86 E.06341
G1 X168.551 Y161.449 E.01834
G1 X164.456 Y161.449 E.18285
G1 X164.456 Y168.551 E.31714
G1 X168.551 Y168.551 E.18285
G1 X168.551 Y168.14 E.01834
G1 X169.971 Y168.14 E.06341
G1 X169.971 Y175.985 E.35033
G1 X166.963 Y175.985 E.13429
G1 X166.963 Y178.992 E.13429
G1 X148.001 Y178.992 E.84682
G1 X148.001 Y175.985 E.13429
G1 X144.994 Y175.985 E.13429
G1 X144.994 Y169.971 E.26858
G1 X141.987 Y169.971 E.13429
G1 X141.987 Y160.029 E.44395
G1 X144.994 Y160.029 E.13429
G1 X144.994 Y154.015 E.26858
G1 X148.001 Y154.015 E.13429
G1 X148.001 Y151.008 E.13429
G1 X166.963 Y151.008 E.84682
G1 X166.963 Y156.942 E.26498
G1 E-.35 F1800
;WIPE_START
G1 F7200
G1 X166.963 Y155.942 E-.15
;WIPE_END
G1 X163.973 Y169.034 F48000
G1 E.5 F4800
G1 F7200
G1 X169.034 Y169.034 E.22602
G1 X169.034 Y168.623 E.01834
G1 X169.487 Y168.623 E.02023
G1 X169.487 Y175.501 E.30716
G1 X166.48 Y175.501 E.13429
G1 X166.48 Y178.508 E.13429
G1 X148.485 Y178.508 E.80365
G1 X148.485 Y175.501 E.13429
G1 X145.477 Y175.501 E.13429
G1 X145.477 Y169.487 E.26858
G1 X142.47 Y169.487 E.13429
G1 X142.47 Y160.513 E.40078
G1 X145.477 Y160.513 E.13429
G1 X145.477 Y154.499 E.26858
G1 X148.485 Y154.499 E.13429
G1 X148.485 Y151.492 E.13429
G1 X166.48 Y151.492 E.80365
G1 X166.48 Y157.506 E.26858
G1 X169.487 Y157.506 E.13429
G1 X169.487 Y161.377 E.17287
G1 X169.034 Y161.377 E.02023
G1 X169.034 Y160.966 E.01834
G1 X163.973 Y160.966 E.22602
G1 X163.973 Y169.034 E.36031
G1 X163.376 Y169.631 F48000
G1 F7200
G1 X168.89 Y169.631 E.24625
G1 X168.89 Y174.905 E.23552
M73 P4 R6
G1 X165.883 Y174.905 E.13429
G1 X165.883 Y177.912 E.13429
G1 X149.081 Y177.912 E.75035
G1 X149.081 Y174.905 E.13429
G1 X146.074 Y174.905 E.13429
G1 X146.074 Y168.89 E.26858
G1 X143.067 Y168.89 E.13429
G1 X143.067 Y161.11 E.34748
G1 X146.074 Y161.11 E.13429
G1 X146.074 Y155.095 E.26858
G1 X149.081 Y155.095 E.13429
G1 X149.081 Y152.088 E.13429
G1 X165.883 Y152.088 E.75035
G1 X165.883 Y158.103 E.26858
G1 X168.89 Y158.103 E.13429
G1 X168.89 Y160.369 E.10122
G1 X163.376 Y160.369 E.24625
G1 X163.376 Y169.631 E.41361
G1 X162.779 Y170.228 F48000
G1 F7200
G1 X168.294 Y170.228 E.24625
G1 X168.294 Y174.308 E.18222
G1 X165.287 Y174.308 E.13429
G1 X165.287 Y177.315 E.13429
G1 X149.678 Y177.315 E.69705
G1 X149.678 Y174.308 E.13429
G1 X146.671 Y174.308 E.13429
G1 X146.671 Y168.294 E.26858
G1 X143.664 Y168.294 E.13429
G1 X143.664 Y161.706 E.29418
G1 X146.671 Y161.706 E.13429
G1 X146.671 Y155.692 E.26858
G1 X149.678 Y155.692 E.13429
G1 X149.678 Y152.685 E.13429
G1 X165.287 Y152.685 E.69705
G1 X165.287 Y158.699 E.26858
G1 X168.294 Y158.699 E.13429
G1 X168.294 Y159.772 E.04792
G1 X162.779 Y159.772 E.24625
G1 X162.779 Y170.228 E.46691
G1 X162.183 Y170.824 F48000
G1 F7200
G1 X167.697 Y170.824 E.24625
G1 X167.697 Y173.711 E.12892
G1 X164.69 Y173.711 E.13429
G1 X164.69 Y176.718 E.13429
G1 X150.275 Y176.718 E.64375
G1 X150.275 Y173.711 E.13429
G1 X147.268 Y173.711 E.13429
G1 X147.268 Y167.697 E.26858
G1 X144.261 Y167.697 E.13429
G1 X144.261 Y162.303 E.24088
M73 P4 R5
G1 X147.268 Y162.303 E.13429
G1 X147.268 Y156.289 E.26858
G1 X150.275 Y156.289 E.13429
G1 X150.275 Y153.282 E.13429
G1 X164.69 Y153.282 E.64375
G1 X164.69 Y159.176 E.26321
G1 X162.183 Y159.176 E.11196
G1 X162.183 Y170.824 E.52021
G1 X161.586 Y171.421 F48000
G1 F7200
G1 X167.1 Y171.421 E.24625
G1 X167.1 Y173.114 E.07562
G1 X164.093 Y173.114 E.13429
G1 X164.093 Y176.121 E.13429
G1 X150.872 Y176.121 E.59045
G1 X150.872 Y173.114 E.13429
G1 X147.864 Y173.114 E.13429
G1 X147.864 Y167.1 E.26858
G1 X144.857 Y167.1 E.13429
M73 P5 R5
G1 X144.857 Y162.9 E.18758
G1 X147.864 Y162.9 E.13429
G1 X147.864 Y156.886 E.26858
G1 X150.872 Y156.886 E.13429
G1 X150.872 Y153.879 E.13429
G1 X164.093 Y153.879 E.59045
G1 X164.093 Y158.579 E.20991
G1 X161.586 Y158.579 E.11196
G1 X161.586 Y171.421 E.57351
G1 X160.989 Y172.018 F48000
G1 F7200
G1 X163.496 Y172.018 E.11196
G1 X163.496 Y175.525 E.15661
G1 X151.468 Y175.525 E.53715
G1 X151.468 Y172.518 E.13429
G1 X148.461 Y172.518 E.13429
G1 X148.461 Y166.503 E.26858
G1 X145.454 Y166.503 E.13429
G1 X145.454 Y163.497 E.13428
G1 X148.461 Y163.497 E.13429
G1 X148.461 Y157.482 E.26858
G1 X151.468 Y157.482 E.13429
G1 X151.468 Y154.475 E.13429
G1 X163.496 Y154.475 E.53715
G1 X163.496 Y157.982 E.15661
G1 X160.989 Y157.982 E.11196
G1 X160.989 Y172.018 E.62681
G1 X160.392 Y172.615 F48000
G1 F7200
G1 X162.9 Y172.615 E.11196
G1 X162.9 Y174.928 E.10331
G1 X152.065 Y174.928 E.48385
G1 X152.065 Y171.921 E.13429
G1 X149.058 Y171.921 E.13429
G1 X149.058 Y165.907 E.26858
G1 X146.051 Y165.907 E.13429
G1 X146.051 Y164.093 E.08098
G1 X149.058 Y164.093 E.13429
G1 X149.058 Y158.079 E.26858
G1 X152.065 Y158.079 E.13429
G1 X152.065 Y155.072 E.13429
G1 X162.9 Y155.072 E.48385
G1 X162.9 Y157.385 E.10331
G1 X160.392 Y157.385 E.11196
G1 X160.392 Y172.615 E.68011
G1 X159.796 Y173.211 F48000
G1 F7200
G1 X162.303 Y173.211 E.11196
G1 X162.303 Y174.331 E.05001
G1 X152.662 Y174.331 E.43055
G1 X152.662 Y171.324 E.13429
G1 X149.655 Y171.324 E.13429
G1 X149.655 Y165.31 E.26858
G1 X146.648 Y165.31 E.13429
G1 X146.648 Y164.69 E.02768
G1 X149.655 Y164.69 E.13429
G1 X149.655 Y158.676 E.26858
G1 X152.662 Y158.676 E.13429
G1 X152.662 Y155.669 E.13429
G1 X162.303 Y155.669 E.43055
G1 X162.303 Y156.789 E.05001
G1 X159.796 Y156.789 E.11196
G1 X159.796 Y173.211 E.73341
G1 X159.199 Y173.734 F48000
G1 F7200
G1 X153.259 Y173.734 E.26529
G1 X153.259 Y170.727 E.13429
G1 X150.251 Y170.727 E.13429
G1 X150.251 Y159.273 E.51154
G1 X153.259 Y159.273 E.13429
G1 X153.259 Y156.266 E.13429
G1 X159.199 Y156.266 E.26529
G1 X159.199 Y173.734 E.78012
G1 X158.602 Y173.138 F48000
G1 F7200
G1 X153.855 Y173.138 E.21199
G1 X153.855 Y170.131 E.13429
M73 P6 R5
G1 X150.848 Y170.131 E.13429
G1 X150.848 Y159.869 E.45824
G1 X153.855 Y159.869 E.13429
G1 X153.855 Y156.862 E.13429
G1 X158.602 Y156.862 E.21199
G1 X158.602 Y173.138 E.72682
G1 X158.005 Y172.541 F48000
G1 F7200
G1 X154.452 Y172.541 E.15869
G1 X154.452 Y169.534 E.13429
G1 X151.445 Y169.534 E.13429
G1 X151.445 Y160.466 E.40494
G1 X154.452 Y160.466 E.13429
G1 X154.452 Y157.459 E.13429
G1 X158.005 Y157.459 E.15869
G1 X158.005 Y172.541 E.67352
G1 X157.409 Y171.944 F48000
G1 F7200
G1 X155.049 Y171.944 E.10539
G1 X155.049 Y168.937 E.13429
G1 X152.042 Y168.937 E.13429
G1 X152.042 Y161.063 E.35164
G1 X155.049 Y161.063 E.13429
G1 X155.049 Y158.056 E.13429
G1 X157.409 Y158.056 E.10539
G1 X157.409 Y171.944 E.62022
G1 X156.812 Y171.347 F48000
G1 F7200
G1 X155.646 Y171.347 E.05209
G1 X155.646 Y168.34 E.13429
G1 X152.639 Y168.34 E.13429
G1 X152.639 Y161.66 E.29834
G1 X155.646 Y161.66 E.13429
G1 X155.646 Y158.653 E.13429
G1 X156.812 Y158.653 E.05209
G1 X156.812 Y171.347 E.56692
G1 X156.215 Y167.744 F48000
G1 F7200
G1 X153.235 Y167.744 E.13308
G1 X153.235 Y162.256 E.24504
G1 X156.215 Y162.256 E.13308
G1 X156.215 Y167.744 E.24504
G1 X155.618 Y167.147 F48000
G1 F7200
G1 X153.832 Y167.147 E.07978
G1 X153.832 Y162.853 E.19174
G1 X155.618 Y162.853 E.07978
G1 X155.618 Y167.147 E.19174
G1 X155.022 Y166.55 F48000
G1 F7200
G1 X154.429 Y166.55 E.02648
G1 X154.429 Y163.45 E.13844
G1 X155.022 Y163.45 E.02648
G1 X155.022 Y166.55 E.13844
G1 E-.35 F1800
;WIPE_START
G1 F7200
G1 X155.022 Y165.55 E-.15
;WIPE_END
G1 X165 Y168.007 F48000
G1 E.5 F4800
;TYPE:Support interface
G1 F7200
G1 X165 Y161.993 E.26858
G1 X166.007 Y161.993 E.04497
G1 X166.007 Y168.007 E.26858
G1 X167.014 Y168.007 E.04497
G1 X167.014 Y167.954 E.00239
G3 X166.459 Y167.688 I-.145 J-.41 E.03051
G1 X166.459 Y162.312 E.24007
G3 X167.014 Y162.046 I.41 J.145 E.03051
G1 X167.014 Y161.993 E.00239
G1 E-.35 F1800
;WIPE_START
G1 F7200
G1 X167.014 Y162.046 E-.00803
G1 X166.725 Y162.046 E-.04337
G1 X166.459 Y162.312 E-.05636
G1 X166.459 Y162.594 E-.04224
;WIPE_END
G1 X169.008 Y166.036 F48000
G1 E.5 F4800
;TYPE:Inner wall
;WIDTH:0.579999
G1 F7200
G1 X169.008 Y163.964 E.09252
G1 X184.498 Y163.964 E.69174
G1 X184.498 Y165 E.04626
G1 X184.498 Y166.036 E.04626
G1 X169.02 Y166.036 E.69121
G1 X168.471 Y166.573 F48000
G1 F7200
G1 X168.471 Y163.427 E.14049
G1 X185.035 Y163.427 E.73972
G1 X185.035 Y165 E.07024
G1 X185.035 Y166.573 E.07024
G1 X168.483 Y166.573 E.73918
G1 X167.934 Y167.11 F48000
;TYPE:Outer wall
G1 F7200
G1 X167.934 Y162.89 E.18846
G1 X185.572 Y162.89 E.78769
G1 X185.572 Y165 E.09423
G1 X185.572 Y167.11 E.09423
G1 X167.946 Y167.11 E.78715
M73 P7 R5
G1 E-.35 F1800
;WIPE_START
G1 F7200
G1 X167.943 Y166.11 E-.15
;WIPE_END
G1 X184.337 Y165.232 F48000
G1 E.5 F4800
;TYPE:Bottom surface
;WIDTH:0.590102
G1 X183.472 Y164.367 E.05569
G1 X182.698 Y164.367 E.03521
G1 X183.964 Y165.633 E.08146
G1 X183.19 Y165.633 E.03521
G1 X181.924 Y164.367 E.08146
G1 X181.15 Y164.367 E.03521
G1 X182.416 Y165.633 E.08146
G1 X181.642 Y165.633 E.03521
G1 X180.376 Y164.367 E.08146
G1 X179.602 Y164.367 E.03521
G1 X180.869 Y165.633 E.08146
G1 X180.095 Y165.633 E.03521
G1 X178.829 Y164.367 E.08146
G1 X178.055 Y164.367 E.03521
G1 X179.321 Y165.633 E.08146
G1 X178.547 Y165.633 E.03521
G1 X177.281 Y164.367 E.08146
G1 X176.507 Y164.367 E.03521
G1 X177.773 Y165.633 E.08146
G1 X176.999 Y165.633 E.03521
G1 X175.733 Y164.367 E.08146
G1 X174.959 Y164.367 E.03521
G1 X176.226 Y165.633 E.08146
G1 X175.452 Y165.633 E.03521
G1 X174.186 Y164.367 E.08146
G1 X173.412 Y164.367 E.03521
G1 X174.678 Y165.633 E.08146
G1 X173.904 Y165.633 E.03521
G1 X172.638 Y164.367 E.08146
G1 X171.864 Y164.367 E.03521
G1 X173.13 Y165.633 E.08146
G1 X172.356 Y165.633 E.03521
G1 X171.09 Y164.367 E.08146
G1 X170.316 Y164.367 E.03521
G1 X171.583 Y165.633 E.08146
G1 X170.809 Y165.633 E.03521
G1 X169.543 Y164.367 E.08146
G1 X169.411 Y164.367 E.00598
G1 X169.411 Y165.009 E.02923
G1 X170.277 Y165.875 E.05568
; stop printing object toasterv2.stl id:0 copy 0
M106 S178
;LAYER_CHANGE
;Z:0.4
;HEIGHT:0.2
;BEFORE_LAYER_CHANGE
;0.4
G92 E0

G1 E-.35 F1800
;WIPE_START
G1 F4800
G1 X169.569 Y165.168 E-.15
;WIPE_END
EXCLUDE_OBJECT_END NAME=toasterv2.stl_id_0_copy_0
