; HEADER_BLOCK_START
; generated by OrcaSlicer 1.8.1 on 2024-01-11 at 12:12:13
; total layer number: 60
; HEADER_BLOCK_END

; THUMBNAIL_BLOCK_START

;
; THUMBNAIL_BLOCK_END

; external perimeters extrusion width = 0.52mm
; perimeters extrusion width = 0.52mm
; infill extrusion width = 0.55mm
; solid infill extrusion width = 0.55mm
; top infill extrusion width = 0.55mm
; first layer extrusion width = 0.58mm

; external perimeters extrusion width = 0.52mm
; perimeters extrusion width = 0.52mm
; infill extrusion width = 0.55mm
; solid infill extrusion width = 0.55mm
; top infill extrusion width = 0.55mm
; first layer extrusion width = 0.58mm

; external perimeters extrusion width = 0.52mm
; perimeters extrusion width = 0.52mm
; infill extrusion width = 0.55mm
; solid infill extrusion width = 0.55mm
; top infill extrusion width = 0.55mm
; first layer extrusion width = 0.58mm

; EXECUTABLE_BLOCK_START
EXCLUDE_OBJECT_DEFINE NAME=ToasterTest1.stl_id_0_copy_0 CENTER=180.467,178.425 POLYGON=[[160.05,170.154],[161.877,165.5],[187.787,165.5],[188.298,165.503],[188.809,165.527],[189.319,165.571],[189.826,165.635],[190.33,165.718],[190.831,165.822],[191.327,165.946],[191.818,166.089],[192.303,166.251],[192.781,166.432],[193.251,166.633],[193.714,166.851],[194.167,167.088],[194.61,167.342],[195.043,167.614],[195.465,167.903],[195.876,168.208],[196.274,168.529],[196.658,168.866],[197.03,169.217],[197.387,169.583],[197.729,169.963],[198.056,170.356],[198.367,170.762],[198.662,171.18],[198.94,171.609],[199.201,172.048],[199.445,172.498],[199.67,172.957],[199.877,173.424],[200.066,173.9],[200.235,174.382],[200.385,174.871],[200.516,175.365],[200.627,175.864],[200.719,176.367],[200.79,176.873],[200.842,177.382],[200.873,177.892],[200.884,178.404],[200.874,178.915],[200.845,179.425],[200.795,179.934],[200.726,180.441],[200.636,180.944],[200.526,181.444],[200.397,181.938],[200.248,182.427],[200.081,182.91],[199.894,183.386],[199.688,183.855],[199.464,184.314],[199.222,184.765],[198.963,185.205],[198.686,185.635],[198.393,186.054],[198.083,186.46],[197.757,186.855],[197.416,187.236],[197.06,187.603],[196.69,187.956],[196.306,188.294],[195.91,188.616],[195.5,188.922],[195.079,189.213],[194.647,189.486],[194.205,189.742],[193.752,189.98],[193.291,190.2],[192.821,190.402],[192.343,190.585],[191.859,190.749],[191.369,190.893],[190.873,191.019],[190.373,191.124],[189.869,191.21],[189.362,191.275],[188.852,191.321],[188.342,191.346],[187.83,191.351],[187.319,191.336],[186.809,191.301],[186.301,191.245],[185.795,191.17],[185.293,191.074],[184.795,190.959],[184.302,190.824],[183.814,190.67],[183.333,190.496],[182.859,190.304],[182.394,190.093],[181.936,189.864],[181.489,189.617],[181.051,189.352],[180.625,189.071],[180.209,188.772],[179.806,188.458],[179.416,188.128],[179.039,187.782],[160.05,170.154]]
EXCLUDE_OBJECT_DEFINE NAME=ToasterTest1.stl_id_1_copy_0 CENTER=180.467,151.575 POLYGON=[[160.05,143.303],[161.877,138.649],[187.787,138.649],[188.298,138.652],[188.809,138.676],[189.319,138.72],[189.826,138.784],[190.33,138.868],[190.831,138.971],[191.327,139.095],[191.818,139.238],[192.303,139.4],[192.781,139.582],[193.251,139.782],[193.714,140],[194.167,140.237],[194.61,140.491],[195.043,140.763],[195.465,141.052],[195.876,141.357],[196.274,141.678],[196.658,142.015],[197.03,142.366],[197.387,142.732],[197.729,143.112],[198.056,143.505],[198.367,143.911],[198.662,144.329],[198.94,144.758],[199.201,145.197],[199.445,145.647],[199.67,146.106],[199.877,146.573],[200.066,147.049],[200.235,147.531],[200.385,148.02],[200.516,148.514],[200.627,149.013],[200.719,149.516],[200.79,150.022],[200.842,150.531],[200.873,151.042],[200.884,151.553],[200.874,152.064],[200.845,152.574],[200.795,153.083],[200.726,153.59],[200.636,154.093],[200.526,154.593],[200.397,155.087],[200.248,155.577],[200.081,156.059],[199.894,156.535],[199.688,157.004],[199.464,157.463],[199.222,157.914],[198.963,158.354],[198.686,158.784],[198.393,159.203],[198.083,159.61],[197.757,160.004],[197.416,160.385],[197.06,160.752],[196.69,161.105],[196.306,161.443],[195.91,161.765],[195.5,162.072],[195.079,162.362],[194.647,162.635],[194.205,162.891],[193.752,163.129],[193.291,163.349],[192.821,163.551],[192.343,163.734],[191.859,163.898],[191.369,164.042],[190.873,164.168],[190.373,164.273],[189.869,164.359],[189.362,164.424],[188.852,164.47],[188.342,164.495],[187.83,164.5],[187.319,164.485],[186.809,164.45],[186.301,164.394],[185.795,164.319],[185.293,164.223],[184.795,164.108],[184.302,163.973],[183.814,163.819],[183.333,163.645],[182.859,163.453],[182.394,163.242],[181.936,163.013],[181.489,162.766],[181.051,162.501],[180.625,162.22],[180.209,161.921],[179.806,161.607],[179.416,161.277],[179.039,160.931],[160.05,143.303]]
EXCLUDE_OBJECT_DEFINE NAME=ToasterTest1.stl_id_2_copy_0 CENTER=149.37,165.133 POLYGON=[[129.116,165.56],[129.129,165.049],[129.161,164.538],[129.213,164.03],[129.286,163.524],[129.379,163.021],[129.491,162.522],[129.623,162.028],[129.775,161.54],[129.945,161.058],[130.135,160.583],[130.343,160.116],[130.57,159.657],[130.814,159.208],[131.076,158.769],[131.355,158.341],[131.651,157.924],[131.963,157.519],[132.291,157.127],[132.635,156.748],[132.993,156.383],[133.365,156.032],[133.75,155.696],[134.149,155.376],[134.56,155.072],[134.983,154.784],[135.416,154.514],[135.86,154.26],[136.314,154.025],[136.777,153.807],[137.248,153.608],[137.726,153.428],[138.212,153.267],[138.703,153.125],[139.199,153.003],[139.7,152.9],[140.205,152.817],[140.712,152.755],[141.222,152.712],[141.733,152.69],[167.625,151.727],[169.624,156.31],[151.303,174.632],[150.939,174.991],[150.561,175.335],[150.17,175.665],[149.766,175.978],[149.35,176.275],[148.922,176.556],[148.484,176.82],[148.036,177.066],[147.578,177.294],[147.112,177.503],[146.638,177.695],[146.156,177.867],[145.669,178.02],[145.175,178.154],[144.677,178.268],[144.174,178.362],[143.668,178.436],[143.16,178.49],[142.65,178.525],[142.139,178.538],[141.627,178.532],[141.117,178.506],[140.607,178.459],[140.101,178.392],[139.597,178.305],[139.097,178.199],[138.601,178.072],[138.111,177.926],[137.627,177.761],[137.15,177.577],[136.681,177.374],[136.22,177.153],[135.768,176.914],[135.326,176.657],[134.895,176.383],[134.474,176.091],[134.066,175.784],[133.67,175.461],[133.287,175.122],[132.918,174.768],[132.563,174.4],[132.223,174.018],[131.898,173.623],[131.589,173.216],[131.296,172.796],[131.021,172.366],[130.762,171.925],[130.521,171.474],[130.299,171.013],[130.094,170.545],[129.909,170.068],[129.742,169.585],[129.594,169.095],[129.466,168.6],[129.358,168.101],[129.27,167.597],[129.201,167.09],[129.153,166.581],[129.124,166.071],[129.116,165.56]]
M73 P0 R9
;TYPE:Custom
M190 S75
M109 S220
START_PRINT HOTEND=220 BED=75
G90
G21
M83 ; use relative distances for extrusion
; filament start gcode
SET_PRESSURE_ADVANCE ADVANCE=0.032; Override pressure advance value
M106 S0
;LAYER_CHANGE
;Z:0.2
;HEIGHT:0.2
;BEFORE_LAYER_CHANGE
;0.2
G92 E0

G1 E-.5 F1800
;DSLR_SNAPSHOT
TIMELAPSE_TAKE_FRAME
;_SET_FAN_SPEED_CHANGING_LAYER
SET_VELOCITY_LIMIT ACCEL=10000 ACCEL_TO_DECEL=5000
SET_VELOCITY_LIMIT SQUARE_CORNER_VELOCITY=10
G1 X133.339 Y154.333 F48000
G1 Z.2
G1 E.5 F4800
;TYPE:Skirt
;WIDTH:0.58
G1 F3000
G1 X159.433 Y135.297 E1.44241
G1 X161.093 Y134.575 E.08086
G1 X162.315 Y134.524 E.05462
G1 X189.255 Y137.386 E1.20987
G1 X190.521 Y137.559 E.05703
G1 X191.617 Y137.805 E.0502
G1 X192.835 Y138.188 E.057
G1 X194.008 Y138.675 E.05671
G1 X195.838 Y139.705 E.09378
G1 X196.855 Y140.446 E.0562
G1 X197.81 Y141.283 E.05671
G1 X198.687 Y142.201 E.05671
G1 X199.393 Y143.077 E.05022
G1 X200.108 Y144.134 E.05699
G1 X200.722 Y145.245 E.05671
G1 X201.235 Y146.407 E.05671
G1 X201.639 Y147.598 E.05617
G1 X201.941 Y148.844 E.05725
G1 X202.128 Y150.1 E.05671
G1 X202.205 Y151.493 E.06231
G1 X202.205 Y178.344 E1.19912
G1 X202.162 Y179.534 E.05315
G1 X202.006 Y180.794 E.05671
G1 X201.703 Y182.172 E.06302
G1 X201.135 Y183.841 E.07872
G1 X200.51 Y185.165 E.06539
G1 X199.612 Y186.62 E.07635
G1 X198.712 Y187.77 E.06523
G1 X197.808 Y188.718 E.05847
G1 X196.497 Y189.83 E.07679
G1 X195.29 Y190.641 E.06495
G1 X194.173 Y191.246 E.05672
G1 X192.583 Y191.901 E.07679
G1 X191.185 Y192.302 E.06496
G1 X189.891 Y192.541 E.05875
G1 X188.626 Y192.657 E.05671
G1 X186.942 Y192.636 E.07522
G1 X185.646 Y192.484 E.05828
G1 X184.26 Y192.185 E.06334
G1 X137.317 Y179.053 E2.17686
G1 X136.128 Y178.574 E.05726
G1 X135.008 Y178.002 E.05616
G1 X133.933 Y177.326 E.05671
G1 X132.922 Y176.558 E.05671
G1 X131.979 Y175.697 E.05701
G1 X131.215 Y174.873 E.0502
G1 X130.433 Y173.872 E.05671
G1 X129.749 Y172.814 E.05628
G1 X128.825 Y170.93 E.0937
G1 X128.13 Y168.682 E.10508
G1 X127.83 Y166.609 E.09354
G1 X127.827 Y164.665 E.08679
G1 X128.176 Y162.339 E.10508
G1 X128.804 Y160.347 E.09327
G1 X129.851 Y158.24 E.10508
G1 X130.972 Y156.644 E.08706
G1 X131.944 Y155.562 E.06496
G1 X133.294 Y154.373 E.08036
G1 X133.648 Y154.774 F48000
G1 F3000
G1 X133.66 Y154.763 E.00072
G1 X159.749 Y135.731 E1.44215
G1 X161.307 Y135.083 E.07538
G1 X162.258 Y135.058 E.04248
G1 X189.199 Y137.92 E1.20987
M73 P1 R9
G1 X191.488 Y138.326 E.10386
G1 X192.659 Y138.695 E.05482
G1 X193.787 Y139.165 E.05457
G1 X195.533 Y140.147 E.08944
G1 X196.513 Y140.861 E.05413
G1 X197.433 Y141.665 E.05457
G1 X198.967 Y143.404 E.10359
G1 X199.654 Y144.422 E.05482
G1 X200.245 Y145.491 E.05457
G1 X200.737 Y146.61 E.05457
G1 X201.126 Y147.757 E.0541
G1 X201.415 Y148.955 E.05504
G1 X201.595 Y150.164 E.05457
G1 X201.668 Y151.493 E.05945
G1 X201.668 Y178.344 E1.19912
G1 X201.625 Y179.5 E.05167
G1 X201.476 Y180.713 E.05457
G1 X201.187 Y182.022 E.05988
G1 X200.635 Y183.645 E.07652
G1 X200.041 Y184.903 E.06213
G1 X199.168 Y186.318 E.07427
G1 X198.312 Y187.411 E.06199
G1 X197.443 Y188.324 E.0563
G1 X196.168 Y189.405 E.07465
G1 X195.02 Y190.176 E.06175
G1 X193.946 Y190.759 E.05458
G1 X192.401 Y191.396 E.07465
G1 X191.071 Y191.777 E.06176
G1 X189.826 Y192.008 E.05654
G1 X188.61 Y192.12 E.05457
G1 X186.973 Y192.1 E.0731
G1 X185.725 Y191.953 E.05613
G1 X184.404 Y191.668 E.06035
G1 X137.503 Y178.55 E2.1749
G1 X136.36 Y178.089 E.05505
G1 X135.28 Y177.539 E.05409
G1 X134.245 Y176.89 E.05457
G1 X133.272 Y176.151 E.05457
G1 X131.618 Y174.517 E.10383
G1 X130.866 Y173.554 E.05457
G1 X130.208 Y172.534 E.05419
G1 X129.326 Y170.738 E.08938
G1 X128.652 Y168.558 E.10187
G1 X128.367 Y166.58 E.08924
G1 X128.362 Y164.71 E.08355
G1 X128.701 Y162.454 E.10187
G1 X129.3 Y160.553 E.089
G1 X130.315 Y158.51 E.10187
G1 X131.394 Y156.976 E.08378
G1 X132.319 Y155.947 E.06176
G1 X133.603 Y154.814 E.07651
G1 X133.958 Y155.215 F48000
G1 F3000
G1 X133.982 Y155.194 E.00142
G1 X160.065 Y136.165 E1.44189
G1 X162.202 Y135.592 E.09877
G1 X189.142 Y138.454 E1.20987
G1 X191.359 Y138.848 E.10057
G1 X192.483 Y139.203 E.05265
G1 X193.567 Y139.655 E.05244
G1 X195.228 Y140.589 E.0851
G1 X196.171 Y141.275 E.05206
G1 X197.055 Y142.047 E.05244
G1 X198.542 Y143.732 E.10034
G1 X199.201 Y144.709 E.05264
G1 X199.767 Y145.738 E.05244
G1 X200.24 Y146.812 E.05243
G1 X200.613 Y147.916 E.05204
G1 X200.89 Y149.067 E.05283
G1 X201.062 Y150.228 E.05244
G1 X201.131 Y151.493 E.05658
G1 X201.131 Y178.344 E1.19912
G1 X200.945 Y180.632 E.10252
G1 X200.671 Y181.873 E.05673
G1 X200.135 Y183.448 E.07433
M73 P2 R9
G1 X199.572 Y184.64 E.05887
G1 X198.724 Y186.016 E.07219
G1 X197.913 Y187.052 E.05875
G1 X196.748 Y188.237 E.0742
G1 X195.729 Y189.062 E.05855
G1 X194.39 Y189.921 E.07103
G1 X193.311 Y190.462 E.05391
G1 X192.088 Y190.934 E.05855
G1 X190.958 Y191.252 E.05244
G1 X189.762 Y191.474 E.05432
G1 X188.593 Y191.583 E.05243
G1 X187.004 Y191.564 E.07097
G1 X185.804 Y191.422 E.05398
G1 X184.548 Y191.15 E.05735
G1 X137.689 Y178.046 E2.17294
G1 X136.591 Y177.605 E.05284
G1 X135.553 Y177.077 E.05202
G1 X134.558 Y176.453 E.05244
G1 X133.622 Y175.744 E.05243
G1 X132.75 Y174.95 E.05266
G1 X131.932 Y174.057 E.0541
G1 X131.221 Y173.125 E.05232
G1 X130.594 Y172.13 E.05254
G1 X129.666 Y170.125 E.09867
G1 X129.146 Y168.3 E.08473
G1 X128.877 Y166.07 E.10033
G1 X128.934 Y164.305 E.07884
G1 X129.226 Y162.569 E.07862
G1 X129.796 Y160.759 E.08473
G1 X130.779 Y158.781 E.09867
G1 X131.817 Y157.307 E.08051
G1 X132.693 Y156.332 E.05855
G1 X133.913 Y155.255 E.07266
G1 X134.26 Y155.661 F48000
G1 F3000
G1 X134.303 Y155.624 E.00254
G1 X160.382 Y136.599 E1.44163
G1 X162.145 Y136.126 E.08151
G1 X189.085 Y138.988 E1.20987
G1 X191.23 Y139.369 E.09729
G1 X192.308 Y139.71 E.05047
G1 X193.347 Y140.145 E.0503
G1 X194.923 Y141.031 E.08076
G1 X196.678 Y142.429 E.10019
G1 X198.116 Y144.059 E.0971
G1 X198.747 Y144.997 E.05047
G1 X199.29 Y145.984 E.0503
G1 X200.1 Y148.075 E.10016
G1 X200.364 Y149.178 E.05063
G1 X200.529 Y150.292 E.0503
G1 X200.594 Y151.493 E.05372
G1 X200.594 Y178.344 E1.19912
G1 X200.414 Y180.551 E.0989
G1 X200.155 Y181.723 E.05359
G1 X199.636 Y183.252 E.07213
G1 X199.104 Y184.378 E.05561
G1 X198.28 Y185.714 E.07011
G1 X197.513 Y186.693 E.05551
G1 X196.383 Y187.843 E.07202
G1 X195.42 Y188.623 E.05534
G1 X194.121 Y189.456 E.0689
G1 X193.085 Y189.975 E.05177
G1 X191.929 Y190.421 E.05534
G1 X190.845 Y190.727 E.0503
G1 X189.697 Y190.941 E.05211
G1 X188.576 Y191.047 E.0503
G1 X187.035 Y191.028 E.06885
G1 X185.882 Y190.89 E.05183
G1 X184.693 Y190.633 E.05435
G1 X137.875 Y177.542 E2.17098
G1 X136.823 Y177.12 E.05064
G1 X135.826 Y176.614 E.04996
G1 X134.871 Y176.016 E.0503
G1 X133.973 Y175.336 E.0503
M73 P3 R9
G1 X133.136 Y174.576 E.05048
G1 X132.35 Y173.72 E.05193
G1 X131.668 Y172.826 E.05021
G1 X131.065 Y171.872 E.05039
G1 X130.167 Y169.932 E.09546
G1 X129.674 Y168.2 E.08045
G1 X129.414 Y166.041 E.09709
G1 X129.469 Y164.349 E.07559
G1 X129.779 Y162.567 E.08078
G1 X130.464 Y160.55 E.09513
G1 X131.302 Y158.955 E.08045
G1 X132.312 Y157.551 E.07723
G1 X133.39 Y156.403 E.07038
G1 X134.214 Y155.7 E.04833
; printing object ToasterTest1.stl id:2 copy 0
G1 E-.35 F1800
;WIPE_START
G1 F3000
G1 X134.303 Y155.624 E-.01753
G1 X135.016 Y155.104 E-.13247
;WIPE_END
EXCLUDE_OBJECT_START NAME=ToasterTest1.stl_id_2_copy_0
G1 X151.203 Y162.776 F48000
G1 E.5 F4800
;TYPE:Inner wall
;WIDTH:0.579999
G1 F7200
G1 X150.985 Y162.916 E.01154
G2 X150.633 Y163.418 I.894 J1.001 E.02764
G1 X150.539 Y163.839 E.01929
G3 X150.667 Y165.789 I-21.919 J2.412 E.08729
G3 X148.606 Y160.017 I-8.621 J-.176 E2.13973
G1 X148.984 Y160.459 E.02594
G1 X149.323 Y160.729 E.01935
G1 X149.75 Y160.88 E.02023
G1 X150.103 Y160.893 E.01579
G1 X150.515 Y160.787 E.01898
G1 X166.868 Y153.655 E.79676
G1 X167.282 Y154.604 E.04626
G1 X167.697 Y155.554 E.04626
G1 X151.343 Y162.686 E.79676
G1 X151.213 Y162.77 E.0069
G1 X151.432 Y163.267 F48000
G1 F7200
G1 X151.205 Y163.477 E.0138
G1 X151.081 Y163.808 E.01579
G2 X151.184 Y164.984 I25.124 J-1.601 E.05268
G3 X149.015 Y159.669 I-9.136 J.629 E2.3088
G1 X149.402 Y160.12 E.02655
G1 X149.689 Y160.308 E.01531
G1 X150.053 Y160.359 E.01644
G1 X150.3 Y160.295 E.01139
G1 X167.146 Y152.948 E.82074
G1 X167.775 Y154.389 E.07024
G1 X168.404 Y155.831 E.07024
G1 X151.558 Y163.178 E.82074
G1 X151.495 Y163.209 E.00314
G1 X151.441 Y163.259 E.00328
G1 X151.772 Y163.671 F48000
;TYPE:Outer wall
G1 F7200
G1 X151.655 Y163.77 E.00688
G1 X151.614 Y163.953 E.00837
G3 X134.351 Y171.538 I-9.576 J1.642 E1.15126
G3 X149.667 Y159.605 I7.695 J-5.918 E1.35657
G1 X149.882 Y159.807 E.01316
G1 X150.085 Y159.803 E.00911
G1 X167.423 Y152.241 E.84473
G1 X168.267 Y154.175 E.09423
G1 X169.111 Y156.109 E.09423
G1 X151.783 Y163.666 E.84419
G1 E-.35 F1800
;WIPE_START
G1 F7200
G1 X151.655 Y163.77 E-.02484
G1 X151.614 Y163.953 E-.02813
G1 X151.69 Y164.512 E-.08454
G1 X151.696 Y164.595 E-.01249
;WIPE_END
G1 X166.014 Y154.203 F48000
G1 E.5 F4800
;TYPE:Bottom surface
;WIDTH:0.58782
G1 X167.16 Y155.348 E.07339
G1 X166.623 Y155.582 E.02652
G1 X165.661 Y154.621 E.06163
G1 X165.125 Y154.855 E.02652
G1 X166.087 Y155.816 E.06163
G1 X165.55 Y156.05 E.02652
G1 X164.588 Y155.089 E.06163
G1 X164.052 Y155.323 E.02652
G1 X165.013 Y156.284 E.06163
G1 X164.477 Y156.518 E.02652
G1 X163.515 Y155.557 E.06163
G1 X162.979 Y155.791 E.02652
G1 X163.94 Y156.752 E.06163
G1 X163.404 Y156.986 E.02652
G1 X162.442 Y156.025 E.06163
