; HEADER_BLOCK_START
; generated by OrcaSlicer 1.8.1 on 2024-01-11 at 14:01:41
; total layer number: 60
; HEADER_BLOCK_END

; THUMBNAIL_BLOCK_START

;
; THUMBNAIL_BLOCK_END

; external perimeters extrusion width = 0.52mm
; perimeters extrusion width = 0.52mm
; infill extrusion width = 0.55mm
; solid infill extrusion width = 0.55mm
; top infill extrusion width = 0.55mm
; support material extrusion width = 0.55mm
; first layer extrusion width = 0.58mm

; external perimeters extrusion width = 0.52mm
; perimeters extrusion width = 0.52mm
; infill extrusion width = 0.55mm
; solid infill extrusion width = 0.55mm
; top infill extrusion width = 0.55mm
; support material extrusion width = 0.55mm
; first layer extrusion width = 0.58mm

; external perimeters extrusion width = 0.52mm
; perimeters extrusion width = 0.52mm
; infill extrusion width = 0.55mm
; solid infill extrusion width = 0.55mm
; top infill extrusion width = 0.55mm
; support material extrusion width = 0.55mm
; first layer extrusion width = 0.58mm

; EXECUTABLE_BLOCK_START
EXCLUDE_OBJECT_DEFINE NAME=toasterve.stl_id_0_copy_0 CENTER=180.467,178.426 POLYGON=[[160.05,170.154],[161.877,165.5],[187.787,165.5],[188.299,165.503],[188.811,165.527],[189.319,165.571],[189.826,165.635],[190.331,165.719],[190.831,165.822],[191.328,165.946],[191.818,166.089],[192.303,166.251],[192.781,166.433],[193.252,166.633],[193.714,166.851],[194.167,167.088],[194.611,167.343],[195.044,167.614],[195.466,167.903],[195.876,168.208],[196.274,168.53],[196.659,168.866],[197.03,169.218],[197.388,169.585],[197.73,169.964],[198.057,170.357],[198.368,170.763],[198.663,171.18],[198.941,171.609],[199.202,172.049],[199.445,172.499],[199.671,172.958],[199.878,173.425],[200.066,173.9],[200.236,174.383],[200.386,174.872],[200.517,175.366],[200.628,175.865],[200.719,176.368],[200.791,176.874],[200.842,177.383],[200.873,177.894],[200.884,178.405],[200.875,178.916],[200.846,179.427],[200.796,179.935],[200.726,180.442],[200.636,180.945],[200.527,181.445],[200.398,181.94],[200.249,182.429],[200.081,182.912],[199.894,183.388],[199.689,183.856],[199.465,184.316],[199.223,184.766],[198.963,185.207],[198.686,185.637],[198.393,186.055],[198.083,186.462],[197.757,186.856],[197.416,187.237],[197.06,187.604],[196.69,187.957],[196.307,188.295],[195.91,188.618],[195.5,188.924],[195.079,189.214],[194.647,189.487],[194.204,189.743],[193.752,189.982],[193.291,190.202],[192.821,190.403],[192.343,190.586],[191.859,190.75],[191.368,190.895],[190.873,191.02],[190.372,191.126],[189.868,191.211],[189.361,191.277],[188.853,191.322],[188.341,191.347],[187.83,191.353],[187.319,191.337],[186.809,191.302],[186.3,191.247],[185.795,191.171],[185.292,191.076],[184.794,190.96],[184.301,190.825],[183.813,190.671],[183.332,190.498],[182.859,190.305],[182.393,190.094],[181.936,189.865],[181.488,189.618],[181.05,189.354],[180.624,189.072],[180.208,188.773],[179.807,188.46],[179.415,188.129],[179.038,187.783],[160.05,170.154]]
EXCLUDE_OBJECT_DEFINE NAME=toasterve.stl_id_1_copy_0 CENTER=180.467,151.574 POLYGON=[[160.05,143.301],[161.877,138.647],[187.787,138.647],[188.299,138.651],[188.811,138.675],[189.319,138.718],[189.826,138.782],[190.331,138.866],[190.831,138.97],[191.328,139.093],[191.818,139.236],[192.303,139.399],[192.781,139.58],[193.252,139.78],[193.714,139.999],[194.167,140.236],[194.611,140.49],[195.044,140.762],[195.466,141.051],[195.876,141.356],[196.274,141.677],[196.659,142.014],[197.03,142.365],[197.388,142.732],[197.73,143.111],[198.057,143.504],[198.368,143.91],[198.663,144.328],[198.941,144.757],[199.202,145.197],[199.445,145.646],[199.671,146.105],[199.878,146.573],[200.066,147.048],[200.236,147.53],[200.386,148.019],[200.517,148.513],[200.628,149.013],[200.719,149.516],[200.791,150.022],[200.842,150.531],[200.873,151.041],[200.884,151.553],[200.875,152.064],[200.846,152.574],[200.796,153.083],[200.726,153.59],[200.636,154.093],[200.527,154.592],[200.398,155.087],[200.249,155.576],[200.081,156.059],[199.894,156.535],[199.689,157.003],[199.465,157.463],[199.223,157.914],[198.963,158.354],[198.686,158.784],[198.393,159.203],[198.083,159.61],[197.757,160.004],[197.416,160.384],[197.06,160.752],[196.69,161.105],[196.307,161.443],[195.91,161.765],[195.5,162.072],[195.079,162.362],[194.647,162.635],[194.204,162.891],[193.752,163.129],[193.291,163.349],[192.821,163.551],[192.343,163.734],[191.859,163.898],[191.368,164.043],[190.873,164.168],[190.372,164.273],[189.868,164.359],[189.361,164.424],[188.853,164.47],[188.341,164.495],[187.83,164.5],[187.319,164.485],[186.809,164.45],[186.3,164.394],[185.795,164.319],[185.292,164.223],[184.794,164.108],[184.301,163.973],[183.813,163.819],[183.332,163.645],[182.859,163.453],[182.393,163.242],[181.936,163.013],[181.488,162.766],[181.05,162.501],[180.624,162.219],[180.208,161.921],[179.807,161.608],[179.415,161.276],[179.038,160.931],[160.05,143.301]]
EXCLUDE_OBJECT_DEFINE NAME=toasterve.stl_id_2_copy_0 CENTER=149.37,165.133 POLYGON=[[129.116,165.558],[129.128,165.047],[129.16,164.537],[129.213,164.028],[129.286,163.522],[129.378,163.019],[129.491,162.52],[129.623,162.026],[129.774,161.538],[129.945,161.056],[130.134,160.581],[130.343,160.114],[130.569,159.656],[130.814,159.207],[131.076,158.768],[131.355,158.339],[131.651,157.922],[131.963,157.517],[132.291,157.126],[132.634,156.746],[132.992,156.381],[133.365,156.03],[133.75,155.694],[134.149,155.374],[134.56,155.07],[134.983,154.782],[135.416,154.512],[135.861,154.258],[136.314,154.023],[136.777,153.805],[137.248,153.606],[137.727,153.426],[138.212,153.265],[138.703,153.123],[139.2,153.001],[139.701,152.898],[140.205,152.815],[140.711,152.753],[141.222,152.71],[141.733,152.688],[167.626,151.727],[169.624,156.31],[151.303,174.632],[150.939,174.991],[150.56,175.336],[150.17,175.664],[149.766,175.978],[149.35,176.275],[148.923,176.556],[148.484,176.819],[148.036,177.065],[147.578,177.293],[147.112,177.503],[146.638,177.694],[146.156,177.867],[145.669,178.02],[145.175,178.153],[144.677,178.267],[144.174,178.362],[143.668,178.436],[143.16,178.49],[142.649,178.524],[142.138,178.538],[141.626,178.532],[141.116,178.505],[140.607,178.459],[140.1,178.392],[139.596,178.305],[139.096,178.198],[138.601,178.072],[138.111,177.926],[137.627,177.761],[137.15,177.577],[136.68,177.374],[136.219,177.153],[135.768,176.913],[135.325,176.656],[134.894,176.382],[134.474,176.091],[134.065,175.783],[133.669,175.46],[133.286,175.121],[132.917,174.767],[132.562,174.399],[132.222,174.017],[131.897,173.622],[131.588,173.215],[131.296,172.796],[131.02,172.365],[130.762,171.924],[130.521,171.473],[130.298,171.012],[130.094,170.544],[129.908,170.067],[129.741,169.584],[129.594,169.094],[129.466,168.599],[129.357,168.1],[129.269,167.596],[129.2,167.089],[129.152,166.58],[129.124,166.07],[129.116,165.558]]
M73 P0 R14
;TYPE:Custom
M190 S75
M109 S220
START_PRINT HOTEND=220 BED=75
G90
G21
M83 ; use relative distances for extrusion
; filament start gcode
SET_PRESSURE_ADVANCE ADVANCE=0.032; Override pressure advance value
M106 S0
;LAYER_CHANGE
;Z:0.2
;HEIGHT:0.2
;BEFORE_LAYER_CHANGE
;0.2
G92 E0

G1 E-.5 F1800
;DSLR_SNAPSHOT
TIMELAPSE_TAKE_FRAME
;_SET_FAN_SPEED_CHANGING_LAYER
SET_VELOCITY_LIMIT ACCEL=10000 ACCEL_TO_DECEL=5000
SET_VELOCITY_LIMIT SQUARE_CORNER_VELOCITY=10
G1 X133.434 Y154.385 F48000
G1 Z.2
G1 E.5 F4800
;TYPE:Skirt
;WIDTH:0.58
G1 F3000
G1 X159.422 Y135.303 E1.43984
G1 X161.081 Y134.576 E.08086
G1 X162.331 Y134.524 E.05587
G1 X189.717 Y137.536 E1.23039
G1 X190.962 Y137.749 E.0564
G1 X192.186 Y138.073 E.05658
G1 X194.124 Y138.841 E.09311
G1 X196.144 Y140.035 E.10478
G1 X197.143 Y140.814 E.05658
G1 X198.069 Y141.679 E.05658
G1 X199.413 Y143.272 E.09311
G1 X200.114 Y144.338 E.05697
G1 X200.709 Y145.447 E.05618
G1 X201.546 Y147.639 E.10478
G1 X201.844 Y148.87 E.05658
G1 X202.03 Y150.123 E.05658
G1 X202.105 Y151.508 E.06194
G1 X202.105 Y178.36 E1.19919
G1 X202.063 Y179.507 E.05122
G1 X201.91 Y180.764 E.05658
G1 X201.597 Y182.182 E.06486
G1 X201.042 Y183.804 E.07655
G1 X200.509 Y184.954 E.05658
G1 X199.773 Y186.206 E.06487
G1 X198.746 Y187.578 E.07655
G1 X197.75 Y188.636 E.06487
G1 X196.444 Y189.745 E.07655
G1 X195.238 Y190.556 E.06487
G1 X193.718 Y191.347 E.07655
G1 X192.539 Y191.811 E.05658
G1 X191.143 Y192.21 E.06486
G1 X189.897 Y192.44 E.05658
G1 X188.188 Y192.572 E.07655
G1 X186.921 Y192.536 E.05658
G1 X185.663 Y192.386 E.05658
G1 X184.281 Y192.088 E.06316
G1 X137.358 Y178.961 E2.17595
G1 X136.183 Y178.488 E.05658
G1 X135.054 Y177.912 E.05658
G1 X133.982 Y177.238 E.05658
G1 X133.093 Y176.568 E.04968
G1 X132.171 Y175.746 E.05518
G1 X131.304 Y174.822 E.05658
G1 X130.523 Y173.824 E.05658
G1 X129.835 Y172.761 E.05658
G1 X128.917 Y170.889 E.09311
G1 X128.225 Y168.647 E.10478
G1 X127.943 Y166.769 E.08483
G1 X127.926 Y164.684 E.09311
G1 X128.273 Y162.364 E.10477
G1 X128.832 Y160.548 E.08483
G1 X129.724 Y158.654 E.0935
G1 X131.038 Y156.721 E.10438
G1 X132.007 Y155.639 E.06487
G1 X133.389 Y154.424 E.08215
G1 X133.743 Y154.826 F48000
G1 F3000
G1 X133.754 Y154.816 E.00068
G1 X159.74 Y135.736 E1.43971
G1 X161.296 Y135.083 E.07538
G1 X162.272 Y135.058 E.04358
G1 X189.658 Y138.07 E1.23039
G1 X190.856 Y138.275 E.05428
G1 X192.034 Y138.588 E.05443
G1 X193.883 Y139.321 E.08882
G1 X195.84 Y140.478 E.10155
G1 X196.801 Y141.228 E.05443
G1 X197.691 Y142.061 E.05443
G1 X198.973 Y143.581 E.08882
G1 X199.648 Y144.605 E.05477
G1 X200.221 Y145.672 E.05409
G1 X201.033 Y147.796 E.10156
G1 X201.318 Y148.981 E.05443
G1 X201.497 Y150.187 E.05443
G1 X201.568 Y151.508 E.05909
G1 X201.568 Y178.36 E1.19919
G1 X201.379 Y180.684 E.1041
G1 X201.081 Y182.032 E.06164
G1 X200.542 Y183.608 E.0744
G1 X200.028 Y184.713 E.05443
G1 X199.329 Y185.904 E.06164
G1 X198.331 Y187.237 E.0744
G1 X197.385 Y188.242 E.06164
G1 X196.115 Y189.321 E.0744
G1 X194.969 Y190.091 E.06165
G1 X193.492 Y190.86 E.0744
G1 X192.357 Y191.306 E.05443
G1 X191.187 Y191.648 E.05443
G1 X189.831 Y191.907 E.06164
G1 X188.17 Y192.035 E.0744
G1 X186.952 Y191.999 E.05443
G1 X185.742 Y191.855 E.05443
G1 X184.425 Y191.571 E.06016
G1 X137.544 Y178.457 E2.174
M73 P1 R14
G1 X136.413 Y178.003 E.05443
G1 X135.327 Y177.45 E.05443
G1 X133.426 Y176.147 E.10289
G1 X132.54 Y175.355 E.05309
G1 X131.706 Y174.466 E.05443
G1 X130.956 Y173.506 E.05443
G1 X130.294 Y172.482 E.05443
G1 X129.418 Y170.697 E.08881
G1 X128.747 Y168.524 E.10156
G1 X128.477 Y166.716 E.08161
G1 X128.461 Y164.727 E.08882
G1 X128.798 Y162.479 E.10155
G1 X129.396 Y160.582 E.08882
G1 X130.187 Y158.926 E.08195
G1 X131.461 Y157.052 E.10121
G1 X132.382 Y156.024 E.06165
G1 X133.697 Y154.866 E.07826
G1 X134.051 Y155.267 F48000
G1 F3000
G1 X134.074 Y155.247 E.00134
G1 X160.058 Y136.169 E1.43959
G1 X162.213 Y135.592 E.09965
G1 X189.599 Y138.603 E1.23039
G1 X190.75 Y138.802 E.05215
G1 X191.881 Y139.103 E.05228
G1 X192.981 Y139.504 E.05228
M73 P1 R13
G1 X194.041 Y140.002 E.05228
G1 X195.052 Y140.592 E.05228
G1 X196.006 Y141.271 E.05228
G1 X197.409 Y142.541 E.08452
G1 X198.791 Y144.256 E.09834
G1 X199.415 Y145.28 E.05357
G1 X199.921 Y146.303 E.05099
G1 X200.557 Y148.086 E.08452
G1 X200.818 Y149.227 E.05228
G1 X200.977 Y150.387 E.05228
G1 X201.031 Y151.508 E.05011
G1 X201.031 Y178.36 E1.19919
G1 X200.848 Y180.603 E.1005
G1 X200.566 Y181.881 E.05842
G1 X200.043 Y183.412 E.07225
G1 X199.481 Y184.601 E.05872
G1 X198.633 Y185.971 E.07196
G1 X197.826 Y187.001 E.05842
G1 X196.691 Y188.154 E.07226
G1 X195.675 Y188.978 E.05842
G1 X194.313 Y189.851 E.07226
G1 X193.265 Y190.373 E.05228
G1 X192.175 Y190.8 E.05228
G1 X191.051 Y191.128 E.05228
G1 X189.902 Y191.354 E.05228
G1 X188.738 Y191.476 E.05228
G1 X187.568 Y191.494 E.05228
G1 X186.4 Y191.406 E.05228
G1 X185.217 Y191.209 E.05357
G1 X138.394 Y178.166 E2.17066
G1 X137.181 Y177.747 E.05727
G1 X136.115 Y177.264 E.05228
G1 X135.097 Y176.687 E.05228
G1 X134.128 Y176.017 E.05258
G1 X132.908 Y174.964 E.07196
G1 X132.108 Y174.11 E.05228
G1 X131.309 Y173.074 E.05842
G1 X130.684 Y172.084 E.05228
G1 X129.759 Y170.086 E.09833
G1 X129.27 Y168.4 E.07839
G1 X129.001 Y166.527 E.08452
G1 X128.996 Y164.771 E.07839
G1 X129.322 Y162.594 E.09833
G1 X129.841 Y160.917 E.07839
G1 X130.65 Y159.198 E.08482
G1 X131.884 Y157.382 E.09804
G1 X132.757 Y156.408 E.05842
G1 X134.006 Y155.307 E.07438
G1 X134.353 Y155.714 F48000
G1 F3000
G1 X134.394 Y155.679 E.0024
G1 X160.376 Y136.602 E1.43947
G1 X162.154 Y136.126 E.08224
G1 X189.54 Y139.137 E1.23039
G1 X190.644 Y139.328 E.05003
G1 X191.729 Y139.618 E.05013
G1 X192.783 Y140.003 E.05014
G1 X193.799 Y140.481 E.05014
G1 X194.768 Y141.048 E.05014
G1 X195.682 Y141.7 E.05013
G1 X197.014 Y142.906 E.08023
G1 X197.753 Y143.751 E.05013
G1 X198.414 Y144.658 E.05014
G1 X199.434 Y146.528 E.09511
G1 X199.839 Y147.575 E.05013
G1 X200.149 Y148.654 E.05014
G1 X200.441 Y150.427 E.08023
G1 X200.494 Y151.508 E.04834
G1 X200.494 Y178.36 E1.19919
G1 X200.317 Y180.523 E.0969
G1 X200.05 Y181.73 E.0552
G1 X199.543 Y183.216 E.07011
G1 X199.012 Y184.338 E.05545
G1 X198.19 Y185.669 E.06987
G1 X197.427 Y186.641 E.0552
G1 X196.326 Y187.76 E.07011
G1 X195.366 Y188.539 E.0552
G1 X194.044 Y189.386 E.07011
G1 X193.039 Y189.886 E.05013
G1 X191.993 Y190.295 E.05013
G1 X190.915 Y190.609 E.05013
G1 X189.813 Y190.824 E.05013
G1 X188.697 Y190.941 E.05014
G1 X187.574 Y190.957 E.05014
G1 X186.455 Y190.872 E.05013
G1 X185.32 Y190.682 E.05137
G1 X138.538 Y177.648 E2.16878
M73 P2 R13
G1 X137.39 Y177.252 E.05425
G1 X136.367 Y176.789 E.05014
G1 X135.39 Y176.237 E.05013
G1 X134.462 Y175.596 E.05038
G1 X133.277 Y174.574 E.06986
G1 X132.51 Y173.754 E.05014
G1 X131.755 Y172.775 E.0552
G1 X131.155 Y171.826 E.05014
G1 X130.26 Y169.894 E.09511
G1 X129.769 Y168.165 E.08023
G1 X129.514 Y166.051 E.09511
G1 X129.568 Y164.368 E.07517
G1 X129.874 Y162.598 E.08023
G1 X130.387 Y160.995 E.07517
G1 X131.352 Y159.065 E.09635
G1 X132.379 Y157.625 E.07899
G1 X133.453 Y156.48 E.07011
G1 X134.307 Y155.752 E.05012
; printing object toasterve.stl id:2 copy 0
G1 E-.35 F1800
;WIPE_START
G1 F3000
G1 X134.394 Y155.679 E-.01707
G1 X135.108 Y155.154 E-.13293
;WIPE_END
EXCLUDE_OBJECT_START NAME=toasterve.stl_id_2_copy_0
G1 X151.107 Y162.818 F48000
G1 E.5 F4800
;TYPE:Inner wall
;WIDTH:0.579999
G1 F7200
G1 X150.888 Y162.958 E.01162
G1 X150.657 Y163.229 E.01587
G1 X150.479 Y163.645 E.02024
G1 X150.442 Y163.975 E.01479
G3 X150.559 Y166.169 I-11.87 J1.734 E.09828
G3 X148.189 Y159.696 I-8.511 J-.554 E2.07637
G3 X148.921 Y160.534 I-31.812 J28.531 E.04973
G1 X149.223 Y160.767 E.01702
G1 X149.65 Y160.92 E.02024
G1 X150.005 Y160.934 E.01587
G1 X150.42 Y160.828 E.01911
G1 X166.869 Y153.654 E.80141
G1 X167.283 Y154.604 E.04626
G1 X167.697 Y155.553 E.04626
G1 X151.248 Y162.727 E.80141
G1 X151.117 Y162.811 E.00696
G1 X151.336 Y163.309 F48000
G1 F7200
G1 X151.108 Y163.52 E.01389
G1 X151.001 Y163.77 E.01214
G1 X150.986 Y164.067 E.01327
G3 X133.071 Y164.268 I-8.942 J1.535 E1.4015
G3 X148.958 Y159.755 I8.966 J1.342 E.92748
G1 X149.306 Y160.16 E.02384
G1 X149.591 Y160.348 E.01524
G1 X149.956 Y160.4 E.01649
G1 X150.205 Y160.336 E.01147
G1 X167.146 Y152.947 E.82539
G1 X167.775 Y154.389 E.07024
G1 X168.404 Y155.831 E.07024
G1 X151.463 Y163.219 E.82539
G1 X151.399 Y163.25 E.00314
G1 X151.345 Y163.301 E.00332
G1 X151.677 Y163.712 F48000
;TYPE:Outer wall
G1 F7200
G1 X151.559 Y163.812 E.00692
G1 X151.519 Y163.994 E.00834
G3 X136.491 Y157.768 I-9.471 J1.61 E1.82933
G3 X149.625 Y159.708 I5.546 J7.876 E.65411
G1 X149.785 Y159.848 E.0095
G1 X149.99 Y159.843 E.00915
G1 X167.424 Y152.24 E.84938
G1 X168.267 Y154.175 E.09423
G1 X169.111 Y156.109 E.09423
G1 X151.688 Y163.707 E.84884
G1 E-.35 F1800
;WIPE_START
G1 F7200
G1 X151.559 Y163.812 E-.02498
G1 X151.519 Y163.994 E-.02801
G1 X151.59 Y164.517 E-.0792
G1 X151.598 Y164.636 E-.01781
;WIPE_END
G1 X145.061 Y163.27 F48000
G1 E.5 F4800
;TYPE:Inner wall
G1 F7200
G1 X145.258 Y163.531 E.01461
G3 X145.826 Y164.982 I-3.341 J2.144 E.07004
G3 X145.576 Y167.105 I-3.99 J.606 E.09662
G1 X145.235 Y167.737 E.03208
G1 X144.787 Y168.291 E.0318
G1 X144.236 Y168.758 E.03226
G1 X143.609 Y169.113 E.03218
G1 X142.929 Y169.343 E.03208
G1 X142.239 Y169.441 E.03111
G1 X141.573 Y169.414 E.02975
