; HEADER_BLOCK_START
; generated by OrcaSlicer 1.8.1 on 2024-01-23 at 10:54:02
; total layer number: 75
; HEADER_BLOCK_END

; THUMBNAIL_BLOCK_START

;
; THUMBNAIL_BLOCK_END

; external perimeters extrusion width = 0.52mm
; perimeters extrusion width = 0.52mm
; infill extrusion width = 0.55mm
; solid infill extrusion width = 0.55mm
; top infill extrusion width = 0.55mm
; first layer extrusion width = 0.58mm

; external perimeters extrusion width = 0.52mm
; perimeters extrusion width = 0.52mm
; infill extrusion width = 0.55mm
; solid infill extrusion width = 0.55mm
; top infill extrusion width = 0.55mm
; first layer extrusion width = 0.58mm

; EXECUTABLE_BLOCK_START
EXCLUDE_OBJECT_DEFINE NAME=topHatHolder.stl_id_0_copy_0 CENTER=165,180.451 POLYGON=[[138,165.5],[192,165.5],[192,172.5],[169.099,195.401],[138,176.12],[138,165.5]]
EXCLUDE_OBJECT_DEFINE NAME=topHatHolder.stl_id_1_copy_0 CENTER=165,149.533 POLYGON=[[138,134.582],[192,134.582],[192,141.582],[169.099,164.483],[138,145.202],[138,134.582]]
M73 P0 R10
;TYPE:Custom
M104 S0
M140 S0
START_PRINT BED=75 HOTEND=220
G90
G21
M83 ; use relative distances for extrusion
; filament start gcode
SET_PRESSURE_ADVANCE ADVANCE=0.036; Override pressure advance value
T0
M106 S0
;LAYER_CHANGE
;Z:0.2
;HEIGHT:0.2
;BEFORE_LAYER_CHANGE
;0.2
G92 E0

;DSLR_SNAPSHOT
TIMELAPSE_TAKE_FRAME
;_SET_FAN_SPEED_CHANGING_LAYER
SET_VELOCITY_LIMIT ACCEL=10000 ACCEL_TO_DECEL=5000
SET_VELOCITY_LIMIT SQUARE_CORNER_VELOCITY=10
G1 E-.4 F4200
G1 X135.357 Y131.385 F48000
G1 Z.2
G1 E.4 F4200
;TYPE:Skirt
;WIDTH:0.58
G1 F3000
G1 X136.971 Y130.563 E.08086
G1 X138 Y130.434 E.04632
G1 X192 Y130.434 E2.41155
G1 X193.767 Y130.829 E.08086
G1 X195.197 Y131.939 E.08086
G1 X196.019 Y133.553 E.08086
G1 X196.148 Y134.582 E.04632
G1 X196.148 Y172.5 E1.69335
G1 X195.753 Y174.267 E.08086
G1 X194.933 Y175.433 E.06366
G1 X172.032 Y198.335 E1.44636
G1 X170.503 Y199.305 E.08086
G1 X168.707 Y199.531 E.08086
G1 X166.913 Y198.927 E.08453
G1 X135.814 Y179.646 E1.63409
G1 X134.52 Y178.379 E.08086
G1 X133.852 Y176.12 E.1052
G1 X133.852 Y134.582 E1.85502
G1 X134.247 Y132.815 E.08086
G1 X135.326 Y131.424 E.07863
G1 X135.762 Y131.797 F48000
G1 F3000
G1 X135.88 Y131.658 E.00814
G1 X138 Y130.971 E.09951
G1 X192 Y130.971 E2.41155
G1 X193.641 Y131.365 E.07538
G1 X194.924 Y132.463 E.07538
G1 X195.611 Y134.582 E.09951
G1 X195.611 Y172.5 E1.69335
M73 P1 R10
G1 X195.217 Y174.141 E.07538
G1 X194.554 Y175.054 E.05037
G1 X171.652 Y197.955 E1.44636
G1 X170.213 Y198.836 E.07538
G1 X168.53 Y198.967 E.07538
G1 X167.196 Y198.47 E.06358
G1 X136.097 Y179.189 E1.63409
G1 X134.91 Y177.989 E.07538
G1 X134.389 Y176.12 E.08666
G1 X134.389 Y134.582 E1.85502
G1 X134.783 Y132.941 E.07538
G1 X135.73 Y131.835 E.06501
G1 X136.138 Y132.229 F48000
G1 F3000
G1 X136.399 Y131.958 E.01681
G1 X138 Y131.508 E.07426
G1 X192 Y131.508 E2.41155
G1 X193.505 Y131.901 E.06946
G1 X194.624 Y132.981 E.06946
G1 X195.074 Y134.582 E.07426
G1 X195.074 Y172.5 E1.69335
G1 X194.681 Y174.005 E.06946
G1 X194.174 Y174.674 E.03748
G1 X171.273 Y197.575 E1.44636
G1 X169.93 Y198.361 E.06946
G1 X168.375 Y198.389 E.06946
G1 X167.479 Y198.014 E.04338
G1 X136.38 Y178.733 E1.63409
M73 P2 R10
G1 X135.308 Y177.605 E.06946
G1 X134.926 Y176.12 E.0685
G1 X134.926 Y134.582 E1.85502
G1 X135.319 Y133.077 E.06946
G1 X136.103 Y132.265 E.05042
G1 X136.472 Y132.68 F48000
G1 F3000
G1 X136.91 Y132.291 E.02618
G1 X138 Y132.045 E.04989
G1 X192 Y132.045 E2.41155
G1 X193.355 Y132.437 E.06299
G1 X194.291 Y133.492 E.06299
G1 X194.537 Y134.582 E.04989
G1 X194.537 Y172.5 E1.69335
G1 X193.794 Y174.294 E.08672
G1 X170.893 Y197.195 E1.44636
G1 X169.657 Y197.876 E.06299
G1 X167.762 Y197.558 E.08584
G1 X136.663 Y178.276 E1.63409
G1 X135.718 Y177.229 E.06299
G1 X135.463 Y176.12 E.05082
G1 X135.463 Y134.582 E1.85502
G1 X135.855 Y133.227 E.06299
G1 X136.434 Y132.713 E.03458
; printing object topHatHolder.stl id:0 copy 0
G1 E-.4 F4200
EXCLUDE_OBJECT_START NAME=topHatHolder.stl_id_0_copy_0
G1 X139.464 Y166.964 F48000
G1 E.4 F4200
;TYPE:Inner wall
;WIDTH:0.579999
G1 F7200
G1 X190.536 Y166.964 E2.28077
G1 X190.536 Y171.894 E.22014
G1 X168.884 Y193.545 E1.36745
M73 P3 R10
G1 X139.464 Y175.305 E1.54587
G1 X139.464 Y166.974 E.37204
G1 X138.927 Y166.427 F48000
G1 F7200
G1 X191.073 Y166.427 E2.32874
G1 X191.073 Y172.116 E.25406
G1 X168.963 Y194.226 E1.3964
G1 X138.927 Y175.604 E1.57823
G1 X138.927 Y166.437 E.40938
G1 X138.39 Y165.89 F48000
;TYPE:Outer wall
G1 F7200
G1 X191.61 Y165.89 E2.37671
G1 X191.61 Y172.338 E.28798
G1 X169.042 Y194.907 E1.42534
G1 X138.39 Y175.903 E1.61059
G1 X138.39 Y165.9 E.44671
G1 E-.4 F4200
G1 X189.28 Y167.125 F48000
G1 E.4 F4200
;TYPE:Bottom surface
;WIDTH:0.584132
G1 F4800
G1 X190.133 Y167.978 E.05427
G1 X190.133 Y168.743 E.03444
G1 X188.757 Y167.367 E.0876
G1 X187.991 Y167.367 E.03444
G1 X190.133 Y169.509 E.13631
G1 X190.133 Y170.274 E.03444
G1 X187.226 Y167.367 E.18502
G1 X186.46 Y167.367 E.03444
G1 X190.133 Y171.04 E.23374
G1 X190.133 Y171.727 E.03092
G1 X190.094 Y171.766 E.00249
G1 X185.695 Y167.367 E.27995
G1 X184.93 Y167.367 E.03444
G1 X189.711 Y172.149 E.30431
G1 X189.328 Y172.531 E.02436
G1 X184.164 Y167.367 E.32867
G1 X183.399 Y167.367 E.03444
G1 X188.946 Y172.914 E.35302
G1 X188.563 Y173.297 E.02436
G1 X182.633 Y167.367 E.37738
G1 X181.868 Y167.367 E.03444
G1 X188.18 Y173.679 E.40173
G1 X187.798 Y174.062 E.02436
G1 X181.103 Y167.367 E.42609
G1 X180.337 Y167.367 E.03444
G1 X187.415 Y174.445 E.45044
G1 X187.032 Y174.827 E.02436
G1 X179.572 Y167.367 E.4748
G1 X178.807 Y167.367 E.03444
G1 X186.65 Y175.21 E.49915
G1 X186.267 Y175.593 E.02436
G1 X178.041 Y167.367 E.52351
G1 X177.276 Y167.367 E.03444
G1 X185.884 Y175.975 E.54787
G1 X185.502 Y176.358 E.02436
G1 X176.51 Y167.367 E.57222
G1 X175.745 Y167.367 E.03444
G1 X185.119 Y176.741 E.59658
G1 X184.736 Y177.124 E.02436
G1 X174.98 Y167.367 E.62093
G1 X174.214 Y167.367 E.03444
G1 X184.353 Y177.506 E.64529
G1 X183.971 Y177.889 E.02436
G1 X173.449 Y167.367 E.66964
G1 X172.683 Y167.367 E.03444
G1 X183.588 Y178.272 E.694
G1 X183.205 Y178.654 E.02436
G1 X171.918 Y167.367 E.71836
M73 P4 R10
G1 X171.153 Y167.367 E.03444
G1 X182.823 Y179.037 E.74271
G1 X182.44 Y179.42 E.02436
G1 X170.387 Y167.367 E.76707
G1 X169.622 Y167.367 E.03444
G1 X182.057 Y179.802 E.79142
G1 X181.675 Y180.185 E.02436
G1 X168.856 Y167.367 E.81578
G1 X168.091 Y167.367 E.03444
G1 X181.292 Y180.568 E.84013
G1 X180.909 Y180.951 E.02436
G1 X167.326 Y167.367 E.86449
G1 X166.56 Y167.367 E.03444
G1 X180.527 Y181.333 E.88884
G1 X180.144 Y181.716 E.02436
G1 X165.795 Y167.367 E.9132
G1 X165.03 Y167.367 E.03444
G1 X179.761 Y182.099 E.93756
G1 X179.378 Y182.481 E.02436
G1 X164.264 Y167.367 E.96191
G1 X163.499 Y167.367 E.03444
G1 X178.996 Y182.864 E.98627
G1 X178.613 Y183.247 E.02436
G1 X162.733 Y167.367 E1.01062
G1 X161.968 Y167.367 E.03444
G1 X178.23 Y183.629 E1.03498
G1 X177.848 Y184.012 E.02436
G1 X161.203 Y167.367 E1.05933
G1 X160.437 Y167.367 E.03444
G1 X177.465 Y184.395 E1.08369
G1 X177.082 Y184.777 E.02436
G1 X159.672 Y167.367 E1.10804
G1 X158.906 Y167.367 E.03444
G1 X176.7 Y185.16 E1.1324
G1 X176.317 Y185.543 E.02436
G1 X158.141 Y167.367 E1.15676
G1 X157.376 Y167.367 E.03444
G1 X175.934 Y185.926 E1.18111
G1 X175.551 Y186.308 E.02436
G1 X156.61 Y167.367 E1.20547
G1 X155.845 Y167.367 E.03444
G1 X175.169 Y186.691 E1.22982
M73 P5 R10
G1 X174.786 Y187.074 E.02436
G1 X155.079 Y167.367 E1.25418
G1 X154.314 Y167.367 E.03444
G1 X174.403 Y187.456 E1.27853
G1 X174.021 Y187.839 E.02436
G1 X153.549 Y167.367 E1.30289
M73 P5 R9
G1 X152.783 Y167.367 E.03444
G1 X173.638 Y188.222 E1.32725
G1 X173.255 Y188.604 E.02436
G1 X152.018 Y167.367 E1.3516
G1 X151.252 Y167.367 E.03444
G1 X172.873 Y188.987 E1.37596
G1 X172.49 Y189.37 E.02436
G1 X150.487 Y167.367 E1.40031
G1 X149.722 Y167.367 E.03444
G1 X172.107 Y189.752 E1.42467
G1 X171.725 Y190.135 E.02436
G1 X148.956 Y167.367 E1.44902
G1 X148.191 Y167.367 E.03444
G1 X171.342 Y190.518 E1.47338
G1 X170.959 Y190.901 E.02436
G1 X147.426 Y167.367 E1.49773
G1 X146.66 Y167.367 E.03444
G1 X170.576 Y191.283 E1.52209
G1 X170.194 Y191.666 E.02436
G1 X145.895 Y167.367 E1.54645
G1 X145.129 Y167.367 E.03444
G1 X169.811 Y192.049 E1.5708
G1 X169.428 Y192.431 E.02436
G1 X144.364 Y167.367 E1.59516
G1 X143.599 Y167.367 E.03444
G1 X169.046 Y192.814 E1.61951
M73 P6 R9
G1 X168.825 Y193.035 E.01405
G1 X167.973 Y192.506 E.04513
G1 X142.833 Y167.367 E1.59993
G1 X142.068 Y167.367 E.03444
G1 X165.958 Y191.257 E1.52045
G1 X163.944 Y190.009 E.10665
G1 X141.302 Y167.367 E1.44097
G1 X140.537 Y167.367 E.03444
G1 X161.93 Y188.76 E1.3615
G1 X159.916 Y187.511 E.10665
G1 X139.867 Y167.462 E1.27596
G1 X139.867 Y168.228 E.03444
G1 X157.902 Y186.262 E1.14777
G1 X155.887 Y185.014 E.10665
G1 X139.867 Y168.993 E1.01958
G1 X139.867 Y169.758 E.03444
G1 X153.873 Y183.765 E.89139
G1 X151.859 Y182.516 E.10665
G1 X139.867 Y170.524 E.76321
G1 X139.867 Y171.289 E.03444
G1 X149.845 Y181.267 E.63502
G1 X147.831 Y180.018 E.10665
G1 X139.867 Y172.055 E.50683
G1 X139.867 Y172.82 E.03444
G1 X145.817 Y178.77 E.37864
G1 X143.802 Y177.521 E.10665
G1 X139.867 Y173.585 E.25046
G1 X139.867 Y174.351 E.03444
G1 X142.537 Y177.02 E.1699
; stop printing object topHatHolder.stl id:0 copy 0
; printing object topHatHolder.stl id:1 copy 0
G1 E-.4 F4200
EXCLUDE_OBJECT_END NAME=topHatHolder.stl_id_0_copy_0
EXCLUDE_OBJECT_START NAME=topHatHolder.stl_id_1_copy_0
G1 X139.464 Y136.046 F48000
G1 E.4 F4200
;TYPE:Inner wall
;WIDTH:0.579999
G1 F7200
G1 X190.536 Y136.046 E2.28077
G1 X190.536 Y140.976 E.22014
G1 X168.884 Y162.627 E1.36745
G1 X139.464 Y144.387 E1.54587
G1 X139.464 Y136.056 E.37204
G1 X138.927 Y135.509 F48000
G1 F7200
G1 X191.073 Y135.509 E2.32874
G1 X191.073 Y141.198 E.25406
G1 X168.963 Y163.308 E1.3964
M73 P7 R9
G1 X138.927 Y144.686 E1.57823
G1 X138.927 Y135.519 E.40938
G1 X138.39 Y134.972 F48000
;TYPE:Outer wall
G1 F7200
G1 X191.61 Y134.972 E2.37671
G1 X191.61 Y141.421 E.28798
G1 X169.042 Y163.989 E1.42534
G1 X138.39 Y144.985 E1.61059
G1 X138.39 Y134.982 E.44671
G1 E-.4 F4200
G1 X189.28 Y136.207 F48000
G1 E.4 F4200
;TYPE:Bottom surface
;WIDTH:0.584132
G1 F4800
G1 X190.133 Y137.06 E.05427
G1 X190.133 Y137.825 E.03444
G1 X188.757 Y136.449 E.0876
G1 X187.991 Y136.449 E.03444
G1 X190.133 Y138.591 E.13631
G1 X190.133 Y139.356 E.03444
G1 X187.226 Y136.449 E.18502
G1 X186.46 Y136.449 E.03444
G1 X190.133 Y140.122 E.23374
G1 X190.133 Y140.809 E.03092
G1 X190.094 Y140.848 E.00249
G1 X185.695 Y136.449 E.27995
G1 X184.93 Y136.449 E.03444
G1 X189.711 Y141.231 E.30431
G1 X189.328 Y141.613 E.02436
G1 X184.164 Y136.449 E.32867
G1 X183.399 Y136.449 E.03444
G1 X188.946 Y141.996 E.35302
G1 X188.563 Y142.379 E.02436
G1 X182.633 Y136.449 E.37738
G1 X181.868 Y136.449 E.03444
G1 X188.18 Y142.761 E.40173
G1 X187.798 Y143.144 E.02436
G1 X181.103 Y136.449 E.42609
G1 X180.337 Y136.449 E.03444
G1 X187.415 Y143.527 E.45044
G1 X187.032 Y143.909 E.02436
G1 X179.572 Y136.449 E.4748
G1 X178.807 Y136.449 E.03444
G1 X186.65 Y144.292 E.49915
G1 X186.267 Y144.675 E.02436
G1 X178.041 Y136.449 E.52351
G1 X177.276 Y136.449 E.03444
G1 X185.884 Y145.058 E.54787
G1 X185.502 Y145.44 E.02436
G1 X176.51 Y136.449 E.57222
G1 X175.745 Y136.449 E.03444
G1 X185.119 Y145.823 E.59658
G1 X184.736 Y146.206 E.02436
G1 X174.98 Y136.449 E.62093
G1 X174.214 Y136.449 E.03444
G1 X184.353 Y146.588 E.64529
G1 X183.971 Y146.971 E.02436
G1 X173.449 Y136.449 E.66964
G1 X172.683 Y136.449 E.03444
G1 X183.588 Y147.354 E.694
G1 X183.205 Y147.736 E.02436
G1 X171.918 Y136.449 E.71836
G1 X171.153 Y136.449 E.03444
G1 X182.823 Y148.119 E.74271
G1 X182.44 Y148.502 E.02436
G1 X170.387 Y136.449 E.76707
G1 X169.622 Y136.449 E.03444
G1 X182.057 Y148.884 E.79142
G1 X181.675 Y149.267 E.02436
G1 X168.856 Y136.449 E.81578
G1 X168.091 Y136.449 E.03444
G1 X181.292 Y149.65 E.84013
M73 P8 R9
G1 X180.909 Y150.033 E.02436
G1 X167.326 Y136.449 E.86449
G1 X166.56 Y136.449 E.03444
G1 X180.527 Y150.415 E.88884
G1 X180.144 Y150.798 E.02436
G1 X165.795 Y136.449 E.9132
G1 X165.03 Y136.449 E.03444
G1 X179.761 Y151.181 E.93756
G1 X179.378 Y151.563 E.02436
G1 X164.264 Y136.449 E.96191
G1 X163.499 Y136.449 E.03444
G1 X178.996 Y151.946 E.98627
G1 X178.613 Y152.329 E.02436
G1 X162.733 Y136.449 E1.01062
G1 X161.968 Y136.449 E.03444
G1 X178.23 Y152.711 E1.03498
G1 X177.848 Y153.094 E.02436
G1 X161.203 Y136.449 E1.05933
G1 X160.437 Y136.449 E.03444
G1 X177.465 Y153.477 E1.08369
G1 X177.082 Y153.86 E.02436
G1 X159.672 Y136.449 E1.10804
G1 X158.906 Y136.449 E.03444
G1 X176.7 Y154.242 E1.1324
G1 X176.317 Y154.625 E.02436
G1 X158.141 Y136.449 E1.15676
G1 X157.376 Y136.449 E.03444
G1 X175.934 Y155.008 E1.18111
G1 X175.551 Y155.39 E.02436
G1 X156.61 Y136.449 E1.20547
G1 X155.845 Y136.449 E.03444
G1 X175.169 Y155.773 E1.22982
G1 X174.786 Y156.156 E.02436
G1 X155.079 Y136.449 E1.25418
G1 X154.314 Y136.449 E.03444
G1 X174.403 Y156.538 E1.27853
G1 X174.021 Y156.921 E.02436
G1 X153.549 Y136.449 E1.30289
G1 X152.783 Y136.449 E.03444
G1 X173.638 Y157.304 E1.32725
M73 P9 R9
G1 X173.255 Y157.686 E.02436
G1 X152.018 Y136.449 E1.3516
G1 X151.252 Y136.449 E.03444
G1 X172.873 Y158.069 E1.37596
G1 X172.49 Y158.452 E.02436
G1 X150.487 Y136.449 E1.40031
G1 X149.722 Y136.449 E.03444
G1 X172.107 Y158.835 E1.42467
G1 X171.725 Y159.217 E.02436
G1 X148.956 Y136.449 E1.44902
G1 X148.191 Y136.449 E.03444
G1 X171.342 Y159.6 E1.47338
G1 X170.959 Y159.983 E.02436
G1 X147.426 Y136.449 E1.49773
G1 X146.66 Y136.449 E.03444
G1 X170.576 Y160.365 E1.52209
G1 X170.194 Y160.748 E.02436
G1 X145.895 Y136.449 E1.54645
G1 X145.129 Y136.449 E.03444
G1 X169.811 Y161.131 E1.5708
G1 X169.428 Y161.513 E.02436
G1 X144.364 Y136.449 E1.59516
G1 X143.599 Y136.449 E.03444
G1 X169.046 Y161.896 E1.61951
G1 X168.825 Y162.117 E.01405
G1 X167.973 Y161.588 E.04513
G1 X142.833 Y136.449 E1.59993
G1 X142.068 Y136.449 E.03444
G1 X165.958 Y160.34 E1.52045
M73 P10 R9
G1 X163.944 Y159.091 E.10665
G1 X141.302 Y136.449 E1.44097
G1 X140.537 Y136.449 E.03444
G1 X161.93 Y157.842 E1.3615
G1 X159.916 Y156.593 E.10665
G1 X139.867 Y136.544 E1.27596
G1 X139.867 Y137.31 E.03444
G1 X157.902 Y155.344 E1.14777
G1 X155.887 Y154.096 E.10665
G1 X139.867 Y138.075 E1.01958
G1 X139.867 Y138.841 E.03444
G1 X153.873 Y152.847 E.89139
G1 X151.859 Y151.598 E.10665
G1 X139.867 Y139.606 E.76321
G1 X139.867 Y140.371 E.03444
G1 X149.845 Y150.349 E.63502
G1 X147.831 Y149.1 E.10665
G1 X139.867 Y141.137 E.50683
G1 X139.867 Y141.902 E.03444
G1 X145.817 Y147.852 E.37864
G1 X143.802 Y146.603 E.10665
G1 X139.867 Y142.667 E.25046
G1 X139.867 Y143.433 E.03444
G1 X142.537 Y146.102 E.1699
; stop printing object topHatHolder.stl id:1 copy 0
M106 S163
;LAYER_CHANGE
;Z:0.4
;HEIGHT:0.2
;BEFORE_LAYER_CHANGE
;0.4
G92 E0

EXCLUDE_OBJECT_END NAME=topHatHolder.stl_id_1_copy_0
;DSLR_SNAPSHOT
TIMELAPSE_TAKE_FRAME
;_SET_FAN_SPEED_CHANGING_LAYER
SET_VELOCITY_LIMIT ACCEL=15000 ACCEL_TO_DECEL=7500
M104 S200 ; set nozzle temperature
M140 S75 ; set bed temperature
; printing object topHatHolder.stl id:0 copy 0
SET_VELOCITY_LIMIT ACCEL=25000 ACCEL_TO_DECEL=12500
G1 E-.4 F4200
EXCLUDE_OBJECT_START NAME=topHatHolder.stl_id_0_copy_0
G1 X139.214 Y166.714 Z.4 F48000
G1 E.4 F4200
SET_VELOCITY_LIMIT ACCEL=15000 ACCEL_TO_DECEL=7500
;TYPE:Inner wall
;WIDTH:0.519999
G1 F18000
G1 X190.786 Y166.714 E2.04581
G1 X190.786 Y170.45 E.14819
G1 X190.786 Y171.997 E.06138
G1 X168.921 Y193.862 E1.22665
G1 X139.214 Y175.444 E1.38655
G1 X139.214 Y166.724 E.34592
SET_VELOCITY_LIMIT ACCEL=25000 ACCEL_TO_DECEL=12500
G1 X138.737 Y166.237 F48000
SET_VELOCITY_LIMIT ACCEL=15000 ACCEL_TO_DECEL=7500
G1 F18000
G1 X191.263 Y166.237 E2.08366
G1 X191.263 Y170.45 E.16711
G1 X191.263 Y172.195 E.06922
G1 X168.991 Y194.467 E1.24949
G1 X138.737 Y175.71 E1.41209
G1 X138.737 Y166.247 E.37538
SET_VELOCITY_LIMIT ACCEL=25000 ACCEL_TO_DECEL=12500
G1 X138.26 Y165.76 F48000
SET_VELOCITY_LIMIT ACCEL=15000 ACCEL_TO_DECEL=7500
;TYPE:Outer wall
G1 F15000
G1 X191.74 Y165.76 E2.12151
G1 X191.74 Y170.45 E.18604
G1 X191.74 Y172.392 E.07706
G1 X169.061 Y195.072 E1.27233
G1 X138.26 Y175.975 E1.43762
G1 X138.26 Y165.77 E.40484
SET_VELOCITY_LIMIT ACCEL=25000 ACCEL_TO_DECEL=12500
G1 E-.4 F4200
