; HEADER_BLOCK_START
; generated by OrcaSlicer 1.8.1 on 2024-01-18 at 18:48:12
; total layer number: 100
; HEADER_BLOCK_END

; THUMBNAIL_BLOCK_START

;
; THUMBNAIL_BLOCK_END

; external perimeters extrusion width = 0.52mm
; perimeters extrusion width = 0.52mm
; infill extrusion width = 0.55mm
; solid infill extrusion width = 0.55mm
; top infill extrusion width = 0.55mm
; first layer extrusion width = 0.58mm

; external perimeters extrusion width = 0.52mm
; perimeters extrusion width = 0.52mm
; infill extrusion width = 0.55mm
; solid infill extrusion width = 0.55mm
; top infill extrusion width = 0.55mm
; first layer extrusion width = 0.58mm

; EXECUTABLE_BLOCK_START
EXCLUDE_OBJECT_DEFINE NAME=TRStandodd.stl_id_0_copy_0 CENTER=165,180.5 POLYGON=[[120,181],[120.019,180.239],[120.075,179.481],[120.168,178.726],[120.298,177.976],[120.465,177.234],[120.667,176.501],[120.906,175.778],[121.18,175.068],[121.488,174.373],[121.83,173.693],[122.205,173.031],[122.612,172.389],[123.05,171.767],[123.518,171.167],[124.015,170.591],[124.54,170.04],[125.091,169.515],[125.667,169.018],[126.267,168.55],[126.889,168.112],[127.531,167.705],[128.193,167.33],[128.873,166.988],[129.568,166.68],[130.278,166.406],[131.001,166.167],[131.734,165.965],[132.476,165.798],[133.226,165.668],[133.981,165.575],[134.739,165.519],[135.5,165.5],[194.5,165.5],[195.261,165.519],[196.019,165.575],[196.774,165.668],[197.524,165.798],[198.266,165.965],[198.999,166.167],[199.722,166.406],[200.432,166.68],[201.127,166.988],[201.807,167.33],[202.469,167.705],[203.111,168.112],[203.733,168.55],[204.333,169.018],[204.909,169.515],[205.46,170.04],[205.985,170.591],[206.482,171.167],[206.95,171.767],[207.388,172.389],[207.795,173.031],[208.17,173.693],[208.512,174.373],[208.82,175.068],[209.094,175.778],[209.333,176.501],[209.535,177.234],[209.702,177.976],[209.832,178.726],[209.925,179.481],[209.981,180.239],[210,181],[209.933,181.75],[209.83,182.496],[209.691,183.236],[209.516,183.968],[209.305,184.692],[209.06,185.403],[208.78,186.103],[208.467,186.788],[208.121,187.456],[207.743,188.108],[207.333,188.74],[206.894,189.351],[206.425,189.94],[205.928,190.506],[205.405,191.047],[204.855,191.562],[204.281,192.05],[203.685,192.509],[203.066,192.939],[202.428,193.338],[201.771,193.706],[201.096,194.041],[200.407,194.344],[199.703,194.612],[198.987,194.846],[198.261,195.045],[197.526,195.208],[196.784,195.336],[196.036,195.427],[195.285,195.482],[194.532,195.5],[135.468,195.5],[134.715,195.482],[133.964,195.427],[133.216,195.336],[132.474,195.208],[131.739,195.045],[131.013,194.846],[130.297,194.612],[129.593,194.344],[128.904,194.041],[128.229,193.706],[127.572,193.338],[126.934,192.939],[126.315,192.509],[125.719,192.05],[125.145,191.562],[124.595,191.047],[124.072,190.506],[123.575,189.94],[123.106,189.351],[122.667,188.74],[122.257,188.108],[121.879,187.456],[121.533,186.788],[121.22,186.103],[120.94,185.403],[120.695,184.692],[120.484,183.968],[120.309,183.236],[120.17,182.496],[120.067,181.75],[120,181]]
EXCLUDE_OBJECT_DEFINE NAME=TRStandodd.stl_id_1_copy_0 CENTER=165,149.5 POLYGON=[[120,150],[120.019,149.239],[120.075,148.481],[120.168,147.726],[120.298,146.976],[120.465,146.234],[120.667,145.501],[120.906,144.778],[121.18,144.068],[121.488,143.373],[121.83,142.693],[122.205,142.031],[122.612,141.389],[123.05,140.767],[123.518,140.167],[124.015,139.591],[124.54,139.04],[125.091,138.515],[125.667,138.018],[126.267,137.55],[126.889,137.112],[127.531,136.705],[128.193,136.33],[128.873,135.988],[129.568,135.68],[130.278,135.406],[131.001,135.167],[131.734,134.965],[132.476,134.798],[133.226,134.668],[133.981,134.575],[134.739,134.519],[135.5,134.5],[194.5,134.5],[195.261,134.519],[196.019,134.575],[196.774,134.668],[197.524,134.798],[198.266,134.965],[198.999,135.167],[199.722,135.406],[200.432,135.68],[201.127,135.988],[201.807,136.33],[202.469,136.705],[203.111,137.112],[203.733,137.55],[204.333,138.018],[204.909,138.515],[205.46,139.04],[205.985,139.591],[206.482,140.167],[206.95,140.767],[207.388,141.389],[207.795,142.031],[208.17,142.693],[208.512,143.373],[208.82,144.068],[209.094,144.778],[209.333,145.501],[209.535,146.234],[209.702,146.976],[209.832,147.726],[209.925,148.481],[209.981,149.239],[210,150],[209.933,150.75],[209.83,151.496],[209.691,152.236],[209.516,152.968],[209.305,153.692],[209.06,154.403],[208.78,155.103],[208.467,155.788],[208.121,156.456],[207.743,157.108],[207.333,157.74],[206.894,158.351],[206.425,158.94],[205.928,159.506],[205.405,160.047],[204.855,160.562],[204.281,161.05],[203.685,161.509],[203.066,161.939],[202.428,162.338],[201.771,162.706],[201.096,163.041],[200.407,163.344],[199.703,163.612],[198.987,163.846],[198.261,164.045],[197.526,164.208],[196.784,164.336],[196.036,164.427],[195.285,164.482],[194.532,164.5],[135.468,164.5],[134.715,164.482],[133.964,164.427],[133.216,164.336],[132.474,164.208],[131.739,164.045],[131.013,163.846],[130.297,163.612],[129.593,163.344],[128.904,163.041],[128.229,162.706],[127.572,162.338],[126.934,161.939],[126.315,161.509],[125.719,161.05],[125.145,160.562],[124.595,160.047],[124.072,159.506],[123.575,158.94],[123.106,158.351],[122.667,157.74],[122.257,157.108],[121.879,156.456],[121.533,155.788],[121.22,155.103],[120.94,154.403],[120.695,153.692],[120.484,152.968],[120.309,152.236],[120.17,151.496],[120.067,150.75],[120,150]]
M73 P0 R25
;TYPE:Custom
M104 S0
M140 S0
START_PRINT BED=75 HOTEND=220
G90
G21
M83 ; use relative distances for extrusion
; filament start gcode
SET_PRESSURE_ADVANCE ADVANCE=0.056; Override pressure advance value
M106 S0
;LAYER_CHANGE
;Z:0.2
;HEIGHT:0.2
;BEFORE_LAYER_CHANGE
;0.2
G92 E0

;DSLR_SNAPSHOT
TIMELAPSE_TAKE_FRAME
;_SET_FAN_SPEED_CHANGING_LAYER
SET_VELOCITY_LIMIT ACCEL=10000 ACCEL_TO_DECEL=5000
SET_VELOCITY_LIMIT SQUARE_CORNER_VELOCITY=10
G1 E-.4 F4200
G1 X122.957 Y134.877 F48000
G1 Z.2
G1 E.4 F4200
;TYPE:Skirt
;WIDTH:0.58
G1 F3000
G1 X123.878 Y134.159 E.05216
G1 X125.312 Y133.2 E.07702
G1 X126.328 Y132.625 E.05216
G1 X128.075 Y131.81 E.08611
G1 X129.699 Y131.228 E.07702
G1 X131.567 Y130.75 E.0861
G1 X132.718 Y130.551 E.05216
G1 X134.434 Y130.382 E.07702
G1 X194.525 Y130.352 E2.68357
G1 X196.324 Y130.438 E.08043
G1 X198.233 Y130.711 E.08611
G1 X199.373 Y130.966 E.05215
G1 X201.215 Y131.536 E.08611
G1 X202.808 Y132.196 E.07702
G1 X204.513 Y133.096 E.08611
G1 X205.5 Y133.721 E.05216
G1 X207.043 Y134.877 E.08611
G1 X208.321 Y136.035 E.07702
G1 X209.623 Y137.457 E.08611
G1 X210.341 Y138.378 E.05216
G1 X211.404 Y139.987 E.0861
G1 X212.217 Y141.508 E.07702
G1 X212.964 Y143.285 E.08611
G1 X213.331 Y144.394 E.05215
G1 X213.789 Y146.267 E.08611
G1 X214.062 Y148.176 E.08611
G1 X214.148 Y150 E.08157
G1 X214.148 Y181 E1.38441
G1 X213.939 Y183.064 E.09266
G1 X213.55 Y184.933 E.08523
G1 X212.99 Y186.731 E.08411
G1 X212.553 Y187.828 E.05275
G1 X211.708 Y189.54 E.08523
G1 X210.815 Y190.995 E.07624
G1 X209.672 Y192.523 E.08523
G1 X208.403 Y193.914 E.08411
G1 X206.968 Y195.211 E.08635
G1 X206.052 Y195.916 E.05162
G1 X204.454 Y196.958 E.08523
G1 X202.944 Y197.756 E.07624
G1 X201.885 Y198.22 E.05163
G1 X200.276 Y198.789 E.07624
G1 X198.426 Y199.258 E.08523
G1 X197.286 Y199.453 E.05163
G1 X195.587 Y199.619 E.07624
G1 X134.614 Y199.629 E2.72296
G1 X132.514 Y199.424 E.09422
G1 X130.644 Y199.046 E.08523
G1 X128.818 Y198.488 E.08523
G1 X127.056 Y197.756 E.08523
G1 X125.373 Y196.856 E.08523
G1 X123.785 Y195.797 E.08523
G1 X121.758 Y194.074 E.1188
G1 X120.458 Y192.677 E.08523
G1 X119.738 Y191.773 E.05163
G1 X118.775 Y190.363 E.07624
G1 X118.195 Y189.363 E.05163
G1 X117.447 Y187.828 E.07624
G1 X117.018 Y186.755 E.05163
G1 X116.501 Y185.128 E.07624
G1 X116.233 Y184.003 E.05163
G1 X115.935 Y182.118 E.08523
G1 X115.852 Y181 E.05007
G1 X115.872 Y149.138 E1.42292
G1 X116.051 Y147.218 E.08611
G1 X116.417 Y145.325 E.08611
G1 X116.967 Y143.477 E.08611
G1 X117.783 Y141.508 E.09519
G1 X118.7 Y139.812 E.08611
G1 X119.78 Y138.214 E.08611
G1 X121.535 Y136.179 E.12002
G1 X122.92 Y134.911 E.08387
G1 X123.283 Y135.307 F48000
G1 F3000
G1 X123.308 Y135.284 E.00153
G1 X125.599 Y133.654 E.12557
G1 X126.57 Y133.105 E.0498
G1 X128.269 Y132.311 E.08375
G1 X129.868 Y131.738 E.07584
G1 X131.685 Y131.274 E.08375
G1 X134.474 Y130.917 E.12557
G1 X194.525 Y130.889 E2.68181
G1 X196.285 Y130.973 E.07867
G1 X198.141 Y131.24 E.08375
G1 X199.229 Y131.484 E.0498
G1 X201.021 Y132.037 E.08375
G1 X202.591 Y132.687 E.07585
G1 X204.249 Y133.563 E.08375
G1 X205.191 Y134.16 E.0498
G1 X206.692 Y135.284 E.08375
G1 X207.95 Y136.424 E.07584
G1 X209.216 Y137.808 E.08375
G1 X209.902 Y138.687 E.0498
G1 X210.937 Y140.251 E.08375
G1 X211.813 Y141.909 E.08375
G1 X212.463 Y143.479 E.07585
G1 X212.813 Y144.537 E.0498
G1 X213.26 Y146.359 E.08375
G1 X213.527 Y148.215 E.08375
G1 X213.611 Y150 E.0798
G1 X213.611 Y181 E1.38441
G1 X213.51 Y182.245 E.05578
G1 X213.203 Y184.076 E.0829
G1 X212.72 Y185.868 E.0829
G1 X212.064 Y187.605 E.0829
G1 X211.244 Y189.27 E.0829
G1 X210.266 Y190.848 E.0829
G1 X209.251 Y192.188 E.07508
G1 X208.017 Y193.541 E.08178
G1 X206.62 Y194.802 E.08402
G1 X205.746 Y195.475 E.04929
G1 X204.191 Y196.49 E.0829
G1 X201.694 Y197.718 E.12429
G1 X199.941 Y198.329 E.0829
G1 X198.309 Y198.733 E.07507
G1 X195.548 Y199.083 E.12429
G1 X134.627 Y199.092 E2.72063
G1 X132.605 Y198.895 E.09073
G1 X130.785 Y198.528 E.0829
G1 X128.306 Y197.718 E.11648
G1 X126.621 Y196.939 E.0829
G1 X125.019 Y196.001 E.0829
G1 X123.516 Y194.912 E.0829
G1 X122.126 Y193.682 E.0829
G1 X120.749 Y192.188 E.09073
G1 X119.134 Y189.921 E.12429
G1 X117.867 Y187.443 E.12429
G1 X116.972 Y184.808 E.12429
G1 X116.47 Y182.071 E.12429
G1 X116.389 Y181 E.04795
G1 X116.409 Y149.151 E1.42233
G1 X116.584 Y147.284 E.08375
G1 X116.941 Y145.443 E.08375
G1 X117.477 Y143.645 E.08375
G1 X118.263 Y141.749 E.09166
G1 X119.154 Y140.099 E.08375
G1 X120.203 Y138.545 E.08375
G1 X121.924 Y136.55 E.11767
G1 X123.246 Y135.341 E.07999
G1 X123.608 Y135.737 F48000
G1 F3000
G1 X123.659 Y135.691 E.00308
G1 X125.119 Y134.599 E.0814
G1 X126.016 Y134.03 E.04745
G1 X128.462 Y132.812 E.12204
G1 X130.181 Y132.205 E.0814
G1 X131.803 Y131.798 E.07467
G1 X134.513 Y131.453 E.12204
G1 X194.525 Y131.426 E2.68004
G1 X196.245 Y131.509 E.0769
G1 X198.049 Y131.769 E.0814
G1 X199.086 Y132.002 E.04745
G1 X200.828 Y132.538 E.0814
G1 X202.373 Y133.178 E.07467
G1 X203.984 Y134.03 E.0814
G1 X204.881 Y134.599 E.04745
G1 X206.341 Y135.691 E.0814
G1 X207.58 Y136.813 E.07467
G1 X208.809 Y138.159 E.0814
G1 X209.463 Y138.997 E.04745
G1 X210.47 Y140.516 E.0814
G1 X211.322 Y142.127 E.0814
G1 X211.962 Y143.672 E.07467
G1 X212.295 Y144.681 E.04745
G1 X212.731 Y146.451 E.0814
G1 X212.991 Y148.255 E.0814
G1 X213.074 Y150 E.07804
G1 X213.074 Y181 E1.38441
G1 X212.978 Y182.171 E.05248
G1 X212.681 Y183.951 E.08057
G1 X212.212 Y185.693 E.08057
G1 X211.576 Y187.381 E.08057
G1 X210.779 Y189 E.08057
G1 X209.83 Y190.534 E.08057
M73 P1 R25
G1 X208.735 Y191.969 E.08057
G1 X207.528 Y193.269 E.07924
G1 X206.272 Y194.392 E.07524
G1 X205.439 Y195.034 E.04696
G1 X203.929 Y196.021 E.08057
G1 X201.502 Y197.216 E.1208
G1 X199.799 Y197.811 E.08057
G1 X198.193 Y198.209 E.07391
G1 X195.509 Y198.548 E.1208
G1 X134.64 Y198.555 E2.7183
G1 X132.696 Y198.365 E.08723
G1 X130.927 Y198.01 E.08057
G1 X128.498 Y197.216 E.11415
G1 X126.86 Y196.459 E.08057
G1 X125.179 Y195.464 E.08723
G1 X123.728 Y194.392 E.08057
G1 X122.387 Y193.185 E.08057
G1 X121.169 Y191.854 E.08057
G1 X119.599 Y189.651 E.1208
G1 X118.365 Y187.244 E.1208
G1 X117.494 Y184.683 E.1208
G1 X117.005 Y182.023 E.1208
G1 X116.926 Y181 E.04582
G1 X116.945 Y149.164 E1.42174
G1 X117.139 Y147.2 E.08813
G1 X117.502 Y145.414 E.0814
G1 X118.038 Y143.672 E.0814
G1 X118.742 Y141.991 E.0814
G1 X119.608 Y140.387 E.0814
G1 X120.627 Y138.875 E.0814
G1 X122.313 Y136.92 E.11532
G1 X123.571 Y135.771 E.07609
G1 X123.934 Y136.173 F48000
G1 F3000
G1 X124.106 Y136.018 E.01036
G1 X126.281 Y134.498 E.11851
G1 X128.655 Y133.313 E.11851
G1 X130.205 Y132.758 E.07349
G1 X131.92 Y132.322 E.07904
G1 X134.553 Y131.988 E.11851
G1 X194.525 Y131.964 E2.67828
M73 P1 R24
G1 X196.206 Y132.044 E.07514
G1 X197.958 Y132.298 E.07905
G1 X200.635 Y133.039 E.12405
G1 X202.155 Y133.669 E.07349
G1 X203.719 Y134.498 E.07905
G1 X205.99 Y136.097 E.12405
G1 X207.21 Y137.202 E.07349
G1 X208.403 Y138.51 E.07905
G1 X210.002 Y140.781 E.12405
G1 X210.831 Y142.345 E.07905
G1 X211.461 Y143.865 E.07349
G1 X212.202 Y146.542 E.12405
G1 X212.456 Y148.294 E.07905
G1 X212.537 Y150 E.07627
G1 X212.537 Y181 E1.38441
G1 X212.446 Y182.098 E.04919
G1 X212.158 Y183.826 E.07824
G1 X211.704 Y185.518 E.07824
G1 X211.088 Y187.158 E.07824
G1 X210.315 Y188.73 E.07824
G1 X209.393 Y190.221 E.07824
G1 X208.332 Y191.614 E.07824
G1 X207.16 Y192.878 E.07694
G1 X205.925 Y193.983 E.07404
G1 X203.667 Y195.552 E.12279
G1 X201.311 Y196.714 E.11731
G1 X199.775 Y197.258 E.07274
G1 X198.076 Y197.685 E.07824
G1 X195.47 Y198.012 E.11731
G1 X134.653 Y198.018 E2.71597
G1 X132.787 Y197.836 E.08374
G1 X131.069 Y197.492 E.07824
G1 X128.689 Y196.714 E.11182
G1 X127.099 Y195.978 E.07824
G1 X125.589 Y195.09 E.07824
G1 X124.075 Y193.983 E.08374
G1 X122.772 Y192.812 E.07824
G1 X121.589 Y191.52 E.07824
G1 X120.063 Y189.382 E.11731
G1 X118.864 Y187.045 E.11731
G1 X118.017 Y184.558 E.1173
G1 X117.54 Y181.975 E.11731
G1 X117.463 Y181 E.04369
G1 X117.482 Y149.177 E1.42115
G1 X117.668 Y147.292 E.0846
G1 X118.019 Y145.557 E.07904
G1 X118.539 Y143.865 E.07905
G1 X119.564 Y141.553 E.11296
G1 X120.469 Y140.031 E.07905
G1 X121.518 Y138.606 E.07905
G1 X122.79 Y137.202 E.0846
G1 X123.896 Y136.207 E.06645
; printing object TRStandodd.stl id:0 copy 0
G1 E-.4 F4200
EXCLUDE_OBJECT_START NAME=TRStandodd.stl_id_0_copy_0
G1 X208.534 Y180.953 F48000
G1 E.4 F4200
;TYPE:Inner wall
;WIDTH:0.579999
G1 F7200
G3 X208.478 Y181.585 I-5.066 J-.133 E.02835
G3 X194.515 Y194.036 I-13.955 J-1.594 E.91431
G1 X135.485 Y194.036 E2.63614
G3 X121.466 Y180.953 I-.007 J-14.045 E.94259
G3 X135.518 Y166.964 I14.039 J.05 E.98317
G1 X194.507 Y166.965 E2.63437
G3 X208.522 Y180.439 I-.014 J14.04 E.95897
G3 X208.534 Y180.943 I-5.053 J.381 E.02253
G1 X209.072 Y180.97 F48000
G1 F7200
G3 X209.012 Y181.645 I-5.392 J-.14 E.03029
G3 X194.521 Y194.573 I-14.485 J-1.651 E.94904
G1 X135.479 Y194.573 E2.63672
G3 X120.928 Y180.97 I0 J-14.584 E.97921
G3 X135.511 Y166.427 I14.578 J.035 E1.02132
G1 X194.514 Y166.428 E2.63496
G3 X209.059 Y180.426 I-.021 J14.577 E.99576
G3 X209.072 Y180.96 I-5.379 J.404 E.02389
G1 X209.61 Y180.987 F48000
;TYPE:Outer wall
G1 F7200
G3 X209.546 Y181.706 I-5.718 J-.147 E.03224
G3 X194.528 Y195.11 I-15.016 J-1.709 E.98376
G1 X135.472 Y195.11 E2.6373
G3 X120.39 Y180.987 I.007 J-15.122 E1.01583
G3 X135.505 Y165.89 I15.112 J.015 E1.05955
G1 X194.521 Y165.891 E2.63554
G3 X209.595 Y180.412 I-.027 J15.114 E1.03256
G3 X209.61 Y180.977 I-5.704 J.428 E.02525
G1 E-.4 F4200
G1 X194.849 Y177.382 F48000
G1 E.4 F4200
;TYPE:Inner wall
G1 F7200
G1 X195.194 Y177.382 E.0154
G3 X197.541 Y182.33 I-.207 J3.128 E.29736
G1 X197.28 Y182.646 E.01831
G1 X196.87 Y183.011 E.0245
G1 X196.526 Y183.234 E.01831
G1 X196.025 Y183.458 E.0245
G1 X195.63 Y183.567 E.01831
G1 X195.085 Y183.63 E.0245
G3 X193.764 Y183.375 I.025 J-3.69 E.06044
G1 X193.273 Y183.111 E.02488
G1 X192.943 Y182.86 E.01852
G1 X192.563 Y182.465 E.0245
G1 X192.327 Y182.13 E.01831
G1 X192.083 Y181.638 E.0245
G1 X191.96 Y181.247 E.01831
G1 X191.876 Y180.705 E.0245
G1 X191.876 Y180.295 E.01831
G1 X191.96 Y179.753 E.0245
G1 X192.083 Y179.362 E.01831
G1 X192.327 Y178.87 E.0245
G1 X192.563 Y178.535 E.01831
G1 X192.943 Y178.14 E.0245
G1 X193.269 Y177.891 E.01831
G1 X193.751 Y177.629 E.0245
G3 X194.666 Y177.392 I1.236 J2.881 E.04236
G1 X194.839 Y177.382 E.00775
G1 X194.883 Y177.914 F48000
G1 F7200
G1 X195.279 Y177.912 E.01771
G1 X195.949 Y178.083 E.03085
G1 X196.173 Y178.184 E.01099
G1 X196.634 Y178.482 E.0245
G1 X196.817 Y178.646 E.01098
G1 X197.166 Y179.069 E.0245
G3 X197.561 Y180.138 I-2.214 J1.426 E.05132
G1 X197.597 Y180.656 E.02316
G1 X197.451 Y181.355 E.03191
G3 X197.079 Y182.055 I-4.397 J-1.891 E.03544
G1 X196.922 Y182.245 E.01098
G1 X196.513 Y182.61 E.0245
