; HEADER_BLOCK_START
; generated by OrcaSlicer 1.6.3 on 2023-11-18 at 23:06:24
; total layer number: 37
; HEADER_BLOCK_END

; THUMBNAIL_BLOCK_START
; THUMBNAIL_BLOCK_END

; external perimeters extrusion width = 0.62mm
; perimeters extrusion width = 0.62mm
; infill extrusion width = 0.65mm
; solid infill extrusion width = 0.65mm
; top infill extrusion width = 0.65mm
; first layer extrusion width = 0.68mm

; EXECUTABLE_BLOCK_START
EXCLUDE_OBJECT_DEFINE NAME=Upper_Tube_id_0_copy_0 CENTER=165,189 POLYGON=[[118.5,186],[119.5,185],[127.7,181.5],[202.3,181.5],[210.5,185],[211.5,186],[211.5,192],[210.5,193],[202.3,196.5],[127.7,196.5],[119.5,193],[118.5,192],[118.5,186]]
M73 P0 R4
;TYPE:Custom
M104 S0
M140 S0
START_PRINT BED=75 HOTEND=200
G90
G21
M83 ; use relative distances for extrusion
; filament start gcode
SET_PRESSURE_ADVANCE ADVANCE=0.032; Override pressure advance value
M106 S0
;LAYER_CHANGE
;Z:0.2
;HEIGHT:0.2
;BEFORE_LAYER_CHANGE
;0.2
G92 E0

;DSLR_SNAPSHOT
TIMELAPSE_TAKE_FRAME
M204 S10000
G1 E-.4 F4200
G1 X118.464 Y182.58 F36000
G1 Z.2
G1 E.4 F4200
;TYPE:Skirt
;WIDTH:0.68
G1 F7200
G1 X126.664 Y179.078 E.42509
G1 X127.7 Y178.866 E.05039
G1 X202.3 Y178.866 E3.55663
G1 X203.336 Y179.078 E.05039
G1 X211.536 Y182.58 E.42509
G1 X212.365 Y183.141 E.04777
G1 X213.365 Y184.142 E.06745
G1 X214.137 Y186.006 E.09618
G1 X214.137 Y191.994 E.28552
G1 X213.365 Y193.858 E.09618
G1 X212.365 Y194.859 E.06745
G1 X211.536 Y195.421 E.04777
G1 X203.336 Y198.922 E.42509
G1 X202.3 Y199.134 E.05039
G1 X127.7 Y199.134 E3.55663
G1 X126.664 Y198.922 E.05039
G1 X118.464 Y195.421 E.42509
G1 X117.635 Y194.859 E.04777
G1 X116.635 Y193.858 E.06745
G1 X115.863 Y191.994 E.09618
G1 X115.863 Y186.006 E.28552
G1 X116.635 Y184.142 E.09618
G1 X117.635 Y183.141 E.06745
G1 X118.39 Y182.63 E.04348
; printing object Upper Tube id:0 copy 0
EXCLUDE_OBJECT_START NAME=Upper_Tube_id_0_copy_0
G1 E-.4 F4200
G1 X201.212 Y184.876 F36000
M73 P1 R4
G1 E.4 F4200
;TYPE:Inner wall
;WIDTH:0.679999
G1 F7200
G1 X201.421 Y185.027 E.01233
G1 X201.893 Y185.187 E.02373
G1 X201.928 Y185.488 E.01447
G1 X202.09 Y185.906 E.02138
G1 X202.372 Y186.272 E.02201
G1 X202.68 Y186.504 E.01839
G1 X203.176 Y186.69 E.02528
G1 X203.479 Y186.719 E.01447
G1 X209.786 Y186.719 E.30071
G1 X209.786 Y191.281 E.21751
G1 X203.479 Y191.281 E.30071
G1 X203.34 Y191.287 E.00662
G1 X202.904 Y191.388 E.0213
G1 X202.505 Y191.614 E.02188
G1 X202.198 Y191.927 E.0209
G1 X201.984 Y192.324 E.02152
G1 X201.893 Y192.813 E.02373
G1 X201.421 Y192.973 E.02373
G1 X201.151 Y193.157 E.0156
G1 X200.811 Y193.558 E.02503
G1 X200.665 Y193.877 E.01675
G2 X200.586 Y194.782 I2.788 J.701 E.0435
G1 X129.414 Y194.782 E3.39318
G2 X129.335 Y193.877 I-2.867 J-.204 E.0435
G1 X129.189 Y193.558 E.01675
G1 X128.912 Y193.214 E.02104
G1 X128.579 Y192.973 E.01961
G1 X128.107 Y192.813 E.02373
G1 X128.072 Y192.512 E.01447
G1 X127.91 Y192.094 E.02138
G1 X127.628 Y191.728 E.02201
G1 X127.32 Y191.496 E.01839
G1 X126.824 Y191.31 E.02528
G1 X126.521 Y191.281 E.01447
G1 X120.214 Y191.281 E.30071
G1 X120.214 Y186.719 E.21751
G1 X126.521 Y186.719 E.30071
G2 X127.096 Y186.612 I0 J-1.593 E.028
G1 X127.495 Y186.386 E.02188
G1 X127.802 Y186.073 E.0209
G1 X128.016 Y185.676 E.02152
G1 X128.107 Y185.187 E.02373
G1 X128.579 Y185.027 E.02373
G1 X128.849 Y184.843 E.0156
G1 X129.189 Y184.442 E.02503
G1 X129.335 Y184.123 E.01675
G2 X129.414 Y183.218 I-2.788 J-.701 E.0435
G1 X200.586 Y183.218 E3.39318
G2 X200.665 Y184.123 I2.867 J.204 E.0435
G1 X200.811 Y184.442 E.01675
G1 X201.088 Y184.786 E.02104
G1 X201.202 Y184.869 E.00671
G1 X201.575 Y184.353 F36000
G1 F7200
G1 X201.663 Y184.43 E.00557
G1 X202.042 Y184.571 E.01931
G1 X202.523 Y184.581 E.02292
G1 X202.523 Y185.126 E.02598
G1 X202.609 Y185.522 E.01931
G1 X202.815 Y185.814 E.01702
G1 X203.134 Y186.018 E.01808
G1 X203.479 Y186.082 E.01671
G1 X210.054 Y186.082 E.31347
G1 X210.423 Y186.452 E.02491
G1 X210.423 Y186.713 E.01245
G1 X210.423 Y191.549 E.23056
G1 X210.054 Y191.918 E.02491
G1 X203.479 Y191.918 E.31347
G1 X203.134 Y191.982 E.01671
G1 X202.815 Y192.187 E.01808
G1 X202.609 Y192.478 E.01702
G1 X202.523 Y192.874 E.01931
G1 X202.523 Y193.419 E.02598
G1 X202.042 Y193.429 E.02292
G1 X201.724 Y193.534 E.01597
G1 X201.446 Y193.76 E.01711
G1 X201.271 Y194.076 E.01722
G1 X201.223 Y194.374 E.0144
G1 X201.223 Y195.419 E.04982
M73 P2 R4
G1 X128.777 Y195.419 E3.45393
G1 X128.777 Y194.374 E.04982
G1 X128.729 Y194.076 E.0144
G1 X128.554 Y193.76 E.01722
G1 X128.337 Y193.57 E.01376
G1 X127.958 Y193.429 E.01931
G1 X127.477 Y193.419 E.02292
G1 X127.477 Y192.874 E.02598
G1 X127.391 Y192.478 E.01931
G1 X127.185 Y192.187 E.01702
G1 X126.866 Y191.982 E.01808
G1 X126.521 Y191.918 E.01671
G1 X119.946 Y191.918 E.31347
G1 X119.577 Y191.549 E.02491
G1 X119.577 Y186.452 E.24301
G1 X119.946 Y186.082 E.02491
G1 X126.521 Y186.082 E.31347
G1 X126.866 Y186.018 E.01671
G1 X127.185 Y185.814 E.01808
G1 X127.391 Y185.522 E.01702
G1 X127.477 Y185.126 E.01931
G1 X127.477 Y184.581 E.02598
G1 X127.958 Y184.571 E.02292
G1 X128.276 Y184.466 E.01597
G1 X128.554 Y184.24 E.01711
G1 X128.729 Y183.924 E.01722
G1 X128.777 Y183.626 E.0144
G1 X128.777 Y182.581 E.04982
G1 X201.223 Y182.581 E3.45393
G1 X201.223 Y183.626 E.04982
G1 X201.271 Y183.924 E.0144
G1 X201.446 Y184.24 E.01722
G1 X201.566 Y184.345 E.00762
G1 X201.973 Y183.869 F36000
;TYPE:Outer wall
G1 F7200
G1 X202.179 Y183.944 E.01043
G1 X203.16 Y183.944 E.04679
G1 X203.168 Y185.199 E.05981
G1 X203.284 Y185.378 E.01018
G1 X203.479 Y185.445 E.00981
G1 X210.318 Y185.445 E.32606
G1 X211.06 Y186.188 E.05007
G1 X211.06 Y186.713 E.02502
G1 X211.06 Y191.812 E.24313
G1 X210.318 Y192.555 E.05007
G1 X203.479 Y192.555 E.32606
G1 X203.364 Y192.577 E.00557
G1 X203.222 Y192.684 E.00847
G1 X203.16 Y192.874 E.00951
G1 X203.16 Y194.056 E.05636
G1 X202.063 Y194.078 E.05233
G1 X201.934 Y194.17 E.00753
G1 X201.86 Y194.374 E.01038
G1 X201.86 Y196.057 E.0802
G1 X128.14 Y196.057 E3.51468
M73 P3 R4
G1 X128.14 Y194.374 E.0802
G1 X128.124 Y194.275 E.0048
G1 X128.027 Y194.131 E.00828
G1 X127.821 Y194.056 E.01043
G1 X126.84 Y194.056 E.04679
G1 X126.832 Y192.801 E.05981
G1 X126.716 Y192.622 E.01018
G1 X126.521 Y192.555 E.00981
G1 X119.682 Y192.555 E.32606
G1 X118.94 Y191.812 E.05007
G1 X118.94 Y186.188 E.26815
G1 X119.682 Y185.445 E.05007
G1 X126.521 Y185.445 E.32606
G1 X126.636 Y185.423 E.00557
G1 X126.778 Y185.316 E.00847
G1 X126.84 Y185.126 E.00951
G1 X126.84 Y183.944 E.05636
G1 X127.937 Y183.922 E.05233
G1 X128.066 Y183.83 E.00753
G1 X128.14 Y183.626 E.01038
G1 X128.14 Y181.943 E.0802
G1 X201.86 Y181.943 E3.51468
G1 X201.86 Y183.626 E.0802
G1 X201.876 Y183.725 E.0048
G1 X201.966 Y183.859 E.00771
G1 X201.969 Y183.913
G1 E-.4 F4200
G1 X201.966 Y184.46 F36000
G1 X202.644 Y185.96
G1 X209.595 Y188.208
G1 E.4 F4200
;TYPE:Bottom surface
;WIDTH:0.684786
G1 F7200
G1 X208.583 Y187.197 E.0687
G1 X207.676 Y187.197 E.0436
G1 X209.308 Y188.829 E.11089
G1 X209.308 Y189.737 E.0436
G1 X206.768 Y187.197 E.17255
G1 X205.86 Y187.197 E.0436
G1 X209.308 Y190.645 E.23421
G1 X209.308 Y190.803 E.00763
G1 X208.559 Y190.803 E.03598
G1 X204.953 Y187.197 E.245
G1 X204.045 Y187.197 E.0436
G1 X207.651 Y190.803 E.245
G1 X206.744 Y190.803 E.0436
G1 X203.086 Y187.16 E.24798
G3 X201.457 Y185.564 I.418 J-2.056 E.11581
G1 X201.426 Y185.556 E.00155
G3 X200.209 Y184.269 I.806 J-1.982 E.08773
G1 X199.636 Y183.695 E.03894
G1 X198.728 Y183.695 E.0436
G1 X205.836 Y190.803 E.48284
G1 X204.928 Y190.803 E.0436
G1 X197.82 Y183.695 E.48284
G1 X196.913 Y183.695 E.0436
G1 X204.02 Y190.803 E.48284
G2 X203.144 Y190.835 I-.275 J4.594 E.04219
G1 X196.005 Y183.695 E.48497
G1 X195.097 Y183.695 E.0436
G1 X202.47 Y191.068 E.50081
G2 X201.964 Y191.47 I1.122 J1.929 E.03114
G1 X194.189 Y183.695 E.52813
G1 X193.282 Y183.695 E.0436
G1 X201.597 Y192.01 E.56485
M73 P4 R4
G1 X201.457 Y192.436 E.02152
G2 X201.225 Y192.547 I.139 J.591 E.01244
G1 X192.374 Y183.695 E.60128
G1 X191.466 Y183.695 E.0436
G1 X200.702 Y192.931 E.6274
G2 X200.33 Y193.467 I1.352 J1.337 E.03148
G1 X190.558 Y183.695 E.66377
G1 X189.651 Y183.695 E.0436
G1 X200.137 Y194.182 E.71234
G1 X200.117 Y194.305 E.00598
G1 X199.352 Y194.305 E.03675
G1 X188.743 Y183.695 E.72068
G1 X187.835 Y183.695 E.0436
G1 X198.444 Y194.305 E.72068
G1 X197.537 Y194.305 E.0436
G1 X186.927 Y183.695 E.72068
G1 X186.02 Y183.695 E.0436
G1 X196.629 Y194.305 E.72068
G1 X195.721 Y194.305 E.0436
G1 X185.112 Y183.695 E.72068
G1 X184.204 Y183.695 E.0436
G1 X194.813 Y194.305 E.72068
G1 X193.906 Y194.305 E.0436
G1 X183.297 Y183.695 E.72068
G1 X182.389 Y183.695 E.0436
G1 X192.998 Y194.305 E.72068
G1 X192.09 Y194.305 E.0436
G1 X181.481 Y183.695 E.72068
G1 X180.573 Y183.695 E.0436
G1 X191.182 Y194.305 E.72068
G1 X190.275 Y194.305 E.0436
G1 X179.666 Y183.695 E.72068
G1 X178.758 Y183.695 E.0436
G1 X189.367 Y194.305 E.72068
G1 X188.459 Y194.305 E.0436
G1 X177.85 Y183.695 E.72068
G1 X176.942 Y183.695 E.0436
G1 X187.551 Y194.305 E.72068
M73 P5 R4
G1 X186.644 Y194.305 E.0436
G1 X176.035 Y183.695 E.72068
G1 X175.127 Y183.695 E.0436
G1 X185.736 Y194.305 E.72068
G1 X184.828 Y194.305 E.0436
G1 X174.219 Y183.695 E.72068
G1 X173.311 Y183.695 E.0436
G1 X183.921 Y194.305 E.72068
G1 X183.013 Y194.305 E.0436
G1 X172.404 Y183.695 E.72068
G1 X171.496 Y183.695 E.0436
G1 X182.105 Y194.305 E.72068
G1 X181.197 Y194.305 E.0436
G1 X170.588 Y183.695 E.72068
G1 X169.68 Y183.695 E.0436
G1 X180.29 Y194.305 E.72068
G1 X179.382 Y194.305 E.0436
G1 X168.773 Y183.695 E.72068
G1 X167.865 Y183.695 E.0436
G1 X178.474 Y194.305 E.72068
G1 X177.566 Y194.305 E.0436
G1 X166.957 Y183.695 E.72068
G1 X166.05 Y183.695 E.0436
G1 X176.659 Y194.305 E.72068
G1 X175.751 Y194.305 E.0436
G1 X165.142 Y183.695 E.72068
G1 X164.234 Y183.695 E.0436
G1 X174.843 Y194.305 E.72068
G1 X173.935 Y194.305 E.0436
G1 X163.326 Y183.695 E.72068
G1 X162.419 Y183.695 E.0436
G1 X173.028 Y194.305 E.72068
G1 X172.12 Y194.305 E.0436
G1 X161.511 Y183.695 E.72068
M73 P6 R4
G1 X160.603 Y183.695 E.0436
G1 X171.212 Y194.305 E.72068
G1 X170.304 Y194.305 E.0436
G1 X159.695 Y183.695 E.72068
G1 X158.788 Y183.695 E.0436
G1 X169.397 Y194.305 E.72068
G1 X168.489 Y194.305 E.0436
G1 X157.88 Y183.695 E.72068
G1 X156.972 Y183.695 E.0436
G1 X167.581 Y194.305 E.72068
G1 X166.674 Y194.305 E.0436
G1 X156.064 Y183.695 E.72068
G1 X155.157 Y183.695 E.0436
G1 X165.766 Y194.305 E.72068
G1 X164.858 Y194.305 E.0436
G1 X154.249 Y183.695 E.72068
G1 X153.341 Y183.695 E.0436
G1 X163.95 Y194.305 E.72068
G1 X163.043 Y194.305 E.0436
G1 X152.433 Y183.695 E.72068
G1 X151.526 Y183.695 E.0436
G1 X162.135 Y194.305 E.72068
G1 X161.227 Y194.305 E.0436
G1 X150.618 Y183.695 E.72068
G1 X149.71 Y183.695 E.0436
G1 X160.319 Y194.305 E.72068
G1 X159.412 Y194.305 E.0436
G1 X148.803 Y183.695 E.72068
G1 X147.895 Y183.695 E.0436
G1 X158.504 Y194.305 E.72068
G1 X157.596 Y194.305 E.0436
G1 X146.987 Y183.695 E.72068
G1 X146.079 Y183.695 E.0436
G1 X156.688 Y194.305 E.72068
G1 X155.781 Y194.305 E.0436
G1 X145.172 Y183.695 E.72068
M73 P7 R4
G1 X144.264 Y183.695 E.0436
G1 X154.873 Y194.305 E.72068
G1 X153.965 Y194.305 E.0436
G1 X143.356 Y183.695 E.72068
G1 X142.448 Y183.695 E.0436
G1 X153.058 Y194.305 E.72068
G1 X152.15 Y194.305 E.0436
G1 X141.541 Y183.695 E.72068
G1 X140.633 Y183.695 E.0436
G1 X151.242 Y194.305 E.72068
G1 X150.334 Y194.305 E.0436
G1 X139.725 Y183.695 E.72068
G1 X138.817 Y183.695 E.0436
G1 X149.427 Y194.305 E.72068
G1 X148.519 Y194.305 E.0436
G1 X137.91 Y183.695 E.72068
G1 X137.002 Y183.695 E.0436
G1 X147.611 Y194.305 E.72068
G1 X146.703 Y194.305 E.0436
G1 X136.094 Y183.695 E.72068
G1 X135.187 Y183.695 E.0436
G1 X145.796 Y194.305 E.72068
G1 X144.888 Y194.305 E.0436
G1 X134.279 Y183.695 E.72068
G1 X133.371 Y183.695 E.0436
G1 X143.98 Y194.305 E.72068
G1 X143.072 Y194.305 E.0436
G1 X132.463 Y183.695 E.72068
G1 X131.556 Y183.695 E.0436
G1 X142.165 Y194.305 E.72068
G1 X141.257 Y194.305 E.0436
G1 X130.648 Y183.695 E.72068
G1 X129.883 Y183.695 E.03675
G1 X129.863 Y183.818 E.00598
G1 X140.349 Y194.305 E.71233
M73 P8 R4
G1 X139.441 Y194.305 E.0436
G1 X129.67 Y184.533 E.66376
G3 X129.298 Y185.069 I-1.724 J-.802 E.03148
G1 X138.534 Y194.305 E.62739
G1 X137.626 Y194.305 E.0436
G1 X128.775 Y185.453 E.60128
G3 X128.543 Y185.564 I-.371 J-.48 E.01244
G1 X128.403 Y185.99 E.02152
G1 X136.718 Y194.305 E.56484
G1 X135.811 Y194.305 E.0436
G1 X128.036 Y186.53 E.52812
G3 X127.53 Y186.932 I-1.627 J-1.527 E.03114
G1 X134.903 Y194.305 E.50081
G1 X133.995 Y194.305 E.0436
G1 X126.856 Y187.165 E.48496
G3 X125.98 Y187.197 I-.602 J-4.563 E.04219
G1 X133.087 Y194.305 E.48284
G1 X132.18 Y194.305 E.0436
G1 X125.072 Y187.197 E.48284
G1 X124.164 Y187.197 E.0436
G1 X131.272 Y194.305 E.48284
G1 X130.364 Y194.305 E.0436
G1 X129.791 Y193.732 E.03893
G1 X129.601 Y193.314 E.02202
G2 X128.543 Y192.436 I-1.824 J1.121 E.06724
G1 X128.539 Y192.404 E.00154
G2 X126.898 Y190.839 I-2.017 J.471 E.11528
G1 X123.256 Y187.197 E.2474
G1 X122.349 Y187.197 E.0436
G1 X125.955 Y190.803 E.245
G1 X125.047 Y190.803 E.0436
G1 X121.441 Y187.197 E.245
G1 X120.692 Y187.197 E.03597
G1 X120.692 Y187.356 E.00763
G1 X124.14 Y190.803 E.2342
G1 X123.232 Y190.803 E.0436
G1 X120.692 Y188.263 E.17254
G1 X120.692 Y189.171 E.0436
G1 X122.324 Y190.803 E.11088
G1 X121.416 Y190.803 E.0436
G1 X120.405 Y189.792 E.06869
; stop printing object Upper Tube id:0 copy 0
EXCLUDE_OBJECT_END NAME=Upper_Tube_id_0_copy_0
M106 S252
;LAYER_CHANGE
;Z:0.4
;HEIGHT:0.2
;BEFORE_LAYER_CHANGE
;0.4
G92 E0

;DSLR_SNAPSHOT
TIMELAPSE_TAKE_FRAME
M204 S15000
M140 S75 ; set bed temperature
; printing object Upper Tube id:0 copy 0
EXCLUDE_OBJECT_START NAME=Upper_Tube_id_0_copy_0
M204 S20000
G1 E-.4 F4200
G1 X200.836 Y183.371 Z.4 F36000
G1 E.4 F4200
M204 S15000
;TYPE:Inner wall
;WIDTH:0.619999
G1 F18000
G1 X200.836 Y183.534 E.00704
G1 X200.909 Y183.988 E.01988
G1 X201.043 Y184.279 E.01382
G1 X201.344 Y184.633 E.02007
G1 X201.748 Y184.875 E.02033
G1 X202.136 Y184.966 E.01721
G1 X202.175 Y185.369 E.01745
G1 X202.268 Y185.638 E.01231
G1 X202.488 Y185.981 E.0176
G1 X202.858 Y186.285 E.02068
G1 X203.306 Y186.453 E.02067
G1 X203.579 Y186.478 E.01182
G1 X209.892 Y186.478 E.27267
G1 X210.036 Y186.622 E.00877
G1 X210.036 Y186.724 E.00438
G1 X210.036 Y191.378 E.201
G1 X209.892 Y191.522 E.00877
G1 X203.579 Y191.522 E.27267
G1 X203.306 Y191.548 E.01182
G1 X202.858 Y191.715 E.02067
G2 X202.357 Y192.197 I.721 J1.25 E.03034
G1 X202.175 Y192.631 E.02033
G1 X202.136 Y193.034 E.01745
G1 X201.748 Y193.125 E.01721
G1 X201.366 Y193.348 E.01911
G1 X201.043 Y193.721 E.0213
G1 X200.909 Y194.012 E.01382
G1 X200.836 Y194.466 E.01988
G1 X200.836 Y195.025 E.02415
G1 X129.164 Y195.025 E3.09521
G1 X129.164 Y194.466 E.02415
G1 X129.091 Y194.012 E.01988
G1 X128.957 Y193.721 E.01382
G1 X128.656 Y193.367 E.02007
G1 X128.252 Y193.125 E.02033
M73 P9 R4
G1 X127.864 Y193.034 E.01721
G1 X127.774 Y192.461 E.02504
G1 X127.579 Y192.104 E.01755
G1 X127.301 Y191.821 E.01715
G1 X126.939 Y191.618 E.01791
G1 X126.421 Y191.522 E.02274
G1 X120.108 Y191.522 E.27267
G1 X119.964 Y191.378 E.00877
G1 X119.964 Y186.622 E.20537
G1 X120.108 Y186.478 E.00877
G1 X126.421 Y186.478 E.27267
G1 X126.694 Y186.453 E.01182
G1 X127.142 Y186.285 E.02067
G2 X127.643 Y185.803 I-.721 J-1.25 E.03034
G1 X127.825 Y185.369 E.02033
G1 X127.864 Y184.966 E.01745
G1 X128.252 Y184.875 E.01721
G1 X128.634 Y184.652 E.01911
G1 X128.957 Y184.279 E.0213
G1 X129.091 Y183.988 E.01382
G1 X129.164 Y183.534 E.01988
G1 X129.164 Y182.975 E.02415
G1 X200.836 Y182.975 E3.09521
G1 X200.836 Y183.359 E.0166
M204 S20000
G1 X201.422 Y183.588 F36000
M204 S15000
G1 F18000
G1 X201.457 Y183.807 E.00954
G1 X201.618 Y184.093 E.01419
G1 X201.808 Y184.26 E.01094
G1 X202.154 Y184.391 E.01598
G1 X202.713 Y184.4 E.02412
G1 X202.713 Y185.036 E.02748
G1 X202.792 Y185.397 E.01598
G1 X202.979 Y185.66 E.01391
G1 X203.268 Y185.844 E.0148
G1 X203.579 Y185.901 E.01365
G1 X210.132 Y185.901 E.28301
G1 X210.613 Y186.384 E.02942
G1 X210.613 Y186.724 E.01468
G1 X210.613 Y191.616 E.2113
G1 X210.132 Y192.099 E.02942
G1 X203.579 Y192.099 E.28301
G1 X203.268 Y192.156 E.01365
G1 X202.979 Y192.34 E.0148
G1 X202.792 Y192.603 E.01391
G1 X202.713 Y192.964 E.01598
G1 X202.713 Y193.601 E.02748
