; HEADER_BLOCK_START
; generated by OrcaSlicer 1.8.1 on 2023-12-19 at 10:44:55
; total layer number: 37
; HEADER_BLOCK_END

; THUMBNAIL_BLOCK_START

;
; THUMBNAIL_BLOCK_END

; external perimeters extrusion width = 0.52mm
; perimeters extrusion width = 0.52mm
; infill extrusion width = 0.55mm
; solid infill extrusion width = 0.55mm
; top infill extrusion width = 0.55mm
; first layer extrusion width = 0.58mm

; external perimeters extrusion width = 0.52mm
; perimeters extrusion width = 0.52mm
; infill extrusion width = 0.55mm
; solid infill extrusion width = 0.55mm
; top infill extrusion width = 0.55mm
; first layer extrusion width = 0.58mm

; external perimeters extrusion width = 0.52mm
; perimeters extrusion width = 0.52mm
; infill extrusion width = 0.55mm
; solid infill extrusion width = 0.55mm
; top infill extrusion width = 0.55mm
; first layer extrusion width = 0.58mm

; external perimeters extrusion width = 0.52mm
; perimeters extrusion width = 0.52mm
; infill extrusion width = 0.55mm
; solid infill extrusion width = 0.55mm
; top infill extrusion width = 0.55mm
; first layer extrusion width = 0.58mm

; EXECUTABLE_BLOCK_START
EXCLUDE_OBJECT_DEFINE NAME=Upper_Tube_id_0_copy_0 CENTER=165,189 POLYGON=[[118.5,186],[119.5,185],[127.7,181.5],[202.3,181.5],[210.5,185],[211.5,186],[211.5,192],[210.5,193],[202.3,196.5],[127.7,196.5],[119.5,193],[118.5,192],[118.5,186]]
EXCLUDE_OBJECT_DEFINE NAME=Upper_Tube_id_1_copy_0 CENTER=165,173 POLYGON=[[118.5,170],[119.5,169],[127.7,165.5],[202.3,165.5],[210.5,169],[211.5,170],[211.5,176],[210.5,177],[202.3,180.5],[127.7,180.5],[119.5,177],[118.5,176],[118.5,170]]
EXCLUDE_OBJECT_DEFINE NAME=Upper_Tube_id_2_copy_0 CENTER=165,157 POLYGON=[[118.5,154],[119.5,153],[127.7,149.5],[202.3,149.5],[210.5,153],[211.5,154],[211.5,160],[210.5,161],[202.3,164.5],[127.7,164.5],[119.5,161],[118.5,160],[118.5,154]]
EXCLUDE_OBJECT_DEFINE NAME=Upper_Tube_id_3_copy_0 CENTER=165,141 POLYGON=[[118.5,138],[119.5,137],[127.7,133.5],[202.3,133.5],[210.5,137],[211.5,138],[211.5,144],[210.5,145],[202.3,148.5],[127.7,148.5],[119.5,145],[118.5,144],[118.5,138]]
M73 P0 R18
;TYPE:Custom
M104 S0
M140 S0
START_PRINT BED=75 HOTEND=225
G90
G21
M83 ; use relative distances for extrusion
; filament start gcode
SET_PRESSURE_ADVANCE ADVANCE=0.032; Override pressure advance value
M106 S0
;LAYER_CHANGE
;Z:0.2
;HEIGHT:0.2
;BEFORE_LAYER_CHANGE
;0.2
G92 E0

;DSLR_SNAPSHOT
TIMELAPSE_TAKE_FRAME
;_SET_FAN_SPEED_CHANGING_LAYER
SET_VELOCITY_LIMIT ACCEL=10000 ACCEL_TO_DECEL=5000
SET_VELOCITY_LIMIT SQUARE_CORNER_VELOCITY=10
G1 E-.4 F4200
G1 X116.565 Y134.073 F24000
G1 Z.2
G1 E.4 F4200
;TYPE:Skirt
;WIDTH:0.58
G1 F3000
G1 X117.871 Y133.19 E.06335
G1 X126.071 Y129.688 E.35837
G1 X127.7 Y129.355 E.06683
G1 X202.3 Y129.355 E2.99836
G1 X203.929 Y129.688 E.06683
G1 X212.129 Y133.19 E.35837
G1 X213.435 Y134.073 E.06335
G1 X214.435 Y135.074 E.05686
G1 X215.404 Y136.603 E.07278
G1 X215.648 Y138.006 E.05723
G1 X215.648 Y191.994 E2.16994
G1 X215.253 Y193.761 E.07278
G1 X214.435 Y194.926 E.05723
G1 X213.435 Y195.927 E.05687
G1 X212.129 Y196.81 E.06335
G1 X203.929 Y200.312 E.35836
G1 X202.3 Y200.645 E.06683
G1 X127.7 Y200.645 E2.99836
G1 X126.071 Y200.312 E.06683
G1 X117.871 Y196.81 E.35836
G1 X116.565 Y195.927 E.06335
G1 X115.565 Y194.926 E.05687
G1 X114.596 Y193.397 E.07278
G1 X114.352 Y191.994 E.05723
G1 X114.352 Y138.006 E2.16994
G1 X114.747 Y136.239 E.07278
G1 X115.565 Y135.074 E.05723
G1 X116.53 Y134.108 E.05486
G1 X116.91 Y134.488 F24000
G1 F3000
G1 X116.945 Y134.452 E.00201
G1 X118.082 Y133.684 E.05515
G1 X126.282 Y130.182 E.35837
G1 X127.7 Y129.892 E.05818
G1 X202.3 Y129.892 E2.99836
G1 X203.718 Y130.182 E.05818
G1 X211.918 Y133.684 E.35837
G1 X213.055 Y134.452 E.05515
G1 X214.055 Y135.453 E.05686
G1 X214.936 Y136.893 E.06784
G1 X215.111 Y138.006 E.04528
G1 X215.111 Y191.994 E2.16994
G1 X214.717 Y193.636 E.06784
G1 X214.055 Y194.547 E.04527
G1 X213.055 Y195.548 E.05687
G1 X211.918 Y196.316 E.05515
G1 X203.718 Y199.818 E.35836
G1 X202.3 Y200.108 E.05818
G1 X127.7 Y200.108 E2.99836
M73 P1 R17
G1 X126.282 Y199.818 E.05818
G1 X118.082 Y196.316 E.35836
G1 X116.945 Y195.548 E.05515
G1 X115.945 Y194.547 E.05687
G1 X115.064 Y193.107 E.06784
G1 X114.889 Y191.994 E.04527
G1 X114.889 Y138.006 E2.16994
G1 X115.283 Y136.364 E.06784
G1 X115.945 Y135.453 E.04528
G1 X116.875 Y134.523 E.05285
G1 X117.255 Y134.903 F24000
G1 F3000
G1 X117.325 Y134.832 E.00402
G1 X118.293 Y134.178 E.04695
G1 X126.493 Y130.676 E.35837
G1 X127.7 Y130.429 E.04952
G1 X202.3 Y130.429 E2.99836
G1 X203.507 Y130.676 E.04952
G1 X211.707 Y134.178 E.35837
G1 X212.675 Y134.832 E.04695
G1 X213.675 Y135.833 E.05686
G1 X214.46 Y137.175 E.06252
G1 X214.574 Y138.006 E.03368
G1 X214.574 Y191.994 E2.16994
G1 X214.181 Y193.499 E.06252
G1 X213.675 Y194.167 E.03368
G1 X212.675 Y195.168 E.05687
G1 X211.707 Y195.822 E.04695
G1 X203.507 Y199.324 E.35836
G1 X202.3 Y199.571 E.04952
G1 X127.7 Y199.571 E2.99836
G1 X126.493 Y199.324 E.04952
G1 X118.293 Y195.822 E.35836
G1 X117.325 Y195.168 E.04695
G1 X116.325 Y194.167 E.05687
G1 X115.54 Y192.825 E.06252
G1 X115.426 Y191.994 E.03368
G1 X115.426 Y138.006 E2.16994
G1 X115.819 Y136.501 E.06252
G1 X116.325 Y135.833 E.03368
G1 X117.219 Y134.938 E.05084
G1 X117.599 Y135.318 F24000
G1 F3000
G1 X117.705 Y135.212 E.00603
G1 X118.504 Y134.671 E.03874
G1 X126.704 Y131.17 E.35837
G1 X127.7 Y130.966 E.04087
G1 X202.3 Y130.966 E2.99836
G1 X203.296 Y131.17 E.04087
G1 X211.496 Y134.671 E.35837
G1 X212.295 Y135.212 E.03874
G1 X213.295 Y136.212 E.05686
G1 X214.037 Y138.006 E.07801
M73 P2 R17
G1 X214.037 Y191.994 E2.16994
G1 X213.295 Y193.788 E.07801
G1 X212.295 Y194.788 E.05687
G1 X211.496 Y195.329 E.03874
G1 X203.296 Y198.83 E.35836
G1 X202.3 Y199.034 E.04087
G1 X127.7 Y199.034 E2.99836
G1 X126.704 Y198.83 E.04087
G1 X118.504 Y195.329 E.35836
G1 X117.705 Y194.788 E.03874
G1 X116.705 Y193.788 E.05687
G1 X115.963 Y191.994 E.07801
G1 X115.963 Y138.006 E2.16994
G1 X116.705 Y136.212 E.07801
G1 X117.564 Y135.353 E.04883
; printing object Upper Tube id:0 copy 0
G1 E-.4 F4200
EXCLUDE_OBJECT_START NAME=Upper_Tube_id_0_copy_0
G1 X201.906 Y193.081 F24000
G1 E.4 F4200
;TYPE:Inner wall
;WIDTH:0.579999
G1 F4800
G1 X201.69 Y193.124 E.00883
G1 X201.454 Y193.244 E.01065
G1 X201.15 Y193.512 E.01629
G1 X200.903 Y193.955 E.0204
G1 X200.836 Y194.374 E.01706
G1 X200.836 Y195.032 E.02644
G1 X129.164 Y195.032 E2.88066
G1 X129.164 Y194.374 E.02644
G1 X129.097 Y193.955 E.01706
G1 X128.974 Y193.686 E.01191
G1 X128.704 Y193.363 E.01693
G1 X128.31 Y193.124 E.01853
G1 X127.864 Y193.035 E.01827
G1 X127.829 Y192.569 E.01879
G1 X127.649 Y192.144 E.01853
G1 X127.343 Y191.811 E.01819
G1 X127.005 Y191.621 E.01555
G1 X126.521 Y191.531 E.01979
G1 X120.107 Y191.531 E.25782
G1 X119.964 Y191.388 E.00811
G1 X119.964 Y186.612 E.19198
G1 X120.107 Y186.469 E.00811
G1 X126.521 Y186.469 E.25782
G1 X127.005 Y186.379 E.01979
G1 X127.343 Y186.189 E.01555
G1 X127.649 Y185.856 E.01819
G1 X127.829 Y185.431 E.01853
G1 X127.864 Y184.965 E.01879
G1 X128.31 Y184.876 E.01827
G1 X128.546 Y184.756 E.01065
G1 X128.85 Y184.488 E.01629
G1 X129.097 Y184.045 E.0204
G1 X129.164 Y183.626 E.01706
G1 X129.164 Y182.968 E.02645
G1 X200.836 Y182.968 E2.88066
G1 X200.836 Y183.626 E.02645
G1 X200.903 Y184.045 E.01706
G1 X201.026 Y184.314 E.01191
G1 X201.296 Y184.637 E.01693
G1 X201.69 Y184.876 E.01853
G1 X202.136 Y184.965 E.01827
G1 X202.171 Y185.431 E.01879
G1 X202.256 Y185.682 E.01065
G1 X202.462 Y186.003 E.01532
G1 X202.805 Y186.288 E.01793
G1 X203.224 Y186.445 E.01797
G1 X203.479 Y186.469 E.01028
G1 X209.893 Y186.469 E.25782
G1 X210.036 Y186.612 E.00811
G1 X210.036 Y186.713 E.00405
G1 X210.036 Y191.388 E.18793
G1 X209.893 Y191.531 E.00811
G1 X203.479 Y191.531 E.25782
G1 X203.362 Y191.536 E.00471
G1 X202.995 Y191.621 E.01514
G1 X202.657 Y191.811 E.01555
G1 X202.351 Y192.144 E.01819
G1 X202.171 Y192.569 E.01853
G1 X202.136 Y193.035 E.01879
G1 X201.915 Y193.079 E.00904
G1 X201.99 Y193.602 F24000
G1 F4800
G1 X201.796 Y193.666 E.00821
G1 X201.561 Y193.857 E.01216
G1 X201.413 Y194.123 E.01224
G1 X201.373 Y194.374 E.01023
G1 X201.373 Y195.569 E.04803
G1 X128.627 Y195.569 E2.92384
G1 X128.627 Y194.374 E.04803
G1 X128.587 Y194.123 E.01023
G1 X128.439 Y193.857 E.01224
G1 X128.256 Y193.696 E.00978
G1 X127.936 Y193.577 E.01372
G1 X127.327 Y193.569 E.02449
G1 X127.327 Y192.874 E.02793
G1 X127.255 Y192.54 E.01372
G1 X127.081 Y192.294 E.01209
G1 X126.812 Y192.122 E.01285
G1 X126.521 Y192.068 E.01187
G1 X119.884 Y192.068 E.26677
G1 X119.427 Y191.611 E.026
G1 X119.427 Y186.389 E.20985
G1 X119.884 Y185.932 E.026
G1 X126.521 Y185.932 E.26677
G1 X126.812 Y185.878 E.01187
G1 X127.081 Y185.706 E.01285
G1 X127.255 Y185.46 E.01209
G1 X127.327 Y185.126 E.01372
G1 X127.327 Y184.431 E.02793
G1 X127.936 Y184.423 E.02449
G1 X128.204 Y184.334 E.01135
G1 X128.439 Y184.143 E.01216
G1 X128.587 Y183.877 E.01224
G1 X128.627 Y183.626 E.01023
G1 X128.627 Y182.431 E.04803
G1 X201.373 Y182.431 E2.92384
G1 X201.373 Y183.626 E.04803
G1 X201.413 Y183.877 E.01023
G1 X201.561 Y184.143 E.01224
G1 X201.744 Y184.304 E.00978
G1 X202.064 Y184.423 E.01372
G1 X202.673 Y184.431 E.02449
G1 X202.673 Y185.126 E.02793
G1 X202.745 Y185.46 E.01372
G1 X202.919 Y185.706 E.01209
G1 X203.188 Y185.878 E.01285
G1 X203.479 Y185.932 E.01187
G1 X210.116 Y185.932 E.26677
G1 X210.573 Y186.389 E.026
G1 X210.573 Y186.713 E.01299
G1 X210.573 Y191.611 E.19686
G1 X210.116 Y192.068 E.026
G1 X203.479 Y192.068 E.26677
G1 X203.188 Y192.122 E.01187
G1 X202.919 Y192.294 E.01285
G1 X202.745 Y192.54 E.01209
G1 X202.673 Y192.874 E.01372
G1 X202.673 Y193.569 E.02793
G1 X202.064 Y193.577 E.02449
G1 X201.999 Y193.598 E.00274
G1 X202.14 Y194.109 F24000
;TYPE:Outer wall
G1 F4800
G1 X201.973 Y194.202 E.00771
G1 X201.91 Y194.374 E.00738
G1 X201.91 Y196.107 E.06962
G1 X128.09 Y196.107 E2.96701
M73 P3 R17
G1 X128.09 Y194.374 E.06962
G2 X128.005 Y194.179 I-.269 J0 E.00881
G1 X127.821 Y194.106 E.00795
G1 X126.79 Y194.106 E.04146
G2 X126.783 Y192.813 I-24.085 J-.516 E.05198
G1 X126.686 Y192.661 E.00724
G1 X126.521 Y192.605 E.00697
G1 X119.662 Y192.605 E.27571
G1 X118.89 Y191.833 E.04388
G1 X118.89 Y186.167 E.22773
G1 X119.662 Y185.395 E.04388
G1 X126.572 Y185.39 E.27776
G1 X126.725 Y185.302 E.00708
G1 X126.79 Y185.126 E.00752
G1 X126.79 Y183.894 E.04952
G1 X127.86 Y183.891 E.043
G1 X128.027 Y183.798 E.00771
G1 X128.09 Y183.626 E.00738
G1 X128.09 Y181.893 E.06962
G1 X201.91 Y181.893 E2.96701
G1 X201.91 Y183.626 E.06962
G2 X201.995 Y183.821 I.269 J0 E.00881
G1 X202.179 Y183.894 E.00795
G1 X203.21 Y183.894 E.04146
G2 X203.217 Y185.187 I24.086 J.516 E.05198
G1 X203.314 Y185.339 E.00724
G1 X203.479 Y185.395 E.00697
G1 X210.338 Y185.395 E.27571
G1 X211.11 Y186.167 E.04388
G1 X211.11 Y186.713 E.02193
G1 X211.11 Y191.833 E.2058
G1 X210.338 Y192.605 E.04388
G1 X203.428 Y192.61 E.27776
G1 X203.275 Y192.698 E.00708
G1 X203.21 Y192.874 E.00752
G1 X203.21 Y194.106 E.04952
G1 X202.15 Y194.109 E.04259
G1 E-.4 F4200
G1 X208.784 Y186.63 F24000
G1 E.4 F4200
;TYPE:Bottom surface
;WIDTH:0.582355
G1 F4800
G1 X209.633 Y187.479 E.04847
G1 X209.633 Y188.242 E.0308
G1 X208.263 Y186.872 E.07822
G1 X207.5 Y186.872 E.0308
G1 X209.633 Y189.005 E.12178
G1 X209.633 Y189.768 E.0308
G1 X206.737 Y186.872 E.16533
G1 X205.974 Y186.872 E.0308
G1 X209.633 Y190.531 E.20888
G1 X209.633 Y191.128 E.02413
G1 X209.468 Y191.128 E.00667
G1 X205.211 Y186.872 E.24301
G1 X204.448 Y186.872 E.0308
G1 X208.705 Y191.128 E.24301
G1 X207.942 Y191.128 E.0308
G1 X203.44 Y186.626 E.25704
G1 E-.4 F4200
G1 X200.721 Y183.907 F24000
G1 E.4 F4200
G1 F4800
G1 X200.184 Y183.37 E.03065
G1 X199.421 Y183.37 E.0308
G1 X207.179 Y191.128 E.4429
G1 X206.416 Y191.128 E.0308
G1 X198.659 Y183.37 E.4429
G1 X197.896 Y183.37 E.0308
G1 X205.654 Y191.128 E.4429
G1 X204.891 Y191.128 E.0308
G1 X197.133 Y183.37 E.4429
G1 X196.37 Y183.37 E.0308
G1 X204.128 Y191.128 E.4429
G1 X203.374 Y191.138 E.03042
G1 X195.607 Y183.37 E.44343
G1 X194.844 Y183.37 E.0308
G1 X202.761 Y191.287 E.45198
G2 X202.3 Y191.589 I.733 J1.626 E.02234
G1 X194.081 Y183.37 E.46919
G1 X193.318 Y183.37 E.0308
G1 X201.961 Y192.013 E.49338
G2 X201.766 Y192.581 I1.026 J.669 E.0245
G1 X192.556 Y183.37 E.52582
G1 X191.793 Y183.37 E.0308
G1 X201.294 Y192.872 E.54246
G2 X200.875 Y193.216 I.959 J1.596 E.02196
G1 X191.03 Y183.37 E.56209
G1 X190.267 Y183.37 E.0308
G1 X200.584 Y193.688 E.58901
G1 X200.518 Y193.832 E.00642
G1 X200.442 Y194.308 E.01946
G1 X189.504 Y183.37 E.62444
G1 X188.741 Y183.37 E.0308
G1 X200 Y194.63 E.64278
G1 X199.237 Y194.63 E.0308
G1 X187.978 Y183.37 E.64278
G1 X187.215 Y183.37 E.0308
G1 X198.474 Y194.63 E.64278
G1 X197.712 Y194.63 E.0308
G1 X186.453 Y183.37 E.64278
G1 X185.69 Y183.37 E.0308
G1 X196.949 Y194.63 E.64278
G1 X196.186 Y194.63 E.0308
G1 X184.927 Y183.37 E.64278
G1 X184.164 Y183.37 E.0308
G1 X195.423 Y194.63 E.64278
G1 X194.66 Y194.63 E.0308
G1 X183.401 Y183.37 E.64278
G1 X182.638 Y183.37 E.0308
G1 X193.897 Y194.63 E.64278
G1 X193.134 Y194.63 E.0308
G1 X181.875 Y183.37 E.64278
G1 X181.112 Y183.37 E.0308
G1 X192.371 Y194.63 E.64278
G1 X191.609 Y194.63 E.0308
G1 X180.35 Y183.37 E.64278
G1 X179.587 Y183.37 E.0308
G1 X190.846 Y194.63 E.64278
G1 X190.083 Y194.63 E.0308
G1 X178.824 Y183.37 E.64278
G1 X178.061 Y183.37 E.0308
G1 X189.32 Y194.63 E.64278
G1 X188.557 Y194.63 E.0308
G1 X177.298 Y183.37 E.64278
G1 X176.535 Y183.37 E.0308
G1 X187.794 Y194.63 E.64278
G1 X187.031 Y194.63 E.0308
G1 X175.772 Y183.37 E.64278
G1 X175.009 Y183.37 E.0308
G1 X186.268 Y194.63 E.64278
G1 X185.506 Y194.63 E.0308
G1 X174.247 Y183.37 E.64278
G1 X173.484 Y183.37 E.0308
G1 X184.743 Y194.63 E.64278
G1 X183.98 Y194.63 E.0308
G1 X172.721 Y183.37 E.64278
G1 X171.958 Y183.37 E.0308
G1 X183.217 Y194.63 E.64278
G1 X182.454 Y194.63 E.0308
G1 X171.195 Y183.37 E.64278
G1 X170.432 Y183.37 E.0308
G1 X181.691 Y194.63 E.64278
G1 X180.928 Y194.63 E.0308
G1 X169.669 Y183.37 E.64278
G1 X168.906 Y183.37 E.0308
G1 X180.165 Y194.63 E.64278
M73 P4 R17
G1 X179.403 Y194.63 E.0308
G1 X168.144 Y183.37 E.64278
G1 X167.381 Y183.37 E.0308
G1 X178.64 Y194.63 E.64278
G1 X177.877 Y194.63 E.0308
G1 X166.618 Y183.37 E.64278
G1 X165.855 Y183.37 E.0308
G1 X177.114 Y194.63 E.64278
G1 X176.351 Y194.63 E.0308
G1 X165.092 Y183.37 E.64278
G1 X164.329 Y183.37 E.0308
G1 X175.588 Y194.63 E.64278
G1 X174.825 Y194.63 E.0308
G1 X163.566 Y183.37 E.64278
G1 X162.803 Y183.37 E.0308
G1 X174.062 Y194.63 E.64278
G1 X173.3 Y194.63 E.0308
G1 X162.04 Y183.37 E.64278
G1 X161.278 Y183.37 E.0308
G1 X172.537 Y194.63 E.64278
G1 X171.774 Y194.63 E.0308
G1 X160.515 Y183.37 E.64278
G1 X159.752 Y183.37 E.0308
G1 X171.011 Y194.63 E.64278
G1 X170.248 Y194.63 E.0308
G1 X158.989 Y183.37 E.64278
G1 X158.226 Y183.37 E.0308
G1 X169.485 Y194.63 E.64278
G1 X168.722 Y194.63 E.0308
G1 X157.463 Y183.37 E.64278
G1 X156.7 Y183.37 E.0308
G1 X167.959 Y194.63 E.64278
G1 X167.197 Y194.63 E.0308
G1 X155.937 Y183.37 E.64278
G1 X155.175 Y183.37 E.0308
G1 X166.434 Y194.63 E.64278
G1 X165.671 Y194.63 E.0308
G1 X154.412 Y183.37 E.64278
G1 X153.649 Y183.37 E.0308
G1 X164.908 Y194.63 E.64278
G1 X164.145 Y194.63 E.0308
G1 X152.886 Y183.37 E.64278
G1 X152.123 Y183.37 E.0308
G1 X163.382 Y194.63 E.64278
G1 X162.619 Y194.63 E.0308
G1 X151.36 Y183.37 E.64278
G1 X150.597 Y183.37 E.0308
G1 X161.856 Y194.63 E.64278
G1 X161.094 Y194.63 E.0308
G1 X149.834 Y183.37 E.64278
G1 X149.072 Y183.37 E.0308
G1 X160.331 Y194.63 E.64278
G1 X159.568 Y194.63 E.0308
G1 X148.309 Y183.37 E.64278
G1 X147.546 Y183.37 E.0308
G1 X158.805 Y194.63 E.64278
G1 X158.042 Y194.63 E.0308
G1 X146.783 Y183.37 E.64278
G1 X146.02 Y183.37 E.0308
G1 X157.279 Y194.63 E.64278
G1 X156.516 Y194.63 E.0308
G1 X145.257 Y183.37 E.64278
G1 X144.494 Y183.37 E.0308
G1 X155.753 Y194.63 E.64278
G1 X154.991 Y194.63 E.0308
G1 X143.731 Y183.37 E.64278
G1 X142.969 Y183.37 E.0308
G1 X154.228 Y194.63 E.64278
G1 X153.465 Y194.63 E.0308
G1 X142.206 Y183.37 E.64278
G1 X141.443 Y183.37 E.0308
G1 X152.702 Y194.63 E.64278
G1 X151.939 Y194.63 E.0308
G1 X140.68 Y183.37 E.64278
G1 X139.917 Y183.37 E.0308
G1 X151.176 Y194.63 E.64278
G1 X150.413 Y194.63 E.0308
G1 X139.154 Y183.37 E.64278
