; HEADER_BLOCK_START
; generated by OrcaSlicer 1.6.3 on 2023-11-27 at 10:47:05
; total layer number: 15
; HEADER_BLOCK_END

; THUMBNAIL_BLOCK_START
; THUMBNAIL_BLOCK_END

; external perimeters extrusion width = 0.62mm
; perimeters extrusion width = 0.62mm
; infill extrusion width = 0.65mm
; solid infill extrusion width = 0.65mm
; top infill extrusion width = 0.65mm
; first layer extrusion width = 0.68mm

; EXECUTABLE_BLOCK_START
EXCLUDE_OBJECT_DEFINE NAME=vzbot_badge.stl_id_0_copy_0 CENTER=170,160 POLYGON=[[127.5,143],[127.516,142.686],[127.566,142.376],[127.647,142.073],[127.759,141.78],[127.902,141.5],[128.073,141.237],[128.271,140.993],[128.493,140.771],[128.737,140.573],[129,140.402],[129.28,140.259],[129.573,140.147],[129.876,140.066],[130.186,140.016],[130.5,140],[209.5,140],[209.814,140.016],[210.124,140.066],[210.427,140.147],[210.72,140.259],[211,140.402],[211.263,140.573],[211.507,140.771],[211.729,140.993],[211.927,141.237],[212.098,141.5],[212.241,141.78],[212.353,142.073],[212.434,142.376],[212.484,142.686],[212.5,143],[212.5,177],[212.484,177.314],[212.434,177.624],[212.353,177.927],[212.241,178.22],[212.098,178.5],[211.927,178.763],[211.729,179.007],[211.507,179.229],[211.263,179.427],[211,179.598],[210.72,179.741],[210.427,179.853],[210.124,179.934],[209.814,179.984],[209.5,180],[130.5,180],[130.186,179.984],[129.876,179.934],[129.573,179.853],[129.28,179.741],[129,179.598],[128.737,179.427],[128.493,179.229],[128.271,179.007],[128.073,178.763],[127.902,178.5],[127.759,178.22],[127.647,177.927],[127.566,177.624],[127.516,177.314],[127.5,177],[127.5,143]]
M73 P0 R6
M73 C3
;TYPE:Custom
M104 S0
M140 S0
START_PRINT BED=75 HOTEND=225
G90
G21
M83 ; use relative distances for extrusion
; filament start gcode
SET_PRESSURE_ADVANCE ADVANCE=0.032; Override pressure advance value
M106 S0
;LAYER_CHANGE
;Z:0.2
;HEIGHT:0.2
;BEFORE_LAYER_CHANGE
;0.2
G92 E0

;DSLR_SNAPSHOT
TIMELAPSE_TAKE_FRAME
M204 S10000
G1 E-.4 F4200
G1 X126.833 Y138.721 F48000
G1 Z.2
G1 E.4 F4200
;TYPE:Skirt
;WIDTH:0.68
G1 F7200
G1 X128.083 Y137.91 E.07103
G1 X129.194 Y137.518 E.05617
G1 X130.5 Y137.363 E.06272
G1 X209.52 Y137.364 E3.76734
G1 X210.536 Y137.461 E.04869
G1 X211.665 Y137.797 E.05617
G1 X212.7 Y138.361 E.05616
G1 X213.372 Y138.906 E.04126
G1 X214.139 Y139.8 E.05617
G1 X214.59 Y140.583 E.04306
G1 X214.982 Y141.694 E.05617
G1 X215.117 Y142.548 E.04126
G1 X215.117 Y177.452 E1.66405
G1 X214.815 Y178.872 E.06924
G1 X214.149 Y180.183 E.0701
G1 X213.167 Y181.279 E.07016
G1 X211.917 Y182.09 E.07103
G1 X210.806 Y182.482 E.05617
G1 X209.5 Y182.637 E.06272
G1 X130.362 Y182.633 E3.77299
G1 X128.89 Y182.4 E.07103
G1 X128.083 Y182.09 E.04126
G1 X127.317 Y181.649 E.04213
G1 X126.221 Y180.667 E.07016
G1 X125.41 Y179.417 E.07103
G1 X125.018 Y178.306 E.05617
G1 X124.863 Y177 E.06272
G1 X124.883 Y142.548 E1.64252
G1 X125.185 Y141.128 E.06924
G1 X125.851 Y139.817 E.0701
G1 X126.773 Y138.788 E.06587
; printing object vzbot badge.stl id:0 copy 0
EXCLUDE_OBJECT_START NAME=vzbot_badge.stl_id_0_copy_0
G1 E-.4 F4200
G1 X129.331 Y142.527 F48000
G1 E.4 F4200
;TYPE:Inner wall
;WIDTH:0.679999
G1 F7200
G1 X129.459 Y142.261 E.01407
G1 X129.756 Y141.971 E.01981
G1 X130.105 Y141.786 E.01883
G1 X130.545 Y141.714 E.02123
G1 X209.432 Y141.715 E3.76101
G1 X209.891 Y141.792 E.02218
G1 X210.251 Y141.967 E.01908
G1 X210.527 Y142.254 E.019
G1 X210.714 Y142.605 E.019
G1 X210.786 Y143.079 E.02284
G1 X210.786 Y176.915 E1.61315
G1 X210.711 Y177.379 E.0224
G1 X210.541 Y177.739 E.01898
G1 X210.244 Y178.029 E.01981
G1 X209.895 Y178.214 E.01883
G1 X209.455 Y178.286 E.02123
G1 X180.26 Y178.286 E1.39192
M73 P1 R6
G1 X180.562 Y177.776 E.02824
G2 X180.818 Y176.642 I-2.998 J-1.272 E.05576
G1 X180.81 Y173.242 E.16208
G2 X180.61 Y172.35 I-3.691 J.361 E.04369
G1 X180.323 Y171.834 E.02813
G1 X180.018 Y171.457 E.02311
G1 X179.599 Y171.105 E.0261
G1 X179.172 Y170.87 E.02324
G1 X178.542 Y170.662 E.03165
G1 X178.037 Y170.615 E.02416
G1 X161.822 Y170.621 E.77305
G2 X160.343 Y171.145 I.282 J3.142 E.07561
G2 X159.438 Y172.261 I1.719 J2.321 E.06921
G1 X159.258 Y172.769 E.02574
G1 X159.182 Y173.395 E.03006
G1 X159.182 Y176.642 E.15477
G1 X159.279 Y177.322 E.03276
G1 X159.467 Y177.839 E.02623
G1 X159.748 Y178.286 E.02517
G1 X130.586 Y178.286 E1.39031
G1 X130.108 Y178.208 E.02309
G1 X129.761 Y178.041 E.01838
G1 X129.471 Y177.744 E.01981
G1 X129.286 Y177.395 E.01883
G1 X129.214 Y176.955 E.02123
G1 X129.214 Y143.086 E1.61472
G1 X129.292 Y142.609 E.02309
G1 X129.326 Y142.538 E.00374
G1 X128.756 Y142.223 F48000
G1 F7200
G3 X129.907 Y141.176 I1.814 J.84 E.0762
G1 X130.528 Y141.077 E.02997
G1 X209.356 Y141.078 E3.75818
G3 X210.453 Y141.349 I-.017 J2.433 E.0544
G3 X211.365 Y142.604 I-.954 J1.652 E.07617
G1 X211.423 Y143.079 E.02284
G1 X211.423 Y176.841 E1.60961
G1 X211.378 Y177.383 E.02594
G3 X210.093 Y178.824 I-1.945 J-.442 E.09609
G1 X209.472 Y178.923 E.02997
G1 X179.006 Y178.923 E1.45248
;WIDTH:0.718458
G1 X178.809 Y178.904 E.01001
;WIDTH:0.756917
G1 X178.612 Y178.884 E.01057
;WIDTH:0.795376
G1 X178.415 Y178.865 E.01114
;WIDTH:0.833834
G1 X178.218 Y178.846 E.01171
G1 X178.349 Y178.805 E.0081
;WIDTH:0.798897
G1 X178.479 Y178.764 E.00774
;WIDTH:0.76396
G1 X178.61 Y178.723 E.00738
;WIDTH:0.729023
G1 X179.276 Y178.378 E.03851
;WIDTH:0.679999
G2 X180.105 Y177.168 I-1.247 J-1.745 E.07139
G1 X180.181 Y176.642 E.02534
G1 X180.181 Y173.395 E.15477
G1 X180.088 Y172.809 E.0283
G1 X179.975 Y172.504 E.01553
G1 X179.644 Y171.982 E.02947
G1 X179.241 Y171.635 E.02532
G1 X178.994 Y171.485 E.01379
G1 X178.516 Y171.311 E.02424
G1 X178.037 Y171.252 E.02303
G1 X161.963 Y171.252 E.76634
G1 X161.795 Y171.267 E.00803
G1 X161.167 Y171.409 E.03073
G1 X160.724 Y171.659 E.02423
G1 X160.47 Y171.873 E.01582
G1 X160.086 Y172.367 E.02985
G1 X159.895 Y172.869 E.02562
G1 X159.819 Y173.395 E.02534
G1 X159.819 Y176.642 E.15477
G1 X159.906 Y177.21 E.02742
G2 X161.046 Y178.568 I2.123 J-.626 E.08697
;WIDTH:0.719799
G1 X161.203 Y178.637 E.00868
;WIDTH:0.759599
G1 X161.36 Y178.706 E.00919
;WIDTH:0.799399
G1 X161.517 Y178.774 E.0097
;WIDTH:0.839198
G1 X161.673 Y178.843 E.01021
G1 X161.501 Y178.863 E.01035
;WIDTH:0.799399
G1 X161.328 Y178.883 E.00983
;WIDTH:0.759599
G1 X161.156 Y178.903 E.00931
;WIDTH:0.719799
G1 X160.984 Y178.923 E.00879
;WIDTH:0.679999
G1 X130.662 Y178.923 E1.4456
G1 X130.101 Y178.876 E.02684
G3 X128.676 Y177.593 I.461 J-1.945 E.09534
G1 X128.577 Y176.972 E.02997
G1 X128.577 Y143.162 E1.61191
G1 X128.624 Y142.601 E.02684
G3 X128.751 Y142.233 I1.945 J.461 E.01857
G1 X128.163 Y141.959 F48000
;TYPE:Outer wall
G1 F7200
G1 X128.421 Y141.512 E.02462
G1 X128.789 Y141.099 E.02639
G1 X129.221 Y140.785 E.02546
G1 X129.71 Y140.567 E.0255
G3 X130.512 Y140.44 I1.209 J5.034 E.03875
G1 X209.499 Y140.441 E3.76583
M73 P2 R6
G1 X210.032 Y140.498 E.02552
G1 X210.54 Y140.663 E.02551
G1 X211.004 Y140.93 E.0255
G1 X211.401 Y141.288 E.0255
G1 X211.715 Y141.721 E.0255
G1 X211.933 Y142.21 E.0255
G3 X212.06 Y143.079 I-4.074 J1.04 E.04198
G1 X212.06 Y176.98 E1.61627
G1 X212.005 Y177.514 E.02557
G1 X211.836 Y178.041 E.0264
G1 X211.579 Y178.488 E.02458
G1 X211.211 Y178.901 E.02639
G1 X210.779 Y179.215 E.02546
G1 X210.29 Y179.433 E.0255
G3 X209.488 Y179.56 I-1.2 J-4.979 E.03876
G1 X130.52 Y179.56 E3.76491
G1 X129.968 Y179.502 E.02645
G1 X129.459 Y179.337 E.02551
G1 X129.012 Y179.079 E.02462
G1 X128.599 Y178.711 E.02639
G1 X128.285 Y178.279 E.02546
G1 X128.067 Y177.79 E.0255
G3 X127.94 Y176.988 I5.034 J-1.209 E.03875
G1 X127.94 Y143.02 E1.61949
G1 X127.998 Y142.468 E.02645
G1 X128.159 Y141.971 E.02494
G1 X128.266 Y141.948
G1 E-.4 F4200
G1 X128.607 Y142.238 F48000
G1 X179.046 Y171.642
G1 X179.336 Y171.845
G1 X179.587 Y172.096
G1 X179.79 Y172.387
G1 X179.934 Y172.693
G1 X180.032 Y173.045
G1 X180.059 Y173.359
G1 X180.059 Y176.159
G1 X179.715 Y176.93
G1 X179.552 Y177.188
G1 X179.359 Y177.401
G1 X178.963 Y177.819
G1 E.4 F4200
G1 F7200
G1 X178.957 Y177.826 E.00043
G1 X178.494 Y178.072 E.02501
G1 X178.037 Y178.148 E.02208
G1 X161.963 Y178.148 E.76634
G1 X161.655 Y178.111 E.0148
G1 X161.168 Y177.914 E.02503
G1 X160.779 Y177.562 E.02503
G1 X160.533 Y177.098 E.02501
G1 X160.457 Y176.642 E.02208
G1 X160.457 Y173.395 E.15477
G1 X160.493 Y173.087 E.0148
G1 X160.677 Y172.618 E.02401
G1 X161.007 Y172.235 E.02411
G1 X161.445 Y171.983 E.02408
G1 X161.963 Y171.889 E.02511
G1 X178.037 Y171.889 E.76634
G1 X178.345 Y171.926 E.0148
G1 X178.821 Y172.115 E.02443
G1 X179.205 Y172.45 E.02429
G1 X179.456 Y172.9 E.02455
G1 X179.543 Y173.395 E.024
G1 X179.543 Y176.642 E.15477
G1 X179.507 Y176.95 E.0148
G1 X179.309 Y177.436 E.02503
G1 X178.971 Y177.81 E.02403
G1 X178.964 Y177.821
G1 E-.4 F4200
G1 X178.218 Y178.846 F48000
G1 E.4 F4200
;TYPE:Inner wall
;WIDTH:0.833834
G1 F7200
G1 X178.037 Y178.854 E.01073
;WIDTH:0.817816
G1 X161.963 Y178.854 E.93212
;WIDTH:0.839198
G1 X161.673 Y178.843 E.01727
G1 E-.4 F4200
G1 X211.544 Y176.975 F48000
G1 X210.581 Y142.957
G1 E.4 F4200
;TYPE:Bottom surface
;WIDTH:0.684582
G1 F7200
G2 X209.968 Y142.356 I-6.046 J5.543 E.04124
G2 X209.406 Y142.193 I-.547 J.838 E.0285
G1 X208.909 Y142.193 E.02389
G1 X210.308 Y143.592 E.09501
G1 X210.308 Y144.5 E.04357
G1 X208.001 Y142.193 E.15664
G1 X207.094 Y142.193 E.04358
G1 X210.308 Y145.407 E.21826
G1 X210.308 Y146.314 E.04357
G1 X206.187 Y142.193 E.27989
G1 X205.279 Y142.193 E.04358
G1 X210.308 Y147.222 E.34151
G1 X210.308 Y148.129 E.04357
G1 X204.372 Y142.193 E.40314
M73 P3 R6
G1 X203.464 Y142.193 E.04358
G1 X210.308 Y149.037 E.46476
G1 X210.308 Y149.944 E.04357
G1 X202.557 Y142.193 E.52639
G1 X201.649 Y142.193 E.04358
G1 X210.308 Y150.852 E.58801
G1 X210.308 Y151.759 E.04357
G1 X200.742 Y142.193 E.64964
G1 X199.834 Y142.193 E.04358
G1 X210.308 Y152.667 E.71126
G1 X210.308 Y153.574 E.04357
G1 X198.927 Y142.193 E.77289
G1 X198.019 Y142.193 E.04358
G1 X210.308 Y154.481 E.83451
G1 X210.308 Y155.389 E.04357
G1 X197.112 Y142.193 E.89614
G1 X196.204 Y142.193 E.04358
G1 X210.308 Y156.296 E.95776
G1 X210.308 Y157.204 E.04357
G1 X195.297 Y142.193 E1.01938
G1 X194.39 Y142.193 E.04358
G1 X210.308 Y158.111 E1.08101
G1 X210.308 Y159.019 E.04357
G1 X193.482 Y142.193 E1.14263
G1 X192.575 Y142.193 E.04358
G1 X210.308 Y159.926 E1.20426
G1 X210.308 Y160.834 E.04357
G1 X191.667 Y142.193 E1.26588
G1 X190.76 Y142.193 E.04358
G1 X210.308 Y161.741 E1.32751
G1 X210.308 Y162.648 E.04357
G1 X189.852 Y142.193 E1.38913
G1 X188.945 Y142.193 E.04358
G1 X210.308 Y163.556 E1.45076
G1 X210.308 Y164.463 E.04357
G1 X188.037 Y142.193 E1.51238
G1 X187.13 Y142.193 E.04358
G1 X210.308 Y165.371 E1.57401
G1 X210.308 Y166.278 E.04357
G1 X186.222 Y142.193 E1.63563
M73 P4 R6
G1 X185.315 Y142.193 E.04358
G1 X210.308 Y167.186 E1.69726
G1 X210.308 Y168.093 E.04357
G1 X184.408 Y142.193 E1.75888
G1 X183.5 Y142.193 E.04358
G1 X210.308 Y169.001 E1.82051
G1 X210.308 Y169.908 E.04357
G1 X182.593 Y142.193 E1.88213
G1 X181.685 Y142.193 E.04358
G1 X210.308 Y170.816 E1.94375
G1 X210.308 Y171.723 E.04357
G1 X180.778 Y142.193 E2.00538
G1 X179.87 Y142.193 E.04358
G1 X210.308 Y172.63 E2.067
G1 X210.308 Y173.538 E.04357
G1 X178.963 Y142.193 E2.12863
G1 X178.055 Y142.193 E.04358
G1 X210.308 Y174.445 E2.19025
G1 X210.308 Y175.353 E.04357
G1 X177.148 Y142.193 E2.25188
G1 X176.24 Y142.193 E.04358
G1 X210.308 Y176.26 E2.3135
M73 P5 R6
G3 X210.282 Y177.142 I-4.289 J.315 E.04242
G1 X175.333 Y142.193 E2.37337
G1 X174.425 Y142.193 E.04358
G1 X209.912 Y177.679 E2.40989
G3 X209.434 Y177.808 I-.501 J-.91 E.02403
G1 X209.134 Y177.808 E.01441
G1 X173.518 Y142.193 E2.41862
G1 X172.611 Y142.193 E.04358
G1 X208.226 Y177.808 E2.41862
G1 X207.319 Y177.808 E.04357
G1 X171.703 Y142.192 E2.41862
G1 X170.796 Y142.192 E.04358
G1 X206.411 Y177.808 E2.41862
G1 X205.504 Y177.808 E.04357
G1 X169.888 Y142.192 E2.41862
G1 X168.981 Y142.192 E.04358
G1 X204.596 Y177.808 E2.41862
G1 X203.689 Y177.808 E.04357
G1 X168.073 Y142.192 E2.41862
M73 P6 R6
G1 X167.166 Y142.192 E.04358
G1 X202.781 Y177.808 E2.41862
G1 X201.874 Y177.808 E.04357
G1 X166.258 Y142.192 E2.41862
G1 X165.351 Y142.192 E.04358
G1 X200.967 Y177.808 E2.41863
G1 X200.059 Y177.808 E.04357
G1 X164.443 Y142.192 E2.41863
G1 X163.536 Y142.192 E.04358
G1 X199.152 Y177.808 E2.41863
G1 X198.244 Y177.808 E.04357
G1 X162.629 Y142.192 E2.41863
G1 X161.721 Y142.192 E.04358
G1 X197.337 Y177.808 E2.41863
G1 X196.429 Y177.808 E.04357
G1 X160.814 Y142.192 E2.41863
G1 X159.906 Y142.192 E.04358
G1 X195.522 Y177.808 E2.41863
G1 X194.614 Y177.808 E.04357
G1 X158.999 Y142.192 E2.41863
M73 P7 R6
G1 X158.091 Y142.192 E.04358
G1 X193.707 Y177.808 E2.41863
G1 X192.799 Y177.808 E.04357
G1 X157.184 Y142.192 E2.41863
G1 X156.276 Y142.192 E.04358
G1 X191.892 Y177.808 E2.41863
G1 X190.985 Y177.808 E.04357
G1 X155.369 Y142.192 E2.41863
G1 X154.461 Y142.192 E.04358
G1 X190.077 Y177.808 E2.41863
G1 X189.17 Y177.808 E.04357
G1 X153.554 Y142.192 E2.41864
G1 X152.646 Y142.192 E.04358
G1 X188.262 Y177.808 E2.41864
G1 X187.355 Y177.808 E.04357
G1 X151.739 Y142.192 E2.41864
G1 X150.832 Y142.192 E.04358
G1 X178.918 Y170.278 E1.90729
M73 P8 R6
G3 X179.889 Y170.726 I-.71 J2.822 E.05167
G3 X180.522 Y171.292 I-2.391 J3.309 E.04085
G1 X180.684 Y171.509 E.01299
G1 X180.995 Y172.046 E.0298
G3 X181.162 Y172.523 I-1.569 J.82 E.02438
G1 X186.447 Y177.808 E.35889
G1 X185.54 Y177.808 E.04357
G1 X181.295 Y173.564 E.28824
G1 X181.295 Y174.471 E.04357
G1 X184.632 Y177.808 E.22662
G1 X183.725 Y177.808 E.04357
G1 X181.295 Y175.378 E.16499
G1 X181.295 Y176.286 E.04357
G1 X182.818 Y177.808 E.10337
G1 X181.91 Y177.808 E.04357
G1 X180.992 Y176.89 E.06237
G1 E-.4 F4200
G1 X178.164 Y170.433 F48000
G1 E.4 F4200
G1 F7200
G1 X149.924 Y142.192 E1.91777
G1 X149.017 Y142.192 E.04358
G1 X176.961 Y170.137 E1.8977
G1 X176.054 Y170.137 E.04357
G1 X148.109 Y142.192 E1.8977
G1 X147.202 Y142.192 E.04358
G1 X175.146 Y170.137 E1.8977
G1 X174.239 Y170.137 E.04357
G1 X146.294 Y142.192 E1.8977
G1 X145.387 Y142.192 E.04358
G1 X173.332 Y170.137 E1.89771
G1 X172.424 Y170.137 E.04357
G1 X144.479 Y142.192 E1.89771
G1 X143.572 Y142.192 E.04358
G1 X171.517 Y170.137 E1.89771
G1 X170.609 Y170.137 E.04357
G1 X142.664 Y142.192 E1.89771
G1 X141.757 Y142.192 E.04358
G1 X169.702 Y170.137 E1.89771
M73 P9 R6
G1 X168.794 Y170.137 E.04357
G1 X140.849 Y142.192 E1.89771
G1 X139.942 Y142.192 E.04358
G1 X167.887 Y170.137 E1.89771
G1 X166.979 Y170.137 E.04357
G1 X139.035 Y142.192 E1.89771
G1 X138.127 Y142.192 E.04358
G1 X166.072 Y170.137 E1.89771
G1 X165.165 Y170.137 E.04357
G1 X137.22 Y142.192 E1.89771
G1 X136.312 Y142.192 E.04358
G1 X164.257 Y170.137 E1.89771
G1 X163.35 Y170.137 E.04357
G1 X135.405 Y142.192 E1.89771
G1 X134.497 Y142.192 E.04358
G1 X162.442 Y170.137 E1.89772
G2 X161.572 Y170.174 I-.208 J5.325 E.04187
G1 X133.59 Y142.192 E1.90024
G1 X132.682 Y142.192 E.04358
G1 X160.835 Y170.345 E1.91185
G2 X160.243 Y170.66 I.968 J2.538 E.03231
G1 X131.775 Y142.192 E1.93322
G1 X130.867 Y142.192 E.04358
G1 X159.721 Y171.045 E1.95942
M73 P10 R6
G1 X159.308 Y171.54 E.03093
G1 X130.088 Y142.32 E1.98427
G2 X129.719 Y142.858 I.431 J.692 E.03224
G1 X158.983 Y172.123 E1.98733
G2 X158.759 Y172.806 I3.665 J1.578 E.03459
G1 X129.692 Y143.739 E1.97394
G1 X129.692 Y144.646 E.04357
G1 X158.705 Y173.659 E1.97022
G1 X158.705 Y174.566 E.04357
G1 X129.692 Y145.554 E1.97022
G1 X129.692 Y146.461 E.04357
G1 X158.705 Y175.474 E1.97022
G1 X158.705 Y176.381 E.04357
G1 X129.692 Y147.369 E1.97022
G1 X129.692 Y148.276 E.04357
G1 X158.805 Y177.389 E1.97706
G1 X158.952 Y177.808 E.02131
G1 X158.317 Y177.808 E.03054
G1 X129.692 Y149.183 E1.94387
G1 X129.692 Y150.091 E.04357
G1 X157.409 Y177.808 E1.88224
G1 X156.502 Y177.808 E.04357
G1 X129.692 Y150.998 E1.82062
M73 P11 R6
G1 X129.692 Y151.906 E.04357
G1 X155.594 Y177.808 E1.759
G1 X154.687 Y177.808 E.04357
G1 X129.692 Y152.813 E1.69737
G1 X129.692 Y153.721 E.04357
G1 X153.779 Y177.808 E1.63575
G1 X152.872 Y177.808 E.04357
G1 X129.692 Y154.628 E1.57412
G1 X129.692 Y155.536 E.04357
G1 X151.964 Y177.808 E1.5125
G1 X151.057 Y177.808 E.04357
G1 X129.692 Y156.443 E1.45088
G1 X129.692 Y157.351 E.04357
G1 X150.149 Y177.808 E1.38925
G1 X149.242 Y177.808 E.04357
G1 X129.692 Y158.258 E1.32763
G1 X129.692 Y159.165 E.04357
