; HEADER_BLOCK_START
; generated by OrcaSlicer 1.8.1 on 2024-01-19 at 19:20:22
; total layer number: 100
; HEADER_BLOCK_END

; THUMBNAIL_BLOCK_START

;
; THUMBNAIL_BLOCK_END

; external perimeters extrusion width = 0.52mm
; perimeters extrusion width = 0.52mm
; infill extrusion width = 0.55mm
; solid infill extrusion width = 0.55mm
; top infill extrusion width = 0.55mm
; first layer extrusion width = 0.58mm

; external perimeters extrusion width = 0.52mm
; perimeters extrusion width = 0.52mm
; infill extrusion width = 0.55mm
; solid infill extrusion width = 0.55mm
; top infill extrusion width = 0.55mm
; first layer extrusion width = 0.58mm

; external perimeters extrusion width = 0.52mm
; perimeters extrusion width = 0.52mm
; infill extrusion width = 0.55mm
; solid infill extrusion width = 0.55mm
; top infill extrusion width = 0.55mm
; first layer extrusion width = 0.58mm

; external perimeters extrusion width = 0.52mm
; perimeters extrusion width = 0.52mm
; infill extrusion width = 0.55mm
; solid infill extrusion width = 0.55mm
; top infill extrusion width = 0.55mm
; first layer extrusion width = 0.58mm

; external perimeters extrusion width = 0.52mm
; perimeters extrusion width = 0.52mm
; infill extrusion width = 0.55mm
; solid infill extrusion width = 0.55mm
; top infill extrusion width = 0.55mm
; first layer extrusion width = 0.58mm

; external perimeters extrusion width = 0.52mm
; perimeters extrusion width = 0.52mm
; infill extrusion width = 0.55mm
; solid infill extrusion width = 0.55mm
; top infill extrusion width = 0.55mm
; first layer extrusion width = 0.58mm

; external perimeters extrusion width = 0.52mm
; perimeters extrusion width = 0.52mm
; infill extrusion width = 0.55mm
; solid infill extrusion width = 0.55mm
; top infill extrusion width = 0.55mm
; first layer extrusion width = 0.58mm

; EXECUTABLE_BLOCK_START
EXCLUDE_OBJECT_DEFINE NAME=VzLight_Mount_x2-x3.stl_id_0_copy_0 CENTER=190.378,185.257 POLYGON=[[180.378,176.757],[181.878,175.257],[198.878,175.257],[200.378,176.757],[200.378,193.757],[198.878,195.257],[181.878,195.257],[181.045,194.424],[180.378,193.757],[180.378,176.757]]
EXCLUDE_OBJECT_DEFINE NAME=VzLight_Mount_x2-x3.stl_id_1_copy_0 CENTER=190.378,164.257 POLYGON=[[180.378,155.757],[181.878,154.257],[198.878,154.257],[200.378,155.757],[200.378,172.757],[198.878,174.257],[181.878,174.257],[181.045,173.424],[180.378,172.757],[180.378,155.757]]
EXCLUDE_OBJECT_DEFINE NAME=VzLight_Mount_x2-x3.stl_id_2_copy_0 CENTER=169.378,164.257 POLYGON=[[159.378,155.757],[160.878,154.257],[177.878,154.257],[179.378,155.757],[179.378,172.757],[177.878,174.257],[160.878,174.257],[160.045,173.424],[159.378,172.757],[159.378,155.757]]
EXCLUDE_OBJECT_DEFINE NAME=Light_Baffle_VZLight300Neo_x16.stl_id_3_copy_0 CENTER=165,186 POLYGON=[[150.622,186.979],[157.929,179.672],[158.164,179.444],[158.407,179.224],[158.656,179.013],[158.912,178.809],[159.175,178.614],[159.444,178.428],[159.719,178.251],[160,178.083],[160.286,177.924],[160.577,177.774],[160.873,177.634],[161.173,177.504],[161.477,177.384],[161.786,177.274],[162.097,177.173],[162.412,177.084],[162.729,177.004],[163.049,176.935],[163.371,176.876],[163.695,176.828],[164.02,176.791],[164.346,176.764],[164.673,176.748],[165,176.743],[165.327,176.748],[165.654,176.764],[165.98,176.791],[166.305,176.828],[166.629,176.876],[166.951,176.935],[167.271,177.004],[167.588,177.084],[167.903,177.173],[168.214,177.274],[168.522,177.384],[168.827,177.504],[169.127,177.634],[169.423,177.774],[169.714,177.924],[170,178.083],[170.281,178.251],[170.556,178.428],[170.825,178.614],[171.088,178.809],[171.344,179.013],[171.593,179.224],[171.836,179.444],[172.071,179.672],[179.378,186.979],[171.1,195.257],[158.9,195.257],[150.622,186.979]]
EXCLUDE_OBJECT_DEFINE NAME=Light_Baffle_VZLight300Neo_x16.stl_id_4_copy_0 CENTER=146.319,174.511 POLYGON=[[131.94,175.49],[139.247,168.183],[139.483,167.955],[139.725,167.735],[139.975,167.524],[140.231,167.32],[140.494,167.125],[140.763,166.939],[141.038,166.762],[141.319,166.594],[141.605,166.435],[141.896,166.285],[142.191,166.145],[142.492,166.015],[142.796,165.895],[143.104,165.785],[143.416,165.684],[143.73,165.595],[144.048,165.515],[144.368,165.446],[144.69,165.387],[145.013,165.339],[145.338,165.302],[145.664,165.275],[145.991,165.259],[146.319,165.254],[146.646,165.259],[146.973,165.275],[147.299,165.302],[147.624,165.339],[147.947,165.387],[148.269,165.446],[148.589,165.515],[148.907,165.595],[149.221,165.684],[149.533,165.785],[149.841,165.895],[150.145,166.015],[150.446,166.145],[150.741,166.285],[151.032,166.435],[151.319,166.594],[151.599,166.762],[151.874,166.939],[152.143,167.125],[152.406,167.32],[152.662,167.524],[152.912,167.735],[153.154,167.955],[153.39,168.183],[160.697,175.49],[152.419,183.768],[140.219,183.768],[131.94,175.49]]
EXCLUDE_OBJECT_DEFINE NAME=Light_Baffle_VZLight300Neo_x16.stl_id_5_copy_0 CENTER=144,154.997 POLYGON=[[129.622,155.976],[136.929,148.669],[137.164,148.441],[137.407,148.221],[137.656,148.009],[137.912,147.806],[138.175,147.611],[138.444,147.425],[138.719,147.248],[139,147.079],[139.286,146.92],[139.577,146.771],[139.873,146.631],[140.173,146.501],[140.477,146.381],[140.786,146.27],[141.097,146.17],[141.412,146.08],[141.729,146.001],[142.049,145.932],[142.371,145.873],[142.695,145.825],[143.02,145.788],[143.346,145.761],[143.673,145.745],[144,145.74],[144.327,145.745],[144.654,145.761],[144.98,145.788],[145.305,145.825],[145.629,145.873],[145.951,145.932],[146.271,146.001],[146.588,146.08],[146.903,146.17],[147.214,146.27],[147.522,146.381],[147.827,146.501],[148.127,146.631],[148.423,146.771],[148.714,146.92],[149,147.079],[149.281,147.248],[149.556,147.425],[149.825,147.611],[150.088,147.806],[150.344,148.009],[150.593,148.221],[150.836,148.441],[151.071,148.669],[158.378,155.976],[150.1,164.254],[137.9,164.254],[129.622,155.976]]
EXCLUDE_OBJECT_DEFINE NAME=Light_Baffle_VZLight300Neo_x16.stl_id_6_copy_0 CENTER=165.649,144 POLYGON=[[151.271,144.979],[158.578,137.672],[158.813,137.444],[159.055,137.224],[159.305,137.013],[159.561,136.809],[159.824,136.614],[160.093,136.428],[160.368,136.251],[160.649,136.083],[160.935,135.924],[161.226,135.774],[161.522,135.634],[161.822,135.504],[162.126,135.384],[162.434,135.274],[162.746,135.173],[163.061,135.084],[163.378,135.004],[163.698,134.935],[164.02,134.876],[164.344,134.828],[164.669,134.791],[164.995,134.764],[165.322,134.748],[165.649,134.743],[165.976,134.748],[166.303,134.764],[166.629,134.791],[166.954,134.828],[167.278,134.876],[167.6,134.935],[167.92,135.004],[168.237,135.084],[168.552,135.173],[168.863,135.274],[169.171,135.384],[169.476,135.504],[169.776,135.634],[170.072,135.774],[170.363,135.924],[170.649,136.083],[170.93,136.251],[171.205,136.428],[171.474,136.614],[171.736,136.809],[171.993,137.013],[172.242,137.224],[172.485,137.444],[172.72,137.672],[180.027,144.979],[171.749,153.257],[159.549,153.257],[151.271,144.979]]
M73 P0 R21
;TYPE:Custom
M104 S0
M140 S0
START_PRINT BED=75 HOTEND=220
G90
G21
M83 ; use relative distances for extrusion
; filament start gcode
SET_PRESSURE_ADVANCE ADVANCE=0.056; Override pressure advance value
M106 S0
;LAYER_CHANGE
;Z:0.2
;HEIGHT:0.2
;BEFORE_LAYER_CHANGE
;0.2
G92 E0

;DSLR_SNAPSHOT
TIMELAPSE_TAKE_FRAME
;_SET_FAN_SPEED_CHANGING_LAYER
SET_VELOCITY_LIMIT ACCEL=10000 ACCEL_TO_DECEL=5000
SET_VELOCITY_LIMIT SQUARE_CORNER_VELOCITY=10
G1 E-.4 F4200
G1 X134.378 Y145.367 F48000
G1 Z.2
G1 E.4 F4200
;TYPE:Skirt
;WIDTH:0.58
G1 F3000
G1 X135.704 Y144.279 E.0766
G1 X136.985 Y143.453 E.06806
G1 X159.902 Y131.815 E1.14784
G1 X161.477 Y131.224 E.07514
G1 X162.822 Y130.88 E.062
G1 X164.33 Y130.657 E.06806
G1 X165.749 Y130.596 E.06346
G1 X167.886 Y130.773 E.09577
G1 X169.691 Y131.185 E.08265
G1 X171.426 Y131.828 E.08264
G1 X173.062 Y132.693 E.08265
G1 X201.726 Y151.753 E1.53727
G1 X202.978 Y153.061 E.08086
G1 X203.576 Y155.207 E.09948
G1 X203.576 Y194.307 E1.74614
G1 X203.181 Y196.074 E.08086
G1 X202.071 Y197.505 E.08086
G1 X199.567 Y198.453 E.11957
G1 X171.239 Y199.403 E1.2658
G1 X158.9 Y199.405 E.55104
G1 X156.727 Y198.791 E.10086
G1 X138.045 Y187.302 E.97943
G1 X137.285 Y186.701 E.04326
G1 X129.007 Y178.423 E.52282
M73 P0 R20
G1 X128.037 Y176.894 E.08086
G1 X127.821 Y175.979 E.04198
G1 X125.502 Y156.465 E.8776
G1 X125.686 Y154.664 E.08086
G1 X126.689 Y153.042 E.08512
G1 X134.343 Y145.403 E.48296
G1 X134.722 Y145.782 F48000
G1 F3000
G1 X134.739 Y145.765 E.00108
G1 X136.024 Y144.711 E.07424
G1 X137.246 Y143.923 E.06492
G1 X160.115 Y132.308 E1.14549
G1 X161.641 Y131.735 E.07278
G1 X162.936 Y131.405 E.05965
G1 X164.374 Y131.192 E.06492
G1 X165.741 Y131.133 E.06111
G1 X167.808 Y131.304 E.09263
G1 X169.543 Y131.701 E.07951
G1 X171.212 Y132.321 E.07951
G1 X172.786 Y133.153 E.07951
G1 X201.429 Y152.201 E1.53614
G1 X202.576 Y153.438 E.07538
G1 X203.039 Y155.207 E.08166
G1 X203.039 Y194.307 E1.74614
G1 X202.645 Y195.948 E.07538
G1 X201.548 Y197.231 E.07538
G1 X199.549 Y197.916 E.09435
G1 X171.221 Y198.866 E1.2658
G1 X158.9 Y198.868 E.55024
G1 X157.008 Y198.333 E.0878
G1 X138.327 Y186.844 E.97943
G1 X137.665 Y186.322 E.03766
G1 X129.387 Y178.043 E.52282
G1 X128.354 Y175.916 E.10561
G1 X126.036 Y156.402 E.8776
G1 X126.234 Y154.725 E.07538
G1 X127.068 Y153.422 E.06911
G1 X134.686 Y145.818 E.48071
G1 X135.033 Y146.226 F48000
G1 F3000
G1 X136.081 Y145.337 E.06138
G1 X137.42 Y144.443 E.07189
G1 X160.329 Y132.801 E1.14762
G1 X161.806 Y132.247 E.07043
G1 X163.049 Y131.93 E.0573
G1 X164.417 Y131.727 E.06178
G1 X165.732 Y131.67 E.05876
G1 X167.729 Y131.836 E.08949
G1 X169.396 Y132.218 E.07637
G1 X170.999 Y132.814 E.07637
G1 X172.51 Y133.614 E.07637
G1 X201.131 Y152.648 E1.53501
G1 X202.166 Y153.809 E.06946
G1 X202.502 Y155.207 E.06422
G1 X202.502 Y194.307 E1.74614
G1 X202.109 Y195.812 E.06946
G1 X201.029 Y196.932 E.06946
G1 X199.531 Y197.38 E.06982
G1 X171.203 Y198.33 E1.2658
M73 P1 R20
G1 X158.9 Y198.331 E.54943
G1 X157.29 Y197.876 E.07474
G1 X138.608 Y186.387 E.97943
G1 X138.045 Y185.942 E.03205
G1 X129.767 Y177.664 E.52282
G1 X128.888 Y175.853 E.0899
G1 X126.569 Y156.338 E.8776
G1 X126.782 Y154.798 E.06946
G1 X127.448 Y153.802 E.05349
G1 X134.997 Y146.261 E.47652
G1 X135.377 Y146.641 F48000
G1 F3000
G1 X135.4 Y146.618 E.00145
G1 X136.401 Y145.768 E.05865
G1 X137.696 Y144.903 E.06954
G1 X160.474 Y133.325 E1.14112
G1 X161.658 Y132.858 E.05685
G1 X163.162 Y132.455 E.06953
G1 X164.461 Y132.262 E.05865
G1 X165.723 Y132.207 E.0564
G1 X167.65 Y132.367 E.08635
G1 X169.248 Y132.734 E.07324
G1 X170.785 Y133.306 E.07323
G1 X172.234 Y134.075 E.07323
G1 X200.834 Y153.095 E1.53388
G1 X201.744 Y154.172 E.06299
G1 X201.965 Y155.207 E.04727
G1 X201.965 Y194.307 E1.74614
G1 X201.573 Y195.662 E.06299
G1 X200.518 Y196.598 E.06299
G1 X199.513 Y196.843 E.04618
G1 X171.185 Y197.793 E1.2658
G1 X158.9 Y197.794 E.54863
G1 X157.571 Y197.418 E.06168
G1 X138.889 Y185.929 E.97943
G1 X138.425 Y185.562 E.02645
G1 X130.146 Y177.284 E.52282
G1 X129.421 Y175.789 E.07419
G1 X127.102 Y156.275 E.8776
G1 X127.332 Y154.883 E.06299
G1 X127.828 Y154.182 E.03837
G1 X135.341 Y146.676 E.47427
; printing object Light Baffle VZLight300Neo x16.stl id:3 copy 0
G1 E-.4 F4200
EXCLUDE_OBJECT_START NAME=Light_Baffle_VZLight300Neo_x16.stl_id_3_copy_0
G1 X171.756 Y191.088 F48000
G1 E.4 F4200
;TYPE:Inner wall
;WIDTH:0.579999
G1 F7200
G1 X171.708 Y191.027 E.00346
G1 X171.351 Y190.802 E.01886
G1 X170.821 Y190.693 E.02412
G1 X170.264 Y190.693 E.02489
G1 X170.264 Y189.352 E.05987
G1 X170.226 Y189.035 E.01428
G1 X170.047 Y188.482 E.02594
G1 X169.728 Y188.063 E.02353
G1 X169.406 Y187.788 E.01889
G1 X168.791 Y187.535 E.02971
G1 X168.405 Y187.493 E.01733
G1 X162.071 Y187.493 E.28287
G1 X161.278 Y187.531 E.03545
G1 X160.852 Y187.651 E.01975
G1 X160.491 Y187.871 E.01888
G1 X160.125 Y188.217 E.0225
G1 X159.937 Y188.537 E.01654
G1 X159.748 Y189.144 E.02841
G1 X159.736 Y190.693 E.06918
G1 X159.179 Y190.693 E.02489
G1 X158.733 Y190.769 E.0202
G1 X158.291 Y191.028 E.02286
G1 X157.992 Y191.408 E.0216
G1 X157.836 Y192.123 E.03269
G1 X152.692 Y186.979 E.32488
G1 X158.948 Y180.723 E.39508
G3 X171.052 Y180.723 I6.052 J6.036 E.60061
G1 X177.308 Y186.979 E.39508
G1 X175.07 Y189.217 E.14134
G1 X172.164 Y192.123 E.18352
G1 X172.164 Y192.037 E.00382
G1 X172.007 Y191.405 E.02909
G1 X171.762 Y191.096 E.01763
G1 X171.377 Y191.461 F48000
G1 F7200
G1 X171.353 Y191.43 E.00173
G1 X171.179 Y191.314 E.00937
G1 X170.821 Y191.23 E.01639
G1 X169.727 Y191.23 E.04887
G2 X169.721 Y189.255 I-147.212 J-.547 E.08821
G1 X169.574 Y188.738 E.02402
G1 X169.229 Y188.321 E.02414
G1 X168.79 Y188.097 E.02201
G1 X168.405 Y188.03 E.01746
G1 X162.071 Y188.03 E.28287
G1 X161.405 Y188.053 E.02976
G1 X160.944 Y188.204 E.02166
G1 X160.546 Y188.55 E.02355
G1 X160.34 Y188.967 E.02076
G1 X160.273 Y189.352 E.01746
G1 X160.273 Y191.23 E.08385
G1 X159.179 Y191.23 E.04887
G1 X158.911 Y191.276 E.01212
G1 X158.646 Y191.431 E.01372
G1 X158.466 Y191.659 E.01296
G1 X158.373 Y192.04 E.01751
G1 X158.38 Y193.43 E.06209
G1 X151.933 Y186.979 E.40732
G1 X158.574 Y180.337 E.41946
G3 X171.426 Y180.337 I6.426 J6.416 E.63758
G1 X178.067 Y186.979 E.41946
G1 X175.45 Y189.597 E.16532
G2 X171.616 Y193.434 I1090.582 J1093.328 E.24221
G2 X171.627 Y192.037 I-33.218 J-.953 E.0624
G1 X171.533 Y191.657 E.01746
G1 X171.383 Y191.469 E.01074
G1 X170.999 Y191.834 F48000
;TYPE:Outer wall
G1 F7200
G1 X170.821 Y191.767 E.00846
G1 X169.19 Y191.767 E.07286
G1 X169.19 Y189.352 E.10784
G1 X169.126 Y189.057 E.01351
G1 X168.911 Y188.761 E.01634
G1 X168.584 Y188.594 E.01638
G1 X168.405 Y188.567 E.00811
G1 X161.688 Y188.567 E.29997
G1 X161.3 Y188.631 E.01757
G1 X161.003 Y188.846 E.01634
G1 X160.836 Y189.173 E.01638
G1 X160.81 Y189.352 E.00811
G1 X160.81 Y191.767 E.10784
G1 X159.179 Y191.767 E.07286
G1 X159.001 Y191.834 E.00847
G1 X158.91 Y192.037 E.00993
G1 X158.916 Y193.135 E.04901
G2 X158.935 Y193.963 I14.621 J.072 E.03703
;WIDTH:0.575314
G1 X159.019 Y194.135 E.00845
;WIDTH:0.59389
G1 X159.105 Y194.193 E.00477
;WIDTH:0.633463
G1 X159.192 Y194.251 E.00511
;WIDTH:0.634511
G1 X159.485 Y194.261 E.01442
G1 X159.483 Y194.841 E.02857
G1 X159.066 Y194.843 E.02054
G1 X158.942 Y194.743 E.00785
;WIDTH:0.606363
G1 X158.818 Y194.643 E.00747
;WIDTH:0.578214
G1 X158.381 Y194.2 E.0277
;WIDTH:0.579999
G1 X151.173 Y186.979 E.45562
G1 X158.201 Y179.951 E.44384
G3 X171.799 Y179.951 I6.799 J6.796 E.67456
G1 X178.827 Y186.979 E.44384
G1 X175.829 Y189.976 E.18931
G1 X172.203 Y193.604 E.22906
G1 X171.346 Y194.493 E.05517
;WIDTH:0.594412
G1 X171.14 Y194.668 E.01239
;WIDTH:0.634447
G1 X170.934 Y194.843 E.01329
G1 X170.517 Y194.841 E.02053
G1 X170.515 Y194.261 E.02857
G1 X170.802 Y194.251 E.01412
G1 X170.875 Y194.208 E.00418
;WIDTH:0.596317
G1 X170.948 Y194.165 E.00391
;WIDTH:0.575528
G1 X171.065 Y193.962 E.01039
;WIDTH:0.579999
G2 X171.09 Y192.036 I-40.543 J-1.491 E.08601
G1 X171.003 Y191.843 E.00946
G1 E-.4 F4200
G1 X169.322 Y179.575 F48000
G1 E.4 F4200
;TYPE:Bottom surface
;WIDTH:0.595737
G1 F4800
G1 X176.732 Y186.985 E.48169
G1 X176.341 Y187.376 E.02541
G1 X168.265 Y179.299 E.52502
G2 X167.062 Y178.878 I-2.66 J5.667 E.0587
G1 X175.951 Y187.766 E.57782
G1 X175.56 Y188.157 E.02541
G1 X166.087 Y178.685 E.61578
G2 X165.239 Y178.618 I-1.248 J10.468 E.03912
G1 X175.169 Y188.548 E.64552
G1 X174.778 Y188.939 E.02541
G1 X164.465 Y178.629 E.67033
G2 X163.766 Y178.709 I.264 J5.377 E.03238
G1 X174.387 Y189.33 E.69045
G1 X173.996 Y189.721 E.02541
G1 X163.112 Y178.837 E.70754
G2 X162.501 Y179.008 I1.029 J4.855 E.02918
G1 X173.605 Y190.112 E.72184
G1 X173.214 Y190.503 E.02541
G1 X161.927 Y179.215 E.73377
G2 X161.388 Y179.458 I9.165 J21.09 E.02718
G1 X172.824 Y190.894 E.74342
G1 X172.433 Y191.285 E.02541
G1 X170.414 Y189.267 E.13119
G1 E-.4 F4200
G1 X168.49 Y187.342 F48000
G1 E.4 F4200
G1 F4800
G1 X160.881 Y179.733 E.49462
G2 X160.404 Y180.038 I2.083 J3.795 E.02605
G1 X167.456 Y187.09 E.45847
G1 X166.674 Y187.09 E.03594
G1 X159.954 Y180.37 E.43688
G2 X159.531 Y180.729 I2.528 J3.403 E.02551
G1 X165.893 Y187.09 E.41353
G1 X165.111 Y187.09 E.03594
G1 X159.131 Y181.11 E.38874
G1 X158.74 Y181.501 E.02541
