; HEADER_BLOCK_START
; generated by OrcaSlicer 1.6.3 on 2023-11-11 at 20:19:33
; total layer number: 25
; HEADER_BLOCK_END

; THUMBNAIL_BLOCK_START
; THUMBNAIL_BLOCK_END

; external perimeters extrusion width = 0.62mm
; perimeters extrusion width = 0.62mm
; infill extrusion width = 0.65mm
; solid infill extrusion width = 0.65mm
; top infill extrusion width = 0.65mm
; support material extrusion width = 0.65mm
; first layer extrusion width = 0.68mm

; external perimeters extrusion width = 0.62mm
; perimeters extrusion width = 0.62mm
; infill extrusion width = 0.65mm
; solid infill extrusion width = 0.65mm
; top infill extrusion width = 0.65mm
; support material extrusion width = 0.65mm
; first layer extrusion width = 0.68mm

; external perimeters extrusion width = 0.62mm
; perimeters extrusion width = 0.62mm
; infill extrusion width = 0.65mm
; solid infill extrusion width = 0.65mm
; top infill extrusion width = 0.65mm
; support material extrusion width = 0.65mm
; first layer extrusion width = 0.68mm

; external perimeters extrusion width = 0.62mm
; perimeters extrusion width = 0.62mm
; infill extrusion width = 0.65mm
; solid infill extrusion width = 0.65mm
; top infill extrusion width = 0.65mm
; support material extrusion width = 0.65mm
; first layer extrusion width = 0.68mm

; external perimeters extrusion width = 0.62mm
; perimeters extrusion width = 0.62mm
; infill extrusion width = 0.65mm
; solid infill extrusion width = 0.65mm
; top infill extrusion width = 0.65mm
; support material extrusion width = 0.65mm
; first layer extrusion width = 0.68mm

; external perimeters extrusion width = 0.62mm
; perimeters extrusion width = 0.62mm
; infill extrusion width = 0.65mm
; solid infill extrusion width = 0.65mm
; top infill extrusion width = 0.65mm
; support material extrusion width = 0.65mm
; first layer extrusion width = 0.68mm

; external perimeters extrusion width = 0.62mm
; perimeters extrusion width = 0.62mm
; infill extrusion width = 0.65mm
; solid infill extrusion width = 0.65mm
; top infill extrusion width = 0.65mm
; support material extrusion width = 0.65mm
; first layer extrusion width = 0.68mm

; external perimeters extrusion width = 0.62mm
; perimeters extrusion width = 0.62mm
; infill extrusion width = 0.65mm
; solid infill extrusion width = 0.65mm
; top infill extrusion width = 0.65mm
; support material extrusion width = 0.65mm
; first layer extrusion width = 0.68mm

; external perimeters extrusion width = 0.62mm
; perimeters extrusion width = 0.62mm
; infill extrusion width = 0.65mm
; solid infill extrusion width = 0.65mm
; top infill extrusion width = 0.65mm
; support material extrusion width = 0.65mm
; first layer extrusion width = 0.68mm

; external perimeters extrusion width = 0.62mm
; perimeters extrusion width = 0.62mm
; infill extrusion width = 0.65mm
; solid infill extrusion width = 0.65mm
; top infill extrusion width = 0.65mm
; support material extrusion width = 0.65mm
; first layer extrusion width = 0.68mm

; external perimeters extrusion width = 0.62mm
; perimeters extrusion width = 0.62mm
; infill extrusion width = 0.65mm
; solid infill extrusion width = 0.65mm
; top infill extrusion width = 0.65mm
; support material extrusion width = 0.65mm
; first layer extrusion width = 0.68mm

; external perimeters extrusion width = 0.62mm
; perimeters extrusion width = 0.62mm
; infill extrusion width = 0.65mm
; solid infill extrusion width = 0.65mm
; top infill extrusion width = 0.65mm
; support material extrusion width = 0.65mm
; first layer extrusion width = 0.68mm

; external perimeters extrusion width = 0.62mm
; perimeters extrusion width = 0.62mm
; infill extrusion width = 0.65mm
; solid infill extrusion width = 0.65mm
; top infill extrusion width = 0.65mm
; support material extrusion width = 0.65mm
; first layer extrusion width = 0.68mm

; external perimeters extrusion width = 0.62mm
; perimeters extrusion width = 0.62mm
; infill extrusion width = 0.65mm
; solid infill extrusion width = 0.65mm
; top infill extrusion width = 0.65mm
; support material extrusion width = 0.65mm
; first layer extrusion width = 0.68mm

; external perimeters extrusion width = 0.62mm
; perimeters extrusion width = 0.62mm
; infill extrusion width = 0.65mm
; solid infill extrusion width = 0.65mm
; top infill extrusion width = 0.65mm
; support material extrusion width = 0.65mm
; first layer extrusion width = 0.68mm

; external perimeters extrusion width = 0.62mm
; perimeters extrusion width = 0.62mm
; infill extrusion width = 0.65mm
; solid infill extrusion width = 0.65mm
; top infill extrusion width = 0.65mm
; support material extrusion width = 0.65mm
; first layer extrusion width = 0.68mm

; external perimeters extrusion width = 0.62mm
; perimeters extrusion width = 0.62mm
; infill extrusion width = 0.65mm
; solid infill extrusion width = 0.65mm
; top infill extrusion width = 0.65mm
; support material extrusion width = 0.65mm
; first layer extrusion width = 0.68mm

; external perimeters extrusion width = 0.62mm
; perimeters extrusion width = 0.62mm
; infill extrusion width = 0.65mm
; solid infill extrusion width = 0.65mm
; top infill extrusion width = 0.65mm
; support material extrusion width = 0.65mm
; first layer extrusion width = 0.68mm

; external perimeters extrusion width = 0.62mm
; perimeters extrusion width = 0.62mm
; infill extrusion width = 0.65mm
; solid infill extrusion width = 0.65mm
; top infill extrusion width = 0.65mm
; support material extrusion width = 0.65mm
; first layer extrusion width = 0.68mm

; external perimeters extrusion width = 0.62mm
; perimeters extrusion width = 0.62mm
; infill extrusion width = 0.65mm
; solid infill extrusion width = 0.65mm
; top infill extrusion width = 0.65mm
; support material extrusion width = 0.65mm
; first layer extrusion width = 0.68mm

; EXECUTABLE_BLOCK_START
EXCLUDE_OBJECT_DEFINE NAME=x-belt-holder-gt2.stl_id_0_copy_0 CENTER=199.6,201.2 POLYGON=[[194.6,198.3],[195.1,197.8],[204.1,197.8],[204.6,198.3],[204.6,204.1],[204.1,204.6],[195.1,204.6],[194.6,204.1],[194.6,198.3]]
EXCLUDE_OBJECT_DEFINE NAME=x-belt-holder-gt2.stl_id_1_copy_0 CENTER=199.6,184.4 POLYGON=[[194.6,181.5],[195.1,181],[204.1,181],[204.6,181.5],[204.6,187.3],[204.1,187.8],[195.1,187.8],[194.6,187.3],[194.6,181.5]]
EXCLUDE_OBJECT_DEFINE NAME=x-belt-holder-gt2.stl_id_2_copy_0 CENTER=179.6,184.4 POLYGON=[[174.6,181.5],[175.1,181],[184.1,181],[184.6,181.5],[184.6,187.3],[184.1,187.8],[175.1,187.8],[174.6,187.3],[174.6,181.5]]
EXCLUDE_OBJECT_DEFINE NAME=x-belt-holder-gt2.stl_id_3_copy_0 CENTER=179.6,201.2 POLYGON=[[174.6,198.3],[175.1,197.8],[184.1,197.8],[184.6,198.3],[184.6,204.1],[184.1,204.6],[175.1,204.6],[174.6,204.1],[174.6,198.3]]
EXCLUDE_OBJECT_DEFINE NAME=x-belt-holder-gt2.stl_id_4_copy_0 CENTER=199.6,167.6 POLYGON=[[194.6,164.7],[195.1,164.2],[204.1,164.2],[204.6,164.7],[204.6,170.5],[204.1,171],[195.1,171],[194.6,170.5],[194.6,164.7]]
EXCLUDE_OBJECT_DEFINE NAME=x-belt-holder-gt2.stl_id_5_copy_0 CENTER=179.6,167.6 POLYGON=[[174.6,164.7],[175.1,164.2],[184.1,164.2],[184.6,164.7],[184.6,170.5],[184.1,171],[175.1,171],[174.6,170.5],[174.6,164.7]]
EXCLUDE_OBJECT_DEFINE NAME=x-belt-holder-gt2.stl_id_6_copy_0 CENTER=161.2,182.8 POLYGON=[[157.8,178.3],[158.3,177.8],[164.1,177.8],[164.6,178.3],[164.6,187.3],[164.1,187.8],[158.3,187.8],[157.8,187.3],[157.8,178.3]]
EXCLUDE_OBJECT_DEFINE NAME=x-belt-holder-gt2.stl_id_7_copy_0 CENTER=159.6,201.2 POLYGON=[[154.6,198.3],[155.1,197.8],[164.1,197.8],[164.6,198.3],[164.6,204.1],[164.1,204.6],[155.1,204.6],[154.6,204.1],[154.6,198.3]]
EXCLUDE_OBJECT_DEFINE NAME=x-belt-holder-gt2.stl_id_8_copy_0 CENTER=161.2,162.8 POLYGON=[[157.8,158.3],[158.3,157.8],[164.1,157.8],[164.6,158.3],[164.6,167.3],[164.1,167.8],[158.3,167.8],[157.8,167.3],[157.8,158.3]]
EXCLUDE_OBJECT_DEFINE NAME=x-belt-holder-gt2.stl_id_9_copy_0 CENTER=179.6,150.8 POLYGON=[[174.6,147.9],[175.1,147.4],[184.1,147.4],[184.6,147.9],[184.6,153.7],[184.1,154.2],[175.1,154.2],[174.6,153.7],[174.6,147.9]]
EXCLUDE_OBJECT_DEFINE NAME=x-belt-holder-thin-gt2.stl_id_10_copy_0 CENTER=199.6,151.1 POLYGON=[[194.6,148.5],[195.1,148],[204.1,148],[204.6,148.5],[204.6,153.7],[204.1,154.2],[195.1,154.2],[194.6,153.7],[194.6,148.5]]
EXCLUDE_OBJECT_DEFINE NAME=x-belt-holder-thin-gt2.stl_id_11_copy_0 CENTER=192.038,134.9 POLYGON=[[187.038,132.3],[187.538,131.8],[196.538,131.8],[197.038,132.3],[197.038,137.5],[196.538,138],[187.538,138],[187.038,137.5],[187.038,132.3]]
EXCLUDE_OBJECT_DEFINE NAME=x-belt-holder-thin-gt2.stl_id_12_copy_0 CENTER=172.038,134.3 POLYGON=[[167.038,131.7],[167.538,131.2],[176.538,131.2],[177.038,131.7],[177.038,136.9],[176.538,137.4],[167.538,137.4],[167.038,136.9],[167.038,131.7]]
EXCLUDE_OBJECT_DEFINE NAME=x-belt-holder-thin-gt2.stl_id_13_copy_0 CENTER=153.368,144.7 POLYGON=[[148.368,142.1],[148.868,141.6],[157.868,141.6],[158.368,142.1],[158.368,147.3],[157.868,147.8],[148.868,147.8],[148.368,147.3],[148.368,142.1]]
EXCLUDE_OBJECT_DEFINE NAME=x-belt-holder-thin-gt2.stl_id_14_copy_0 CENTER=144.7,162.8 POLYGON=[[141.6,158.3],[142.1,157.8],[147.3,157.8],[147.8,158.3],[147.8,167.3],[147.3,167.8],[142.1,167.8],[141.6,167.3],[141.6,158.3]]
EXCLUDE_OBJECT_DEFINE NAME=x-belt-holder-thin-gt2.stl_id_15_copy_0 CENTER=144.7,182.8 POLYGON=[[141.6,178.3],[142.1,177.8],[147.3,177.8],[147.8,178.3],[147.8,187.3],[147.3,187.8],[142.1,187.8],[141.6,187.3],[141.6,178.3]]
EXCLUDE_OBJECT_DEFINE NAME=x-belt-holder-thin-gt2.stl_id_16_copy_0 CENTER=152.038,128.5 POLYGON=[[147.038,125.9],[147.538,125.4],[156.538,125.4],[157.038,125.9],[157.038,131.1],[156.538,131.6],[147.538,131.6],[147.038,131.1],[147.038,125.9]]
EXCLUDE_OBJECT_DEFINE NAME=x-belt-holder-thin-gt2.stl_id_17_copy_0 CENTER=135.268,143.729 POLYGON=[[132.168,139.229],[132.668,138.729],[137.868,138.729],[138.368,139.229],[138.368,148.229],[137.868,148.729],[132.668,148.729],[132.168,148.229],[132.168,139.229]]
EXCLUDE_OBJECT_DEFINE NAME=x-belt-holder-thin-gt2.stl_id_18_copy_0 CENTER=128.5,163.729 POLYGON=[[125.4,159.229],[125.9,158.729],[131.1,158.729],[131.6,159.229],[131.6,168.229],[131.1,168.729],[125.9,168.729],[125.4,168.229],[125.4,159.229]]
EXCLUDE_OBJECT_DEFINE NAME=x-belt-holder-thin-gt2.stl_id_19_copy_0 CENTER=128.5,183.729 POLYGON=[[125.4,179.229],[125.9,178.729],[131.1,178.729],[131.6,179.229],[131.6,188.229],[131.1,188.729],[125.9,188.729],[125.4,188.229],[125.4,179.229]]
M73 P0 R15
;TYPE:Custom
M104 S0
M140 S0
START_PRINT BED=110 HOTEND=290
G90
G21
M83 ; use relative distances for extrusion
; filament start gcode
SET_PRESSURE_ADVANCE ADVANCE=0.04; Override pressure advance value
M106 S0
;LAYER_CHANGE
;Z:0.4
;HEIGHT:0.4
;BEFORE_LAYER_CHANGE
;0.4
G92 E0

;DSLR_SNAPSHOT
TIMELAPSE_TAKE_FRAME
M204 S5000
G1 E-.4 F4200
G1 X127.504 Y133.366 F36000
G1 Z.4
G1 E.4 F4200
;TYPE:Skirt
;WIDTH:0.68
G1 F7200
G1 X142.374 Y120.037 E1.82716
G1 X142.931 Y119.555 E.0673
G1 X143.813 Y118.96 E.09739
G1 X144.621 Y118.558 E.08255
G1 X145.556 Y118.229 E.09073
G1 X146.918 Y117.981 E.12667
G1 X156.726 Y117.959 E.89736
G1 X157.635 Y118.035 E.08346
G1 X198.458 Y124.612 E3.78336
G1 X199.313 Y124.9 E.08255
G1 X200.207 Y125.328 E.09073
G1 X201.346 Y126.116 E.12667
G1 X202.883 Y127.693 E.20148
G1 X203.633 Y128.856 E.12667
G1 X211.413 Y145.513 E1.6821
G1 X211.863 Y146.883 E.13195
G1 X212.044 Y148.367 E.13678
G1 X212.041 Y204.288 E5.11661
G1 X211.936 Y205.347 E.09739
G1 X211.693 Y206.345 E.09401
G1 X211.381 Y207.154 E.07926
G1 X210.879 Y208.092 E.09739
G1 X210.284 Y208.908 E.09237
G1 X209.228 Y209.994 E.1386
G1 X208.406 Y210.67 E.09739
G1 X207.528 Y211.203 E.09401
G1 X206.735 Y211.554 E.07927
G1 X205.717 Y211.863 E.09739
G1 X204.1 Y212.047 E.1489
G1 X155.1 Y212.047 E4.48336
G1 X153.853 Y211.936 E.11457
G1 X152.854 Y211.693 E.09401
G1 X151.356 Y211.032 E.14986
G1 X122.156 Y195.161 E3.04085
G1 X121.092 Y194.413 E.11899
G1 X120.134 Y193.495 E.12141
G1 X119.33 Y192.535 E.11457
G1 X118.797 Y191.657 E.09401
G1 X118.446 Y190.865 E.07927
G1 X118.137 Y189.846 E.09739
G1 X117.953 Y188.229 E.1489
G1 X117.953 Y159.229 E2.65342
G1 X118.009 Y158.354 E.08025
G1 X118.288 Y157.038 E.1231
G1 X125.056 Y137.038 E1.93187
G1 X125.688 Y135.577 E.14565
G1 X126.484 Y134.421 E.12837
G1 X127.442 Y133.43 E.12612
; printing object x-belt-holder-thin-gt2.stl id:11 copy 0
EXCLUDE_OBJECT_START NAME=x-belt-holder-thin-gt2.stl_id_11_copy_0
G1 E-.4 F4200
G1 X182.481 Y133.43 F36000
G1 E.4 F4200
;TYPE:Brim
G1 F7200
G1 X182.481 Y132.311 E.10244
G1 X182.529 Y131.656 E.06008
G1 X182.669 Y131.023 E.05929
G1 X182.849 Y130.528 E.0482
G1 X183.14 Y129.947 E.05948
G1 X183.512 Y129.415 E.05938
G1 X183.821 Y129.073 E.0422
G1 X184.308 Y128.586 E.06302
G1 X184.805 Y128.156 E.06008
G1 X185.351 Y127.808 E.05929
G1 X185.829 Y127.585 E.04821
G1 X186.446 Y127.38 E.05948
G1 X187.085 Y127.267 E.05938
G1 X187.545 Y127.244 E.04219
G1 X196.527 Y127.244 E.82179
G1 X197.182 Y127.291 E.06008
G1 X197.814 Y127.431 E.05929
G1 X198.31 Y127.611 E.0482
G1 X198.891 Y127.903 E.05948
G1 X199.422 Y128.275 E.05938
G1 X199.765 Y128.584 E.0422
G1 X200.252 Y129.071 E.06302
G1 X200.681 Y129.567 E.06008
G1 X201.03 Y130.115 E.05938
G1 X201.224 Y130.522 E.04131
G1 X201.457 Y131.209 E.06637
G1 X201.57 Y131.847 E.05928
G1 X201.594 Y132.308 E.04219
G1 X201.594 Y137.489 E.4741
G1 X201.546 Y138.144 E.06008
G1 X201.406 Y138.777 E.05929
G1 X201.227 Y139.272 E.0482
G1 X200.935 Y139.853 E.05948
G1 X200.563 Y140.385 E.05938
G1 X200.254 Y140.727 E.0422
G1 X199.767 Y141.214 E.06302
G1 X199.27 Y141.644 E.06008
G1 X198.724 Y141.992 E.05929
G1 X198.247 Y142.215 E.04821
G1 X197.63 Y142.42 E.05948
G1 X196.991 Y142.533 E.05938
G1 X196.53 Y142.556 E.04219
G1 X187.548 Y142.556 E.82179
G1 X186.894 Y142.509 E.06008
G1 X186.261 Y142.369 E.05929
G1 X185.766 Y142.189 E.0482
G1 X185.185 Y141.897 E.05948
G1 X184.653 Y141.525 E.05938
G1 X184.311 Y141.216 E.0422
G1 X183.824 Y140.729 E.06302
G1 X183.394 Y140.233 E.06008
G1 X183.046 Y139.686 E.05929
G1 X182.823 Y139.209 E.04821
G1 X182.618 Y138.592 E.05948
G1 X182.505 Y137.953 E.05938
G1 X182.481 Y137.492 E.04219
G1 X182.481 Y133.52 E.36343
G1 X183.076 Y133.52 F36000
G1 F7200
G1 X183.076 Y132.339 E.10811
G1 X183.118 Y131.755 E.05356
G1 X183.238 Y131.201 E.05188
G1 X183.4 Y130.754 E.04347
G1 X183.659 Y130.242 E.05256
G1 X183.989 Y129.774 E.05239
G1 X184.718 Y129.017 E.09611
G1 X185.151 Y128.643 E.05238
G1 X185.628 Y128.336 E.05188
G1 X186.059 Y128.135 E.04347
G1 X186.579 Y127.962 E.05021
G1 X187.141 Y127.861 E.05222
G1 X187.565 Y127.838 E.03885
G1 X196.512 Y127.838 E.8186
G1 X197.108 Y127.884 E.05473
G1 X197.659 Y128.007 E.05165
G1 X198.083 Y128.162 E.04134
G1 X198.574 Y128.409 E.05021
G1 X199.043 Y128.734 E.05222
G1 X199.809 Y129.469 E.09714
G1 X200.21 Y129.934 E.05624
G1 X200.504 Y130.394 E.04986
G1 X200.668 Y130.737 E.03482
G1 X200.876 Y131.344 E.05875
G1 X200.977 Y131.903 E.05198
G1 X201 Y132.327 E.03885
G1 X201 Y137.461 E.46973
G1 X200.958 Y138.045 E.05356
G1 X200.837 Y138.599 E.05188
G1 X200.675 Y139.046 E.04347
G1 X200.416 Y139.558 E.05256
G1 X200.086 Y140.026 E.05239
G1 X199.357 Y140.783 E.09611
G1 X198.924 Y141.157 E.05238
G1 X198.447 Y141.464 E.05188
G1 X198.017 Y141.665 E.04347
G1 X197.496 Y141.838 E.05021
G1 X196.912 Y141.942 E.05424
G1 X196.51 Y141.962 E.03684
G1 X187.576 Y141.962 E.81742
G1 X186.993 Y141.92 E.05356
G1 X186.439 Y141.799 E.05188
G1 X185.992 Y141.638 E.04347
G1 X185.479 Y141.378 E.05256
G1 X185.011 Y141.048 E.05239
G1 X184.255 Y140.32 E.09611
G1 X183.88 Y139.886 E.05238
G1 X183.574 Y139.409 E.05188
G1 X183.372 Y138.979 E.04347
G1 X183.2 Y138.458 E.05021
G1 X183.096 Y137.875 E.05424
G1 X183.076 Y137.473 E.03684
G1 X183.076 Y133.61 E.35338
G1 X183.67 Y133.61 F36000
G1 F7200
G1 X183.67 Y132.354 E.11499
G1 X183.71 Y131.827 E.04829
G1 X183.808 Y131.378 E.04211
G1 X183.951 Y130.981 E.03861
G1 X184.164 Y130.56 E.04314
G1 X184.441 Y130.164 E.0442
G1 X185.122 Y129.455 E.08996
G1 X185.498 Y129.128 E.04562
G1 X185.927 Y128.852 E.04662
G1 X186.289 Y128.684 E.0365
G1 X186.714 Y128.543 E.04103
G1 X187.221 Y128.452 E.04713
G1 X187.586 Y128.432 E.03342
G1 X196.483 Y128.433 E.81402
G1 X197.008 Y128.472 E.04817
