; HEADER_BLOCK_START
; generated by OrcaSlicer 1.6.3 on 2023-11-02 at 20:02:45
; total layer number: 35
; HEADER_BLOCK_END

; THUMBNAIL_BLOCK_START
; THUMBNAIL_BLOCK_END

; external perimeters extrusion width = 0.62mm
; perimeters extrusion width = 0.62mm
; infill extrusion width = 0.65mm
; solid infill extrusion width = 0.65mm
; top infill extrusion width = 0.65mm
; first layer extrusion width = 0.68mm

; external perimeters extrusion width = 0.62mm
; perimeters extrusion width = 0.62mm
; infill extrusion width = 0.65mm
; solid infill extrusion width = 0.65mm
; top infill extrusion width = 0.65mm
; first layer extrusion width = 0.68mm

; EXECUTABLE_BLOCK_START
EXCLUDE_OBJECT_DEFINE NAME=lid_screw.stl_id_0_copy_0 CENTER=197.599,178.501 POLYGON=[[162.815,174.622],[163.091,172.652],[163.48,170.7],[163.978,168.774],[166.947,161.606],[167.957,159.891],[169.062,158.237],[170.26,156.648],[175.746,151.162],[177.335,149.964],[178.989,148.859],[180.704,147.849],[187.872,144.88],[189.798,144.382],[191.75,143.994],[193.72,143.717],[201.478,143.717],[203.449,143.994],[205.4,144.382],[207.327,144.88],[214.494,147.849],[216.209,148.859],[217.863,149.964],[219.452,151.162],[224.938,156.648],[226.136,158.237],[227.242,159.891],[228.251,161.606],[231.22,168.774],[231.719,170.7],[232.107,172.652],[232.384,174.622],[232.384,182.38],[232.107,184.351],[231.719,186.302],[231.22,188.229],[228.251,195.396],[227.242,197.111],[226.136,198.766],[224.938,200.355],[219.452,205.84],[217.863,207.038],[216.209,208.144],[214.494,209.153],[207.327,212.122],[205.4,212.621],[203.449,213.009],[201.478,213.286],[193.72,213.286],[191.75,213.009],[189.798,212.621],[187.872,212.122],[180.704,209.153],[178.989,208.144],[177.335,207.038],[175.746,205.84],[170.26,200.355],[169.062,198.766],[167.957,197.111],[166.947,195.396],[163.978,188.229],[163.48,186.302],[163.091,184.351],[162.815,182.38],[162.815,174.622]]
EXCLUDE_OBJECT_DEFINE NAME=base_screw.stl_id_1_copy_0 CENTER=132.401,151.499 POLYGON=[[97.6165,147.62],[97.8931,145.649],[98.2813,143.698],[98.7798,141.771],[101.749,134.604],[102.758,132.889],[103.864,131.234],[105.062,129.645],[110.548,124.16],[112.137,122.962],[113.791,121.856],[115.506,120.847],[122.673,117.878],[124.6,117.379],[126.551,116.991],[128.522,116.714],[136.28,116.714],[138.25,116.991],[140.202,117.379],[142.128,117.878],[149.296,120.847],[151.011,121.856],[152.665,122.962],[154.254,124.16],[159.74,129.645],[160.938,131.234],[162.043,132.889],[163.053,134.604],[166.022,141.771],[166.52,143.698],[166.909,145.649],[167.185,147.62],[167.185,155.378],[166.909,157.348],[166.52,159.3],[166.022,161.226],[163.053,168.394],[162.043,170.109],[160.938,171.763],[159.74,173.352],[154.254,178.838],[152.665,180.036],[151.011,181.141],[149.296,182.151],[142.128,185.12],[140.202,185.618],[138.25,186.006],[136.28,186.283],[128.522,186.283],[126.551,186.006],[124.6,185.618],[122.673,185.12],[115.506,182.151],[113.791,181.141],[112.137,180.036],[110.548,178.838],[105.062,173.352],[103.864,171.763],[102.758,170.109],[101.749,168.394],[98.7798,161.226],[98.2813,159.3],[97.8931,157.348],[97.6165,155.378],[97.6165,147.62]]
M73 P0 R37
;TYPE:Custom
M104 S0
M140 S0
START_PRINT BED=100 HOTEND=260
G90
G21
M83 ; use relative distances for extrusion
; filament start gcode
M106 S0
;LAYER_CHANGE
;Z:0.4
;HEIGHT:0.4
;BEFORE_LAYER_CHANGE
;0.4
G92 E0

G1 E-.4 F4200
;DSLR_SNAPSHOT
TIMELAPSE_TAKE_FRAME
M204 S5000
G1 X108.713 Y122.325 F48000
G1 Z.4
G1 E.4 F4200
;TYPE:Skirt
;WIDTH:0.68
G1 F7200
G1 X110.695 Y120.805 E.24189
G1 X112.475 Y119.621 E.20696
G1 X114.189 Y118.611 E.19268
G1 X121.681 Y115.481 E.78618
G1 X124.121 Y114.829 E.24464
G1 X126.191 Y114.422 E.20421
G1 X128.522 Y114.12 E.22762
G1 X136.641 Y114.145 E.78617
G1 X138.611 Y114.422 E.19269
G1 X140.708 Y114.835 E.20696
G1 X143.121 Y115.481 E.24188
G1 X215.487 Y145.452 E7.58463
G1 X217.65 Y146.702 E.24189
G1 X219.425 Y147.893 E.20696
G1 X221.014 Y149.09 E.19268
G1 X226.773 Y154.814 E.78617
G1 X228.293 Y156.796 E.24189
G1 X229.399 Y158.45 E.19268
G1 X230.487 Y160.29 E.20696
G1 X233.732 Y168.124 E.8211
G1 X234.263 Y170.194 E.20696
G1 X234.676 Y172.291 E.20696
G1 X234.952 Y174.261 E.19268
G1 X234.952 Y182.741 E.8211
G1 X234.676 Y184.712 E.19268
G1 X234.263 Y186.809 E.20696
G1 X233.732 Y188.879 E.20696
G1 X230.487 Y196.713 E.8211
G1 X229.354 Y198.618 E.21466
G1 X228.208 Y200.327 E.19925
G1 X227.01 Y201.916 E.19268
G1 X221.287 Y207.675 E.78618
G1 X219.305 Y209.195 E.24189
G1 X217.525 Y210.379 E.20696
G1 X215.487 Y211.55 E.22762
G1 X208.319 Y214.519 E.75124
M73 P0 R36
G1 X205.906 Y215.165 E.24189
G1 X203.809 Y215.578 E.20696
G1 X201.478 Y215.88 E.22762
G1 X193.72 Y215.88 E.75125
G1 X191.243 Y215.553 E.24189
G1 X189.292 Y215.165 E.19268
G1 X187.222 Y214.634 E.20696
G1 X114.513 Y184.548 E7.61955
G1 X112.326 Y183.282 E.24464
G1 X110.575 Y182.107 E.2042
G1 X108.986 Y180.91 E.19268
G1 X103.227 Y175.186 E.78618
G1 X101.792 Y173.325 E.22762
G1 X100.601 Y171.55 E.20696
G1 X99.352 Y169.387 E.24189
G1 X96.268 Y161.874 E.78637
G1 X95.764 Y159.92 E.19543
G1 X95.349 Y157.854 E.20401
G1 X95.048 Y155.739 E.20696
G1 X95.022 Y147.62 E.78618
G1 X95.324 Y145.288 E.22762
G1 X95.737 Y143.191 E.20696
G1 X96.383 Y140.778 E.24189
G1 X99.514 Y133.285 E.78637
G1 X100.54 Y131.547 E.19543
G1 X101.707 Y129.793 E.204
G1 X102.99 Y128.084 E.20696
G1 X108.65 Y122.389 E.77746
; printing object lid_screw.stl id:0 copy 0
EXCLUDE_OBJECT_START NAME=lid_screw.stl_id_0_copy_0
G1 E-.4 F4200
G1 X168.659 Y161.91 F48000
G1 E.4 F4200
;TYPE:Inner wall
;WIDTH:0.68
G1 F7200
G1 X169.377 Y160.696 E.13658
G1 X170.39 Y159.18 E.17656
G1 X171.194 Y158.114 E.12929
G1 X171.603 Y158.014 E.04079
G1 X172.579 Y157.659 E.10057
G1 X173.502 Y157.181 E.10057
G1 X174.356 Y156.591 E.10057
G1 X175.128 Y155.895 E.10057
G1 X175.804 Y155.108 E.10058
G1 X176.375 Y154.24 E.10057
G1 X176.831 Y153.307 E.10057
G1 X177.112 Y152.506 E.08222
G1 X177.212 Y152.096 E.04079
G1 X178.278 Y151.292 E.12929
G1 X179.855 Y150.238 E.18372
G1 X181.006 Y149.561 E.12929
G1 X181.422 Y149.626 E.04079
G1 X182.46 Y149.67 E.10057
G1 X183.495 Y149.583 E.10057
G1 X184.51 Y149.364 E.10057
G1 X185.489 Y149.017 E.10057
G1 X186.416 Y148.548 E.10057
G1 X187.275 Y147.965 E.10057
G1 X188.053 Y147.277 E.10057
G1 X188.62 Y146.644 E.08222
G1 X188.868 Y146.304 E.04079
G1 X190.161 Y145.97 E.12929
G1 X192.022 Y145.6 E.18372
G1 X193.344 Y145.414 E.1293
G1 X193.704 Y145.633 E.04079
G1 X194.645 Y146.072 E.10057
G1 X195.635 Y146.386 E.10057
G1 X196.657 Y146.573 E.10057
G1 X197.694 Y146.627 E.10058
G1 X198.73 Y146.548 E.10056
G1 X199.747 Y146.338 E.10057
G1 X200.729 Y146 E.10057
G1 X201.494 Y145.633 E.08222
G1 X201.854 Y145.414 E.04079
G1 X203.177 Y145.6 E.1293
G1 X205.037 Y145.97 E.18372
G1 X206.33 Y146.304 E.12929
G1 X206.579 Y146.644 E.04079
G1 X207.281 Y147.41 E.10057
G1 X208.074 Y148.079 E.10057
G1 X208.947 Y148.642 E.10058
G1 X209.885 Y149.089 E.10056
G1 X210.871 Y149.413 E.10057
G1 X211.892 Y149.609 E.10057
G1 X212.928 Y149.672 E.10057
G1 X213.776 Y149.626 E.08222
G1 X214.192 Y149.561 E.04079
G1 X215.343 Y150.238 E.12929
G1 X216.92 Y151.292 E.18372
G1 X217.987 Y152.096 E.1293
G1 X218.086 Y152.506 E.04079
G1 X218.442 Y153.481 E.10057
G1 X218.919 Y154.404 E.10057
G1 X219.51 Y155.258 E.10057
G1 X220.205 Y156.03 E.10058
G1 X220.993 Y156.707 E.10056
G1 X221.86 Y157.277 E.10057
G1 X222.794 Y157.733 E.10057
G1 X223.595 Y158.014 E.08222
G1 X224.004 Y158.114 E.04079
G1 X224.808 Y159.18 E.12929
G1 X225.862 Y160.758 E.18372
G1 X226.539 Y161.908 E.1293
G1 X226.475 Y162.324 E.04079
G1 X226.43 Y163.362 E.10058
G1 X226.518 Y164.397 E.10057
G1 X226.737 Y165.412 E.10058
G1 X227.084 Y166.391 E.10057
G1 X227.552 Y167.318 E.10057
G1 X228.136 Y168.177 E.10057
G1 X228.824 Y168.955 E.10057
G1 X229.456 Y169.522 E.08222
G1 X229.796 Y169.77 E.04079
G3 X230.516 Y173.031 I-35.072 J9.451 E.32346
G1 X230.686 Y174.246 E.11881
G1 X230.467 Y174.606 E.04079
G1 X230.029 Y175.548 E.10058
G1 X229.714 Y176.537 E.10057
G1 X229.528 Y177.559 E.10057
G1 X229.474 Y178.596 E.10057
G1 X229.552 Y179.632 E.10058
G1 X229.762 Y180.649 E.10056
G1 X230.1 Y181.631 E.10057
G1 X230.467 Y182.396 E.08222
G1 X230.686 Y182.756 E.04079
G1 X230.501 Y184.079 E.1293
G1 X230.131 Y185.939 E.18371
G1 X229.796 Y187.232 E.12929
G1 X229.456 Y187.481 E.04079
G1 X228.691 Y188.183 E.10057
G1 X228.021 Y188.977 E.10058
G1 X227.458 Y189.849 E.10056
G1 X227.011 Y190.787 E.10057
G1 X226.687 Y191.774 E.10057
G1 X226.492 Y192.794 E.10057
G1 X226.428 Y193.83 E.10057
G1 X226.475 Y194.678 E.08222
G1 X226.539 Y195.093 E.04062
G1 X225.821 Y196.306 E.13658
G1 X224.808 Y197.822 E.17656
G1 X224.004 Y198.889 E.12929
G1 X223.595 Y198.988 E.04079
G1 X222.619 Y199.344 E.10057
G1 X221.696 Y199.821 E.10057
G1 X220.842 Y200.412 E.10057
G1 X220.071 Y201.107 E.10057
G1 X219.394 Y201.895 E.10058
G1 X218.823 Y202.762 E.10057
G1 X218.368 Y203.696 E.10057
G1 X218.086 Y204.497 E.08222
G1 X217.987 Y204.906 E.04079
G1 X216.92 Y205.71 E.12929
G1 X215.343 Y206.764 E.18372
G1 X214.192 Y207.442 E.12929
G1 X213.776 Y207.377 E.04079
G1 X212.738 Y207.332 E.10057
G1 X211.703 Y207.42 E.10057
G1 X210.688 Y207.639 E.10057
G1 X209.709 Y207.986 E.10058
G1 X208.782 Y208.454 E.10056
G1 X207.923 Y209.038 E.10057
G1 X207.145 Y209.726 E.10057
G1 X206.579 Y210.358 E.08222
G1 X206.33 Y210.698 E.04079
G1 X205.037 Y211.033 E.12929
G1 X203.176 Y211.403 E.18372
G1 X201.854 Y211.589 E.1293
G1 X201.494 Y211.37 E.04079
G1 X200.553 Y210.931 E.10057
G1 X199.563 Y210.616 E.10057
G1 X198.541 Y210.43 E.10058
G1 X197.504 Y210.376 E.10056
G1 X196.469 Y210.454 E.10058
G1 X195.451 Y210.664 E.10056
G1 X194.469 Y211.002 E.10057
G1 X193.704 Y211.369 E.08222
G1 X193.344 Y211.589 E.04079
G1 X192.022 Y211.403 E.1293
G1 X190.161 Y211.033 E.18371
G1 X188.868 Y210.698 E.12929
G1 X188.62 Y210.358 E.04079
G1 X187.918 Y209.593 E.10057
G1 X187.124 Y208.923 E.10058
G1 X186.251 Y208.36 E.10056
G1 X185.314 Y207.913 E.10057
G1 X184.327 Y207.589 E.10057
G1 X183.307 Y207.394 E.10057
G1 X182.27 Y207.33 E.10057
G1 X181.422 Y207.377 E.08222
G1 X181.006 Y207.442 E.04079
G1 X179.855 Y206.764 E.12929
G1 X178.278 Y205.71 E.18372
G1 X177.212 Y204.906 E.1293
G1 X177.112 Y204.497 E.04079
G1 X176.756 Y203.521 E.10057
G1 X176.279 Y202.599 E.10057
G1 X175.688 Y201.744 E.10057
G1 X174.993 Y200.973 E.10058
G1 X174.206 Y200.296 E.10056
G1 X173.338 Y199.725 E.10057
G1 X172.405 Y199.27 E.10057
G1 X171.603 Y198.988 E.08222
G1 X171.194 Y198.889 E.04079
G1 X170.39 Y197.822 E.12929
G1 X169.336 Y196.245 E.18372
G1 X168.659 Y195.094 E.1293
G1 X168.723 Y194.678 E.04079
G1 X168.768 Y193.64 E.10058
G1 X168.681 Y192.606 E.10057
G1 X168.461 Y191.59 E.10058
G1 X168.115 Y190.611 E.10057
G1 X167.646 Y189.685 E.10057
G1 X167.063 Y188.825 E.10057
G1 X166.375 Y188.047 E.10057
G1 X165.742 Y187.481 E.08222
G1 X165.402 Y187.232 E.04079
G1 X165.068 Y185.939 E.12929
G1 X164.697 Y184.079 E.18372
G1 X164.512 Y182.756 E.1293
G1 X164.731 Y182.396 E.04079
G1 X165.169 Y181.455 E.10058
G1 X165.484 Y180.465 E.10057
G1 X165.67 Y179.443 E.10057
G1 X165.725 Y178.406 E.10057
G1 X165.646 Y177.371 E.10058
G1 X165.436 Y176.354 E.10056
G1 X165.098 Y175.371 E.10057
G1 X164.731 Y174.606 E.08222
G1 X164.512 Y174.246 E.04079
G1 X164.698 Y172.924 E.1293
G1 X165.068 Y171.063 E.18371
G1 X165.402 Y169.77 E.12929
G1 X165.742 Y169.522 E.04079
G1 X166.508 Y168.82 E.10057
G1 X167.177 Y168.026 E.10058
G1 X167.74 Y167.153 E.10056
G1 X168.187 Y166.216 E.10057
G1 X168.511 Y165.229 E.10057
G1 X168.706 Y164.209 E.10057
G1 X168.77 Y163.172 E.10057
G1 X168.723 Y162.324 E.08222
G1 X168.661 Y161.922 E.03945
G1 X168.034 Y161.799 F48000
G1 F7200
G1 X168.874 Y160.379 E.15972
G1 X169.906 Y158.836 E.17977
G1 X170.853 Y157.579 E.15242
G1 X171.407 Y157.454 E.05493
G1 X172.312 Y157.128 E.09323
G1 X173.169 Y156.689 E.09323
G1 X173.963 Y156.144 E.09323
G1 X174.682 Y155.503 E.09323
G1 X175.312 Y154.775 E.09323
G1 X175.844 Y153.973 E.09323
G1 X176.27 Y153.11 E.09323
G1 X176.551 Y152.309 E.08222
G1 X176.677 Y151.755 E.05493
G1 X177.934 Y150.808 E.15242
G1 X179.539 Y149.735 E.18699
G1 X180.896 Y148.936 E.15242
G1 X181.455 Y149.032 E.05493
G1 X182.417 Y149.078 E.09323
G1 X183.376 Y149 E.09323
G1 X184.318 Y148.801 E.09322
G1 X185.227 Y148.483 E.09323
G1 X186.088 Y148.052 E.09323
G1 X186.887 Y147.515 E.09323
G1 X187.611 Y146.88 E.09322
G1 X188.177 Y146.248 E.08222
G1 X188.505 Y145.785 E.05494
G1 X190.029 Y145.39 E.15242
G1 X191.922 Y145.014 E.18699
G1 X193.481 Y144.795 E.15243
G1 X193.961 Y145.097 E.05493
G1 X194.832 Y145.507 E.09323
G1 X195.748 Y145.803 E.09323
G1 X196.695 Y145.98 E.09322
G1 X197.656 Y146.034 E.09324
G1 X198.616 Y145.965 E.09322
G1 X199.56 Y145.774 E.09323
G1 X200.472 Y145.465 E.09323
G1 X201.237 Y145.097 E.08222
G1 X201.717 Y144.795 E.05494
G1 X203.276 Y145.014 E.15243
G1 X205.17 Y145.39 E.18699
G1 X206.694 Y145.785 E.15242
G1 X207.021 Y146.248 E.05494
G1 X207.669 Y146.96 E.09323
G1 X208.402 Y147.584 E.09323
G1 X209.209 Y148.109 E.09323
G1 X210.076 Y148.527 E.09322
G1 X210.99 Y148.831 E.09323
G1 X211.935 Y149.016 E.09323
G1 X212.896 Y149.079 E.09323
G1 X213.743 Y149.032 E.08222
G1 X214.302 Y148.936 E.05493
G1 X215.659 Y149.735 E.15242
G1 X217.265 Y150.808 E.18699
G1 X218.522 Y151.755 E.15242
G1 X218.647 Y152.309 E.05493
G1 X218.973 Y153.215 E.09323
G1 X219.411 Y154.072 E.09323
G1 X219.956 Y154.866 E.09323
G1 X220.597 Y155.584 E.09323
G1 X221.325 Y156.214 E.09322
G1 X222.127 Y156.746 E.09323
G1 X222.991 Y157.172 E.09322
G1 X223.792 Y157.454 E.08222
G1 X224.345 Y157.579 E.05493
G1 X225.293 Y158.836 E.15242
G1 X226.365 Y160.441 E.18699
G1 X227.164 Y161.798 E.15242
G1 X227.068 Y162.357 E.05493
G1 X227.023 Y163.319 E.09323
G1 X227.1 Y164.278 E.09322
G1 X227.299 Y165.22 E.09323
G1 X227.617 Y166.129 E.09322
G1 X228.048 Y166.99 E.09323
G1 X228.585 Y167.789 E.09323
G1 X229.22 Y168.513 E.09322
G1 X229.853 Y169.079 E.08222
G1 X230.316 Y169.407 E.05493
G1 X230.71 Y170.931 E.15242
G3 X231.104 Y172.949 I-154.437 J31.211 E.1991
G1 X231.306 Y174.383 E.1403
G1 X231.003 Y174.863 E.05493
G1 X230.593 Y175.734 E.09323
G1 X230.297 Y176.65 E.09322
G1 X230.121 Y177.597 E.09323
G1 X230.067 Y178.558 E.09323
G1 X230.135 Y179.519 E.09323
G1 X230.326 Y180.462 E.09322
G1 X230.636 Y181.374 E.09323
G1 X231.003 Y182.139 E.08222
G1 X231.306 Y182.619 E.05493
G1 X231.087 Y184.178 E.15243
G1 X230.71 Y186.072 E.18699
G1 X230.316 Y187.596 E.15242
G1 X229.853 Y187.923 E.05493
G1 X229.14 Y188.571 E.09323
G1 X228.516 Y189.304 E.09323
G1 X227.991 Y190.111 E.09322
G1 X227.573 Y190.979 E.09323
G1 X227.269 Y191.892 E.09323
G1 X227.084 Y192.837 E.09323
G1 X227.021 Y193.798 E.09323
G1 X227.068 Y194.645 E.08222
G1 X227.164 Y195.203 E.05483
G1 X226.324 Y196.623 E.15972
G1 X225.293 Y198.167 E.17977
G1 X224.345 Y199.424 E.15242
G1 X223.792 Y199.549 E.05493
G1 X222.886 Y199.875 E.09323
G1 X222.029 Y200.314 E.09323
G1 X221.235 Y200.858 E.09323
G1 X220.517 Y201.499 E.09323
G1 X219.886 Y202.227 E.09323
G1 X219.354 Y203.029 E.09323
G1 X218.928 Y203.893 E.09323
G1 X218.647 Y204.694 E.08222
G1 X218.522 Y205.247 E.05493
G1 X217.265 Y206.195 E.15242
G1 X215.659 Y207.267 E.18699
G1 X214.302 Y208.066 E.15242
G1 X213.743 Y207.97 E.05493
G1 X212.782 Y207.925 E.09323
G1 X211.822 Y208.002 E.09323
G1 X210.88 Y208.201 E.09322
G1 X209.971 Y208.519 E.09324
G1 X209.11 Y208.95 E.09321
G1 X208.311 Y209.487 E.09323
G1 X207.588 Y210.122 E.09323
G1 X207.021 Y210.755 E.08222
G1 X206.694 Y211.218 E.05493
G1 X205.17 Y211.612 E.15242
G1 X203.276 Y211.989 E.18699
G1 X201.717 Y212.208 E.15243
G1 X201.237 Y211.905 E.05493
G1 X200.366 Y211.495 E.09323
G1 X199.45 Y211.199 E.09323
G1 X198.503 Y211.023 E.09324
G1 X197.542 Y210.969 E.09321
G1 X196.582 Y211.037 E.09324
G1 X195.638 Y211.228 E.09322
G1 X194.727 Y211.538 E.09323
G1 X193.961 Y211.905 E.08222
G1 X193.481 Y212.208 E.05493
G1 X191.922 Y211.989 E.15243
G1 X190.029 Y211.612 E.18699
G1 X188.505 Y211.218 E.15242
G1 X188.177 Y210.755 E.05493
G1 X187.529 Y210.042 E.09323
G1 X186.796 Y209.418 E.09324
G1 X185.989 Y208.893 E.09322
G1 X185.122 Y208.475 E.09323
G1 X184.208 Y208.171 E.09323
G1 X183.263 Y207.986 E.09323
G1 X182.303 Y207.924 E.09323
G1 X181.455 Y207.97 E.08222
