; HEADER_BLOCK_START
; generated by OrcaSlicer 1.6.3 on 2023-11-02 at 21:36:17
; total layer number: 25
; HEADER_BLOCK_END

; THUMBNAIL_BLOCK_START
; THUMBNAIL_BLOCK_END

; external perimeters extrusion width = 0.62mm
; perimeters extrusion width = 0.62mm
; infill extrusion width = 0.65mm
; solid infill extrusion width = 0.65mm
; top infill extrusion width = 0.65mm
; first layer extrusion width = 0.68mm

; EXECUTABLE_BLOCK_START
EXCLUDE_OBJECT_DEFINE NAME=lid_screw.stl_id_0_copy_0 CENTER=173.698,169.773 POLYGON=[[139.261,165.933],[139.535,163.982],[139.919,162.05],[140.413,160.143],[143.352,153.047],[144.352,151.35],[145.446,149.712],[146.632,148.139],[152.063,142.708],[153.636,141.522],[155.274,140.427],[156.972,139.428],[164.067,136.489],[165.975,135.995],[167.907,135.611],[169.858,135.337],[177.539,135.337],[179.49,135.611],[181.422,135.995],[183.329,136.489],[190.425,139.428],[192.123,140.427],[193.761,141.522],[195.334,142.708],[200.765,148.139],[201.95,149.712],[203.045,151.35],[204.044,153.047],[206.984,160.143],[207.477,162.05],[207.861,163.982],[208.135,165.933],[208.135,173.614],[207.861,175.565],[207.477,177.497],[206.984,179.404],[204.044,186.5],[203.045,188.197],[201.95,189.835],[200.765,191.408],[195.334,196.839],[193.761,198.025],[192.123,199.119],[190.425,200.119],[183.329,203.058],[181.422,203.552],[179.49,203.936],[177.539,204.21],[169.858,204.21],[167.907,203.936],[165.975,203.552],[164.067,203.058],[156.972,200.119],[155.274,199.119],[153.636,198.025],[152.063,196.839],[146.632,191.408],[145.446,189.835],[144.352,188.197],[143.352,186.5],[140.413,179.404],[139.919,177.497],[139.535,175.565],[139.261,173.614],[139.261,165.933]]
M73 P0 R12
;TYPE:Custom
M104 S0
M140 S0
START_PRINT BED=100 HOTEND=260
G90
G21
M83 ; use relative distances for extrusion
; filament start gcode
M106 S0
;LAYER_CHANGE
;Z:0.4
;HEIGHT:0.4
;BEFORE_LAYER_CHANGE
;0.4
G92 E0

G1 E-.4 F4200
;DSLR_SNAPSHOT
TIMELAPSE_TAKE_FRAME
M204 S5000
G1 X145.569 Y145.569 F48000
G1 Z.4
G1 E.4 F4200
;TYPE:Skirt
;WIDTH:0.68
G1 F7200
G1 X150.503 Y140.636 E.67557
G1 X152.196 Y139.365 E.20503
G1 X153.834 Y138.271 E.19076
G1 X155.656 Y137.193 E.20503
G1 X163.419 Y133.977 E.81359
G1 X165.47 Y133.451 E.20503
G1 X167.402 Y133.067 E.19076
G1 X169.498 Y132.768 E.20503
G1 X177.9 Y132.768 E.81359
G1 X179.851 Y133.042 E.19076
G1 X181.928 Y133.451 E.20503
G1 X183.979 Y133.977 E.20503
G1 X191.741 Y137.192 E.81359
G1 X193.626 Y138.312 E.2123
G1 X195.322 Y139.45 E.19776
G1 X196.895 Y140.636 E.19076
G1 X202.836 Y146.577 E.81358
G1 X204.022 Y148.15 E.19075
G1 X205.202 Y149.908 E.20503
G1 X206.28 Y151.731 E.20503
G1 X209.495 Y159.493 E.81358
G1 X210.021 Y161.544 E.20503
G1 X210.406 Y163.476 E.19076
G1 X210.704 Y165.572 E.20503
G1 X210.704 Y173.974 E.81359
G1 X210.406 Y176.071 E.20503
G1 X210.021 Y178.003 E.19075
G1 X209.495 Y180.054 E.20503
G1 X206.28 Y187.816 E.81358
G1 X205.161 Y189.7 E.21221
G1 X204.022 Y191.397 E.19784
G1 X202.836 Y192.97 E.19076
G1 X196.895 Y198.911 E.81358
G1 X195.202 Y200.182 E.20503
G1 X193.564 Y201.276 E.19076
G1 X191.741 Y202.354 E.20503
G1 X183.979 Y205.57 E.81359
G1 X181.928 Y206.096 E.20503
G1 X179.996 Y206.48 E.19075
G1 X177.9 Y206.779 E.20503
G1 X169.498 Y206.779 E.81359
G1 X167.326 Y206.465 E.21249
G1 X165.326 Y206.063 E.19756
G1 X163.419 Y205.57 E.19075
G1 X155.656 Y202.354 E.81359
G1 X153.834 Y201.276 E.20503
G1 X152.196 Y200.182 E.19076
G1 X150.502 Y198.911 E.20503
G1 X144.561 Y192.97 E.81358
G1 X143.376 Y191.397 E.19076
G1 X142.196 Y189.638 E.20503
G1 X141.118 Y187.816 E.20503
G1 X137.903 Y180.054 E.81358
G1 X137.376 Y178.003 E.20503
M73 P0 R11
G1 X136.992 Y176.071 E.19076
G1 X136.693 Y173.974 E.20503
G1 X136.693 Y165.572 E.81359
G1 X136.992 Y163.476 E.20503
G1 X137.376 Y161.544 E.19076
G1 X137.903 Y159.493 E.20503
G1 X141.118 Y151.731 E.81358
G1 X142.24 Y149.843 E.21269
G1 X143.376 Y148.15 E.19737
G1 X144.561 Y146.577 E.19076
G1 X145.506 Y145.633 E.1293
; printing object lid_screw.stl id:0 copy 0
EXCLUDE_OBJECT_START NAME=lid_screw.stl_id_0_copy_0
G1 E-.4 F4200
G1 X174.585 Y183.893 F48000
G1 E.4 F4200
;TYPE:Inner wall
;WIDTH:0.679982
G1 F7200
G1 X174.772 Y184.317 E.04488
G1 X175.126 Y184.58 E.04274
G1 X175.745 Y184.738 E.06181
G1 X176.073 Y184.877 E.03448
G1 X176.155 Y185.019 E.01589
G1 X176.152 Y185.374 E.03432
G1 X175.985 Y185.63 E.02962
G1 X175.757 Y185.74 E.02451
G1 X175.177 Y185.858 E.05731
G1 X174.46 Y185.888 E.0695
G1 X173.929 Y185.832 E.05172
G1 X173.595 Y185.741 E.03349
G1 X173.397 Y185.63 E.02202
G1 X173.299 Y185.464 E.01865
G1 X173.255 Y185.144 E.03125
G1 X173.325 Y184.922 E.02252
G3 X174.131 Y184.651 I1.51 J3.15 E.08257
G1 X174.455 Y184.338 E.04362
G1 X174.581 Y183.904 E.04372
G1 E-.4 F4200
G1 X174.723 Y185.07 F48000
G1 E.4 F4200
;WIDTH:0.940307
G1 F7200
G1 X174.616 Y185.07 E.01487
G1 X174.563 Y185.162 E.01487
G1 X174.616 Y185.255 E.01487
G1 X174.723 Y185.255 E.01487
G1 X174.776 Y185.162 E.01487
G1 E-.4 F4200
G1 X174.569 Y183.604 F48000
G1 E.4 F4200
;WIDTH:0.757502
G1 F7200
G1 X174.441 Y182.777 E.09153
;WIDTH:0.79917
G1 X174.313 Y181.951 E.09721
;WIDTH:0.840838
G1 X174.185 Y181.125 E.10289
G1 X173.931 Y180.681 E.06292
G1 X175.136 Y180.68 E.1482
G1 X174.949 Y180.999 E.04547
G2 X174.809 Y181.949 I19.032 J3.304 E.11816
;WIDTH:0.79917
G1 X174.689 Y182.776 E.09721
;WIDTH:0.757502
G1 X174.571 Y183.592 E.09022
G1 E-.4 F4200
G1 X170.195 Y181.181 F48000
G1 E.4 F4200
;WIDTH:0.68
G1 F7200
G1 X170.045 Y181.158 E.01472
G1 X169.513 Y180.917 E.05661
G1 X169.18 Y180.586 E.04545
G1 X168.967 Y180.17 E.04528
G1 X168.895 Y179.711 E.04494
G1 X168.895 Y177.08 E.25477
G3 X169.249 Y176.118 I1.672 J.069 E.10093
G1 X169.627 Y175.8 E.04785
G1 X169.877 Y175.72 E.0254
G1 X169.627 Y175.64 E.0254
G1 X169.249 Y175.322 E.04785
G1 X169.013 Y174.941 E.04336
G1 X168.901 Y174.5 E.04413
G3 X168.895 Y171.729 I226.757 J-1.926 E.26833
G1 X168.959 Y171.297 E.04222
G3 X169.197 Y170.831 I1.421 J.431 E.05097
G1 X169.441 Y170.603 E.03234
G1 X169.197 Y170.374 E.03234
G1 X168.991 Y170.003 E.04106
G1 X168.899 Y169.589 E.04112
G3 X168.9 Y168.013 I120.411 J-.698 E.1526
G1 X168.948 Y167.502 E.04973
G3 X169.148 Y166.444 I3.739 J.161 E.1046
G1 X168.953 Y165.982 E.04854
G1 X168.792 Y165.376 E.06077
G1 X168.713 Y164.616 E.074
G1 X168.745 Y163.864 E.0729
G1 X168.949 Y162.924 E.09312
G1 X169.28 Y162.161 E.08057
G1 X169.549 Y161.701 E.05161
G1 X169.739 Y161.47 E.02891
G1 X169.506 Y161.365 E.02471
G1 X169.179 Y161.038 E.04481
G1 X169.025 Y160.771 E.02983
G1 X168.997 Y160.641 E.01285
G1 X168.518 Y160.609 E.04648
G1 X168.095 Y160.45 E.04373
G1 X167.736 Y160.167 E.04431
G1 X167.54 Y159.903 E.03184
G1 X166.089 Y157.407 E.27956
G1 X165.93 Y157.012 E.04123
G1 X165.888 Y156.622 E.03801
G1 X165.952 Y156.227 E.03878
G1 X166.194 Y155.733 E.05325
G1 X166.443 Y155.43 E.03794
G1 X166.78 Y155.194 E.03981
G1 X167.191 Y155.055 E.04208
G3 X168.895 Y155.032 I1.34 J35.175 E.16497
G1 X169 Y154.467 E.0556
G1 X169.245 Y154.058 E.04616
G1 X169.527 Y153.801 E.03694
G1 X169.94 Y153.598 E.04455
G1 X170.38 Y153.532 E.0431
G1 X172.566 Y153.532 E.21166
G1 X173.031 Y153.606 E.04564
G1 X173.385 Y153.778 E.03807
G1 X173.762 Y154.136 E.05033
G1 X173.97 Y154.533 E.04344
G1 X174.051 Y155.031 E.04885
G1 X175.357 Y155.031 E.1264
G1 X175.362 Y154.546 E.04692
G1 X175.577 Y154.153 E.04344
G1 X175.961 Y153.802 E.05033
G1 X176.403 Y153.613 E.04656
G3 X178.735 Y153.344 I9.212 J69.489 E.22729
G1 X179.207 Y153.368 E.04581
G1 X179.652 Y153.541 E.04628
G1 X179.95 Y153.772 E.03646
G1 X180.199 Y154.105 E.04027
G1 X180.444 Y154.703 E.06258
G3 X180.715 Y157.607 I-6.26 J2.049 E.28482
G1 X180.569 Y158.194 E.05851
G1 X180.222 Y158.973 E.0826
G1 X179.82 Y159.528 E.06634
G3 X179.251 Y160.006 I-2.124 J-1.955 E.0722
G1 X179.586 Y160.07 E.03311
G1 X179.93 Y160.238 E.03704
G1 X180.255 Y160.529 E.04225
G1 X180.485 Y160.91 E.04313
G1 X180.594 Y161.36 E.04482
G3 X180.598 Y164.109 I-253.261 J1.806 E.26619
G3 X180.222 Y165.097 I-1.672 J-.071 E.10412
G1 X179.84 Y165.404 E.04746
G1 X179.561 Y165.477 E.02793
G1 X179.84 Y165.551 E.02793
G1 X180.222 Y165.858 E.04746
G1 X180.47 Y166.241 E.0442
G1 X180.591 Y166.699 E.04586
G3 X180.598 Y169.477 I-143.973 J1.763 E.26895
G1 X180.538 Y169.895 E.04097
G1 X180.31 Y170.356 E.04977
G1 X180.054 Y170.603 E.03438
G1 X180.31 Y170.849 E.03438
G1 X180.538 Y171.31 E.04977
G1 X180.598 Y171.734 E.0415
G1 X180.593 Y173.196 E.14155
G1 X180.487 Y174.234 E.10105
G3 X180.342 Y174.791 I-2.392 J-.325 E.05591
G1 X180.62 Y175.51 E.07464
G1 X180.701 Y175.863 E.035
M73 P1 R11
G1 X180.777 Y176.579 E.06978
G1 X180.748 Y177.347 E.07438
G3 X180.487 Y178.447 I-10.177 J-1.829 E.10957
G1 X180.139 Y179.157 E.07659
G1 X179.915 Y179.501 E.03975
G1 X179.505 Y179.977 E.06081
G3 X178.563 Y180.657 I-3.45 J-3.78 E.11271
G1 X179.179 Y181.155 E.0767
G3 X179.804 Y181.861 I-3.405 J3.642 E.09138
G1 X180.183 Y182.494 E.0714
G1 X180.5 Y183.275 E.08163
G1 X180.646 Y183.877 E.06007
G1 X180.773 Y184.855 E.09543
G3 X180.543 Y187.05 I-7.406 J.334 E.21459
G3 X178.925 Y189.572 I-5.138 J-1.517 E.29403
G3 X175.356 Y190.936 I-3.84 J-4.694 E.37643
G1 X174.391 Y190.954 E.09346
G1 X173.779 Y190.901 E.05946
G1 X172.833 Y190.734 E.09302
G1 X172.133 Y190.509 E.07124
G3 X169.343 Y188.023 I1.996 J-5.05 E.36935
G1 X169.031 Y187.292 E.07694
G1 X168.824 Y186.504 E.07892
G3 X168.716 Y184.893 I6.942 J-1.278 E.15668
G1 X168.76 Y184.392 E.04876
G3 X169.172 Y182.737 I6.049 J.626 E.16569
G1 X169.602 Y181.951 E.08674
G1 X170.102 Y181.334 E.07694
G1 X170.25 Y181.189 E.02005
G1 X170.207 Y181.182 E.00417
G1 X170.301 Y180.593 F48000
G1 F7200
G1 X170.179 Y180.58 E.01189
G1 X169.86 Y180.435 E.03397
G1 X169.611 Y180.162 E.03569
G1 X169.497 Y179.832 E.03383
G3 X169.489 Y177.08 I182.511 J-1.921 E.26647
G1 X169.56 Y176.731 E.03449
G1 X169.701 Y176.503 E.02602
G1 X169.928 Y176.312 E.02871
;WIDTH:0.724284
G1 X170.02 Y176.26 E.01096
;WIDTH:0.768568
G1 X170.112 Y176.208 E.01172
;WIDTH:0.812852
G1 X170.203 Y176.156 E.01248
;WIDTH:0.857136
G3 X170.38 Y176.103 I.137 J.134 E.02417
;WIDTH:0.851939
G1 X174.54 Y176.102 E.51946
;WIDTH:0.849283
G1 X175.41 Y176.099 E.10824
;WIDTH:0.825863
G1 X175.922 Y176.078 E.06181
;WIDTH:0.811548
G1 X176.206 Y176.04 E.0339
G1 X176.2 Y175.757 E.03347
G1 X176.047 Y175.495 E.03585
G1 X175.836 Y175.4 E.02741
;WIDTH:0.843783
G1 X174.844 Y175.347 E.12278
;WIDTH:0.849283
G1 X174.54 Y175.339 E.03778
;WIDTH:0.851942
G1 X170.379 Y175.337 E.51951
;WIDTH:0.857136
G3 X170.203 Y175.284 I-.04 J-.187 E.02414
;WIDTH:0.812852
G1 X170.112 Y175.232 E.01248
;WIDTH:0.768568
G1 X170.02 Y175.18 E.01172
;WIDTH:0.724284
G1 X169.928 Y175.128 E.01096
;WIDTH:0.68
G1 X169.701 Y174.937 E.02871
G1 X169.523 Y174.603 E.0367
G1 X169.489 Y174.36 E.02378
G1 X169.489 Y171.729 E.25478
G1 X169.547 Y171.413 E.03112
G1 X169.67 Y171.19 E.02464
G1 X169.89 Y170.984 E.02912
G1 X170.135 Y170.926 E.0244
;WIDTH:0.648826
G1 X170.38 Y170.869 E.02312
;WIDTH:0.617654
G1 X179.113 Y170.869 E.75688
;WIDTH:0.648827
G1 X179.364 Y170.93 E.02369
;WIDTH:0.68
G1 X179.614 Y170.992 E.025
G1 X179.831 Y171.201 E.02917
G1 X179.985 Y171.546 E.03655
G3 X179.999 Y173.192 I-38.25 J1.138 E.15947
G1 X179.896 Y174.169 E.09513
G1 X179.807 Y174.496 E.03279
G1 X179.589 Y174.687 E.02807
G1 X179.883 Y175.197 E.05703
G1 X180.058 Y175.702 E.0517
G1 X180.187 Y176.642 E.09187
G1 X180.155 Y177.307 E.06447
G3 X179.887 Y178.34 I-6.881 J-1.233 E.10346
G1 X179.586 Y178.933 E.06443
G1 X179.055 Y179.588 E.08164
G1 X178.411 Y180.066 E.07767
G1 X177.74 Y180.346 E.07034
G3 X176.973 Y180.527 I-5.171 J-20.161 E.07637
G3 X178.145 Y181.089 I-2.281 J6.267 E.12608
G1 X178.8 Y181.612 E.08118
G1 X179.342 Y182.235 E.07996
G1 X179.664 Y182.784 E.06157
G1 X179.943 Y183.482 E.07279
G1 X180.066 Y184.004 E.05193
G1 X180.182 Y184.91 E.08852
G3 X179.966 Y186.912 I-6.724 J.286 E.19569
G3 X179.126 Y188.507 I-4.792 J-1.503 E.17549
G1 X178.608 Y189.052 E.07276
G1 X177.981 Y189.534 E.07667
G1 X177.342 Y189.874 E.0701
G1 X176.702 Y190.104 E.06582
G1 X175.888 Y190.286 E.08073
G3 X172.955 Y190.152 I-1.101 J-8.09 E.28589
G3 X171.213 Y189.331 I1.485 J-5.408 E.18742
G3 X170.211 Y188.31 I3.57 J-4.507 E.13885
G1 X169.868 Y187.744 E.06409
G1 X169.583 Y187.071 E.07077
G3 X169.31 Y184.894 I5.882 J-1.844 E.21363
G3 X169.729 Y182.943 I6.116 J.294 E.19409
G1 X170.116 Y182.249 E.07693
G1 X170.552 Y181.722 E.06619
G1 X171.065 Y181.279 E.06574
G1 X171.665 Y180.906 E.06833
G1 X172.335 Y180.606 E.07113
G2 X170.381 Y180.603 I-1.19 J136.419 E.18923
G1 X170.313 Y180.595 E.0066
G1 X170.187 Y179.937 F48000
;TYPE:Outer wall
G1 F7200
G1 X170.086 Y179.752 E.02043
G3 X170.083 Y177.08 I492.342 J-1.841 E.25867
G1 X170.154 Y176.888 E.01986
G1 X170.354 Y176.784 E.02184
G1 X174.843 Y176.781 E.43468
G2 X176.229 Y176.715 I.079 J-13.024 E.13438
G1 X176.486 Y176.65 E.0257
G1 X176.739 Y176.447 E.03139
G1 X176.848 Y176.197 E.02645
G2 X176.868 Y175.668 I-1.912 J-.337 E.05143
G1 X176.748 Y175.329 E.03478
G1 X176.514 Y175.017 E.03781
G1 X176.259 Y174.836 E.03025
G1 X175.912 Y174.744 E.03483
G2 X174.541 Y174.66 I-1.918 J20.062 E.13301
G1 X170.38 Y174.657 E.40291
G1 X170.23 Y174.616 E.01509
G1 X170.099 Y174.455 E.02003
G3 X170.083 Y171.725 I89.161 J-1.882 E.26439
G1 X170.143 Y171.549 E.01804
G1 X170.38 Y171.432 E.02559
G1 X179.113 Y171.432 E.84562
G1 X179.28 Y171.483 E.01694
G1 X179.401 Y171.658 E.02062
G3 X179.405 Y173.188 I-69.698 J.906 E.14821
G1 X179.306 Y174.104 E.08921
G1 X179.274 Y174.234 E.01296
G1 X179.07 Y174.394 E.02502
G1 X178.675 Y174.407 E.03831
G3 X179.32 Y175.398 I-4.318 J3.517 E.11464
G1 X179.495 Y175.893 E.05094
G1 X179.596 Y176.704 E.07914
G1 X179.562 Y177.267 E.05456
G3 X179.357 Y178.071 I-11.339 J-2.462 E.08038
G1 X179.056 Y178.665 E.06443
G1 X178.606 Y179.2 E.06775
G1 X178.074 Y179.576 E.06303
G3 X176.976 Y179.919 I-1.712 J-3.559 E.11184
;WIDTH:0.715746
G1 X176.697 Y179.965 E.02902
;WIDTH:0.751493
G1 X176.418 Y180.011 E.03067
;WIDTH:0.78724
G1 X176.139 Y180.057 E.03232
;WIDTH:0.818483
G3 X175.413 Y180.051 I-.335 J-3.325 E.08684
;WIDTH:0.772322
G1 X175.046 Y180.028 E.04111
;WIDTH:0.726161
G1 X174.68 Y180.005 E.03834
;WIDTH:0.700062
G1 X173.746 Y180.016 E.09348
;WIDTH:0.739913
G1 X173.615 Y180.036 E.01416
;WIDTH:0.779764
G1 X173.483 Y180.056 E.01502
;WIDTH:0.819615
G1 X173.352 Y180.076 E.01589
;WIDTH:0.859466
G3 X173.019 Y180.074 I-.162 J-.622 E.04242
;WIDTH:0.814599
G1 X172.818 Y180.052 E.02405
;WIDTH:0.769733
G1 X172.617 Y180.029 E.02257
;WIDTH:0.724866
G1 X172.416 Y180.007 E.02109
;WIDTH:0.68
G1 X170.38 Y180.008 E.19708
G1 X170.198 Y179.941 E.01882
G1 X170.147 Y179.95
G1 E-.4 F4200
G1 X173.221 Y180.87 F48000
G1 E.4 F4200
;WIDTH:0.859466
G1 F7200
G1 X173.268 Y180.906 E.00742
;WIDTH:0.819615
G1 X173.315 Y180.941 E.00704
;WIDTH:0.779764
G1 X173.361 Y180.977 E.00666
;WIDTH:0.739913
G1 X173.408 Y181.013 E.00628
;WIDTH:0.700062
G1 X173.521 Y181.245 E.02579
;WIDTH:0.68
G1 X173.986 Y183.822 E.25357
G1 X173.948 Y184.029 E.02041
G1 X173.84 Y184.133 E.01454
G2 X173.042 Y184.383 I.592 J3.286 E.08113
G1 X172.863 Y184.535 E.02276
G1 X172.725 Y184.773 E.02663
G1 X172.664 Y185.221 E.04377
G1 X172.679 Y185.482 E.02535
G2 X173.224 Y186.241 I1.141 J-.244 E.09309
G1 X173.698 Y186.404 E.04853
G2 X174.935 Y186.479 I.928 J-5.1 E.12036
G2 X176.049 Y186.277 I-.071 J-3.572 E.11007
G1 X176.36 Y186.1 E.03462
G1 X176.589 Y185.851 E.03277
G1 X176.731 Y185.536 E.0335
G1 X176.758 Y185.047 E.0474
G2 X176.413 Y184.38 I-.894 J.039 E.07507
G1 X175.886 Y184.161 E.05527
G1 X175.397 Y184.045 E.04867
G1 X175.234 Y183.943 E.0186
G1 X175.169 Y183.743 E.02041
G1 X175.614 Y181.112 E.25838
;WIDTH:0.726744
G1 X175.705 Y180.913 E.02287
;WIDTH:0.772613
G1 X175.775 Y180.857 E.00995
;WIDTH:0.818483
G1 X175.844 Y180.801 E.01061
G1 X176.062 Y180.841 E.02645
;WIDTH:0.78724
G1 X176.252 Y180.912 E.02323
;WIDTH:0.751493
G1 X176.443 Y180.983 E.02205
;WIDTH:0.715746
G1 X176.633 Y181.054 E.02086
;WIDTH:0.68
G1 X177.216 Y181.268 E.06011
G1 X177.85 Y181.604 E.06949
G1 X178.42 Y182.07 E.07134
G1 X178.881 Y182.609 E.06868
G1 X179.145 Y183.073 E.05174
G1 X179.386 Y183.689 E.06395
G3 X179.388 Y186.774 I-5.757 J1.546 E.30217
G3 X178.573 Y188.254 I-4.249 J-1.374 E.16466
G3 X177.617 Y189.064 I-4.778 J-4.673 E.12149
