; HEADER_BLOCK_START
; generated by OrcaSlicer 1.6.3 on 2023-11-02 at 21:19:03
; total layer number: 25
; HEADER_BLOCK_END

; THUMBNAIL_BLOCK_START
; THUMBNAIL_BLOCK_END

; external perimeters extrusion width = 0.62mm
; perimeters extrusion width = 0.62mm
; infill extrusion width = 0.65mm
; solid infill extrusion width = 0.65mm
; top infill extrusion width = 0.65mm
; first layer extrusion width = 0.68mm

; EXECUTABLE_BLOCK_START
EXCLUDE_OBJECT_DEFINE NAME=lid_screw.stl_id_0_copy_0 CENTER=165,165 POLYGON=[[130.563,161.16],[130.837,159.209],[131.222,157.277],[131.715,155.37],[134.654,148.274],[135.654,146.576],[136.748,144.938],[137.934,143.365],[143.365,137.934],[144.938,136.748],[146.576,135.654],[148.274,134.654],[155.37,131.715],[157.277,131.222],[159.209,130.837],[161.16,130.563],[168.84,130.563],[170.791,130.837],[172.723,131.222],[174.63,131.715],[181.726,134.654],[183.424,135.654],[185.062,136.748],[186.635,137.934],[192.066,143.365],[193.252,144.938],[194.346,146.576],[195.346,148.274],[198.285,155.37],[198.778,157.277],[199.163,159.209],[199.437,161.16],[199.437,168.84],[199.163,170.791],[198.778,172.723],[198.285,174.63],[195.346,181.726],[194.346,183.424],[193.252,185.062],[192.066,186.635],[186.635,192.066],[185.062,193.252],[183.424,194.346],[181.726,195.346],[174.63,198.285],[172.723,198.778],[170.791,199.163],[168.84,199.437],[161.16,199.437],[159.209,199.163],[157.277,198.778],[155.37,198.285],[148.274,195.346],[146.576,194.346],[144.938,193.252],[143.365,192.066],[137.934,186.635],[136.748,185.062],[135.654,183.424],[134.654,181.726],[131.715,174.63],[131.222,172.723],[130.837,170.791],[130.563,168.84],[130.563,161.16]]
M73 P0 R11
;TYPE:Custom
M104 S0
M140 S0
START_PRINT BED=100 HOTEND=260
G90
G21
M83 ; use relative distances for extrusion
; filament start gcode
M106 S0
;LAYER_CHANGE
;Z:0.4
;HEIGHT:0.4
;BEFORE_LAYER_CHANGE
;0.4
G92 E0

G1 E-.4 F4200
;DSLR_SNAPSHOT
TIMELAPSE_TAKE_FRAME
M204 S5000
G1 X138.833 Y138.833 F48000
G1 Z.4
G1 E.4 F4200
;TYPE:Skirt
;WIDTH:0.68
G1 F7200
G1 X141.804 Y135.863 E.4068
G1 X143.497 Y134.591 E.20503
G1 X145.135 Y133.497 E.19076
G1 X146.957 Y132.419 E.20503
G1 X154.72 Y129.204 E.81359
G1 X156.771 Y128.677 E.20503
G1 X158.703 Y128.293 E.19076
G1 X160.799 Y127.995 E.20503
G1 X169.201 Y127.995 E.81359
G1 X171.152 Y128.268 E.19076
G1 X173.229 Y128.677 E.20503
G1 X175.28 Y129.204 E.20503
G1 X183.043 Y132.419 E.81359
G1 X184.865 Y133.497 E.20503
G1 X186.503 Y134.591 E.19076
G1 X188.196 Y135.863 E.20503
G1 X194.137 Y141.804 E.81358
G1 X195.409 Y143.497 E.20503
G1 X196.503 Y145.135 E.19076
G1 X197.581 Y146.957 E.20503
G1 X200.796 Y154.72 E.81358
G1 X201.323 Y156.771 E.20503
G1 X201.707 Y158.703 E.19076
G1 X202.005 Y160.799 E.20503
G1 X202.005 Y169.201 E.81359
G1 X201.707 Y171.297 E.20503
G1 X201.323 Y173.229 E.19075
G1 X200.796 Y175.28 E.20503
G1 X197.581 Y183.043 E.81358
G1 X196.459 Y184.931 E.21273
G1 X195.323 Y186.623 E.19732
G1 X194.137 Y188.196 E.19075
G1 X188.196 Y194.137 E.81358
G1 X186.503 Y195.409 E.20503
G1 X184.865 Y196.503 E.19076
G1 X183.043 Y197.581 E.20503
G1 X175.28 Y200.796 E.81359
G1 X173.229 Y201.323 E.20503
G1 X171.152 Y201.732 E.20503
G1 X169.201 Y202.005 E.19075
G1 X160.799 Y202.005 E.81358
G1 X158.848 Y201.732 E.19076
G1 X156.771 Y201.323 E.20503
G1 X154.72 Y200.796 E.20503
G1 X146.957 Y197.581 E.81359
G1 X145.135 Y196.503 E.20503
G1 X143.497 Y195.409 E.19076
G1 X141.804 Y194.137 E.20503
G1 X135.863 Y188.196 E.81358
G1 X134.591 Y186.503 E.20503
G1 X133.497 Y184.865 E.19076
G1 X132.419 Y183.043 E.20503
G1 X129.204 Y175.28 E.81358
G1 X128.677 Y173.229 E.20503
G1 X128.293 Y171.297 E.19076
G1 X127.995 Y169.201 E.20503
G1 X127.995 Y160.799 E.81359
G1 X128.293 Y158.703 E.20503
G1 X128.677 Y156.771 E.19075
G1 X129.204 Y154.72 E.20503
G1 X132.419 Y146.957 E.81358
G1 X133.541 Y145.069 E.21273
G1 X134.677 Y143.377 E.19732
G1 X135.863 Y141.804 E.19075
G1 X138.769 Y138.897 E.39807
; printing object lid_screw.stl id:0 copy 0
EXCLUDE_OBJECT_START NAME=lid_screw.stl_id_0_copy_0
G1 E-.4 F4200
G1 X144.831 Y138.868 F48000
G1 E.4 F4200
;TYPE:Inner wall
;WIDTH:0.68
G1 F7200
G1 X145.881 Y138.077 E.12737
G1 X147.442 Y137.034 E.18179
G1 X148.576 Y136.366 E.12737
G1 X148.984 Y136.429 E.03999
G1 X150.013 Y136.474 E.09977
G1 X151.04 Y136.387 E.09976
G1 X152.047 Y136.169 E.09977
G1 X153.018 Y135.825 E.09976
G1 X153.937 Y135.36 E.09977
G1 X154.79 Y134.781 E.09977
G1 X155.562 Y134.099 E.09976
G1 X156.123 Y133.472 E.08141
G1 X156.366 Y133.139 E.03999
G1 X157.64 Y132.81 E.12737
G1 X159.481 Y132.443 E.18179
G1 X160.784 Y132.261 E.12737
G1 X161.137 Y132.475 E.03999
G1 X162.071 Y132.91 E.09977
G1 X163.052 Y133.222 E.09976
G1 X164.066 Y133.407 E.09976
G1 X165.095 Y133.461 E.09978
G1 X166.122 Y133.383 E.09975
G1 X167.131 Y133.174 E.09977
G1 X168.105 Y132.839 E.09976
G1 X168.863 Y132.475 E.08141
G1 X169.216 Y132.261 E.03999
G1 X170.519 Y132.443 E.12737
G1 X172.36 Y132.81 E.18179
G1 X173.634 Y133.139 E.12737
G1 X173.877 Y133.472 E.03999
G1 X174.574 Y134.232 E.09976
G1 X175.361 Y134.896 E.09977
G1 X176.227 Y135.454 E.09978
G1 X177.157 Y135.898 E.09975
G1 X178.136 Y136.219 E.09977
G1 X179.148 Y136.412 E.09976
G1 X180.177 Y136.475 E.09977
G1 X181.016 Y136.429 E.08141
G1 X181.424 Y136.366 E.03999
G1 X182.558 Y137.034 E.12737
G1 X184.119 Y138.077 E.18179
G1 X185.169 Y138.868 E.12737
G1 X185.267 Y139.27 E.03999
G1 X185.62 Y140.238 E.09977
G1 X186.093 Y141.153 E.09977
G1 X186.679 Y142 E.09977
G1 X187.369 Y142.765 E.09978
G1 X188.15 Y143.437 E.09975
G1 X189.011 Y144.003 E.09977
G1 X189.937 Y144.455 E.09976
G1 X190.73 Y144.733 E.08141
G1 X191.132 Y144.831 E.03999
G1 X191.923 Y145.881 E.12737
G1 X192.966 Y147.442 E.18179
G1 X193.634 Y148.576 E.12737
G1 X193.571 Y148.984 E.03999
G1 X193.526 Y150.013 E.09977
G1 X193.613 Y151.04 E.09976
G1 X193.831 Y152.047 E.09978
G1 X194.175 Y153.018 E.09975
G1 X194.64 Y153.937 E.09977
G1 X195.219 Y154.79 E.09977
G1 X195.901 Y155.562 E.09976
G1 X196.528 Y156.123 E.08141
G1 X196.861 Y156.366 E.03999
G3 X197.571 Y159.587 I-34.688 J9.343 E.31946
G1 X197.739 Y160.784 E.11703
G1 X197.525 Y161.137 E.03999
G1 X197.09 Y162.071 E.09977
G1 X196.778 Y163.052 E.09976
G1 X196.593 Y164.066 E.09976
G1 X196.539 Y165.095 E.09977
G1 X196.617 Y166.122 E.09977
G1 X196.826 Y167.131 E.09976
G1 X197.161 Y168.105 E.09977
G1 X197.525 Y168.863 E.08141
G1 X197.739 Y169.216 E.03999
G1 X197.557 Y170.519 E.12737
G1 X197.19 Y172.36 E.18179
G1 X196.861 Y173.634 E.12737
G1 X196.528 Y173.877 E.03999
G1 X195.768 Y174.574 E.09977
G1 X195.104 Y175.361 E.09977
G1 X194.546 Y176.227 E.09977
G1 X194.102 Y177.157 E.09976
G1 X193.781 Y178.136 E.09977
G1 X193.588 Y179.148 E.09976
G1 X193.525 Y180.177 E.09977
G1 X193.571 Y181.016 E.08141
G1 X193.633 Y181.422 E.03981
G1 X192.925 Y182.619 E.13465
G1 X191.923 Y184.119 E.17463
G1 X191.132 Y185.169 E.12737
G1 X190.73 Y185.267 E.03999
G1 X189.762 Y185.62 E.09977
G1 X188.847 Y186.093 E.09977
G1 X188 Y186.679 E.09976
G1 X187.235 Y187.369 E.09977
G1 X186.563 Y188.15 E.09976
G1 X185.997 Y189.011 E.09977
G1 X185.545 Y189.937 E.09976
G1 X185.267 Y190.73 E.08141
M73 P1 R11
G1 X185.169 Y191.132 E.03999
G1 X184.119 Y191.923 E.12737
G1 X182.558 Y192.966 E.18179
G1 X181.424 Y193.634 E.12737
G1 X181.016 Y193.571 E.03999
G1 X179.987 Y193.526 E.09977
G1 X178.96 Y193.613 E.09976
G1 X177.953 Y193.831 E.09977
G1 X176.982 Y194.175 E.09977
G1 X176.063 Y194.64 E.09976
G1 X175.21 Y195.219 E.09976
G1 X174.438 Y195.901 E.09977
G1 X173.877 Y196.528 E.08141
G1 X173.634 Y196.861 E.03999
G1 X172.36 Y197.19 E.12737
G1 X170.519 Y197.557 E.18179
G1 X169.216 Y197.739 E.12737
G1 X168.863 Y197.525 E.03999
G1 X167.929 Y197.09 E.09977
G1 X166.948 Y196.778 E.09977
G1 X165.934 Y196.593 E.09977
G1 X164.905 Y196.539 E.09976
G1 X163.878 Y196.617 E.09977
G1 X162.869 Y196.826 E.09976
G1 X161.895 Y197.161 E.09976
G1 X161.137 Y197.525 E.08141
G1 X160.784 Y197.739 E.03999
G1 X159.481 Y197.557 E.12737
G1 X157.64 Y197.19 E.18179
G1 X156.366 Y196.861 E.12737
G1 X156.123 Y196.528 E.03999
G1 X155.426 Y195.768 E.09977
G1 X154.639 Y195.104 E.09977
G1 X153.773 Y194.546 E.09976
G1 X152.843 Y194.102 E.09977
G1 X151.864 Y193.781 E.09977
G1 X150.852 Y193.588 E.09976
G1 X149.823 Y193.525 E.09977
G1 X148.984 Y193.571 E.08141
G1 X148.576 Y193.634 E.03999
G1 X147.442 Y192.966 E.12737
G1 X145.881 Y191.923 E.18179
G1 X144.831 Y191.132 E.12737
G1 X144.733 Y190.73 E.03999
G1 X144.38 Y189.762 E.09977
G1 X143.907 Y188.847 E.09977
G1 X143.321 Y188 E.09977
G1 X142.631 Y187.235 E.09978
G1 X141.85 Y186.563 E.09975
G1 X140.989 Y185.997 E.09977
G1 X140.063 Y185.545 E.09976
G1 X139.27 Y185.267 E.08141
G1 X138.868 Y185.169 E.03999
G1 X138.077 Y184.119 E.12737
G1 X137.034 Y182.558 E.18179
G1 X136.366 Y181.424 E.12737
G1 X136.429 Y181.016 E.03999
G1 X136.474 Y179.987 E.09977
G1 X136.387 Y178.96 E.09976
G1 X136.169 Y177.953 E.09978
G1 X135.825 Y176.982 E.09975
G1 X135.36 Y176.063 E.09977
G1 X134.781 Y175.21 E.09977
G1 X134.099 Y174.438 E.09976
G1 X133.472 Y173.877 E.08141
G1 X133.139 Y173.634 E.03999
G1 X132.81 Y172.36 E.12737
G1 X132.443 Y170.519 E.18179
G1 X132.261 Y169.216 E.12737
G1 X132.475 Y168.863 E.03999
G1 X132.91 Y167.929 E.09977
G1 X133.222 Y166.948 E.09976
G1 X133.407 Y165.934 E.09976
G1 X133.461 Y164.905 E.09977
G1 X133.383 Y163.878 E.09977
G1 X133.174 Y162.869 E.09976
G1 X132.839 Y161.895 E.09977
G1 X132.475 Y161.137 E.08141
G1 X132.261 Y160.784 E.03999
G1 X132.443 Y159.481 E.12737
G1 X132.81 Y157.64 E.18179
G1 X133.139 Y156.366 E.12737
G1 X133.472 Y156.123 E.03999
G1 X134.232 Y155.426 E.09977
G1 X134.896 Y154.639 E.09977
G1 X135.454 Y153.773 E.09977
G1 X135.898 Y152.843 E.09976
G1 X136.219 Y151.864 E.09977
G1 X136.412 Y150.852 E.09976
G1 X136.475 Y149.823 E.09977
G1 X136.429 Y148.984 E.08141
G1 X136.367 Y148.578 E.03981
G1 X137.075 Y147.381 E.13465
G1 X138.077 Y145.881 E.17463
G1 X138.868 Y144.831 E.12737
G1 X139.27 Y144.733 E.03999
G1 X140.238 Y144.38 E.09977
G1 X141.153 Y143.907 E.09977
G1 X142 Y143.321 E.09976
G1 X142.765 Y142.631 E.09977
G1 X143.437 Y141.85 E.09976
G1 X144.003 Y140.989 E.09977
G1 X144.455 Y140.063 E.09976
G1 X144.733 Y139.27 E.08141
G1 X144.828 Y138.88 E.03883
G1 X144.296 Y138.527 F48000
G1 F7200
G1 X145.537 Y137.592 E.1505
G1 X147.126 Y136.53 E.18506
G1 X148.466 Y135.742 E.1505
G1 X149.017 Y135.836 E.05413
G1 X149.97 Y135.881 E.09243
G1 X150.921 Y135.804 E.09242
G1 X151.855 Y135.607 E.09243
G1 X152.756 Y135.292 E.09242
G1 X153.61 Y134.864 E.09243
G1 X154.402 Y134.332 E.09243
G1 X155.119 Y133.702 E.09241
G1 X155.68 Y133.076 E.08141
G1 X156.003 Y132.62 E.05413
G1 X157.507 Y132.23 E.1505
G1 X159.382 Y131.857 E.18506
G1 X160.921 Y131.641 E.1505
G1 X161.394 Y131.939 E.05413
G1 X162.257 Y132.346 E.09243
G1 X163.166 Y132.639 E.09242
G1 X164.104 Y132.814 E.09242
G1 X165.057 Y132.868 E.09244
G1 X166.009 Y132.799 E.09241
G1 X166.945 Y132.61 E.09242
G1 X167.848 Y132.303 E.09242
G1 X168.606 Y131.939 E.08141
G1 X169.079 Y131.641 E.05413
G1 X170.618 Y131.857 E.1505
G1 X172.493 Y132.23 E.18506
G1 X173.997 Y132.62 E.1505
G1 X174.32 Y133.076 E.05413
G1 X174.962 Y133.782 E.09242
G1 X175.689 Y134.4 E.09243
G1 X176.489 Y134.921 E.09244
G1 X177.349 Y135.335 E.09241
G1 X178.255 Y135.637 E.09242
G1 X179.192 Y135.82 E.09242
G1 X180.144 Y135.882 E.09243
G1 X180.983 Y135.836 E.08141
G1 X181.534 Y135.742 E.05413
G1 X182.874 Y136.53 E.1505
G1 X184.463 Y137.592 E.18506
G1 X185.704 Y138.527 E.1505
G1 X185.827 Y139.073 E.05413
G1 X186.151 Y139.971 E.09242
G1 X186.586 Y140.82 E.09242
G1 X187.125 Y141.607 E.09242
G1 X187.761 Y142.319 E.09243
G1 X188.483 Y142.944 E.09241
G1 X189.278 Y143.472 E.09243
G1 X190.134 Y143.894 E.09242
G1 X190.927 Y144.173 E.08141
G1 X191.473 Y144.296 E.05413
G1 X192.408 Y145.537 E.1505
G1 X193.47 Y147.126 E.18506
G1 X194.258 Y148.466 E.1505
G1 X194.164 Y149.017 E.05413
G1 X194.119 Y149.97 E.09243
G1 X194.196 Y150.921 E.09242
G1 X194.393 Y151.855 E.09243
G1 X194.708 Y152.756 E.09241
G1 X195.136 Y153.61 E.09242
G1 X195.668 Y154.402 E.09243
G1 X196.298 Y155.119 E.09242
G1 X196.924 Y155.68 E.08141
G1 X197.38 Y156.003 E.05413
G1 X197.77 Y157.507 E.15049
G3 X198.16 Y159.504 I-153.096 J30.939 E.19702
G1 X198.359 Y160.921 E.13852
G1 X198.061 Y161.394 E.05413
G1 X197.654 Y162.257 E.09243
G1 X197.361 Y163.166 E.09242
G1 X197.186 Y164.104 E.09242
G1 X197.132 Y165.057 E.09243
G1 X197.201 Y166.009 E.09242
G1 X197.39 Y166.945 E.09242
G1 X197.697 Y167.848 E.09242
G1 X198.061 Y168.606 E.08141
G1 X198.359 Y169.079 E.05413
G1 X198.143 Y170.618 E.1505
G1 X197.77 Y172.493 E.18506
G1 X197.38 Y173.997 E.1505
G1 X196.924 Y174.32 E.05413
G1 X196.218 Y174.962 E.09242
G1 X195.6 Y175.689 E.09243
G1 X195.079 Y176.489 E.09242
G1 X194.665 Y177.349 E.09242
G1 X194.363 Y178.255 E.09243
G1 X194.18 Y179.192 E.09242
G1 X194.118 Y180.144 E.09243
G1 X194.164 Y180.983 E.08141
G1 X194.258 Y181.533 E.05402
G1 X193.428 Y182.936 E.15779
G1 X192.408 Y184.463 E.17784
G1 X191.473 Y185.704 E.1505
G1 X190.927 Y185.827 E.05413
G1 X190.029 Y186.151 E.09242
G1 X189.18 Y186.586 E.09243
G1 X188.393 Y187.125 E.09242
G1 X187.681 Y187.761 E.09243
G1 X187.056 Y188.483 E.09242
G1 X186.528 Y189.278 E.09243
G1 X186.106 Y190.134 E.09242
G1 X185.827 Y190.927 E.08141
G1 X185.704 Y191.473 E.05413
G1 X184.463 Y192.408 E.1505
G1 X182.874 Y193.47 E.18506
G1 X181.534 Y194.258 E.1505
G1 X180.983 Y194.164 E.05413
G1 X180.03 Y194.119 E.09243
G1 X179.079 Y194.196 E.09242
G1 X178.145 Y194.393 E.09243
G1 X177.244 Y194.708 E.09243
G1 X176.39 Y195.136 E.09242
G1 X175.599 Y195.668 E.09242
G1 X174.881 Y196.298 E.09242
G1 X174.32 Y196.924 E.08141
G1 X173.997 Y197.38 E.05413
G1 X172.493 Y197.77 E.1505
G1 X170.618 Y198.143 E.18506
G1 X169.079 Y198.359 E.1505
G1 X168.606 Y198.061 E.05413
G1 X167.743 Y197.654 E.09242
G1 X166.834 Y197.361 E.09242
G1 X165.896 Y197.186 E.09243
G1 X164.943 Y197.132 E.09242
G1 X163.991 Y197.201 E.09243
G1 X163.055 Y197.39 E.09242
G1 X162.152 Y197.697 E.09242
G1 X161.394 Y198.061 E.08141
G1 X160.921 Y198.359 E.05413
G1 X159.382 Y198.143 E.1505
G1 X157.507 Y197.77 E.18506
G1 X156.003 Y197.38 E.1505
G1 X155.68 Y196.924 E.05413
G1 X155.038 Y196.218 E.09243
G1 X154.311 Y195.6 E.09242
G1 X153.511 Y195.079 E.09242
G1 X152.651 Y194.665 E.09242
G1 X151.745 Y194.363 E.09242
M73 P2 R11
G1 X150.808 Y194.18 E.09242
G1 X149.856 Y194.118 E.09243
G1 X149.017 Y194.164 E.08141
G1 X148.466 Y194.258 E.05413
G1 X147.126 Y193.47 E.1505
G1 X145.537 Y192.408 E.18506
G1 X144.296 Y191.473 E.1505
G1 X144.173 Y190.927 E.05413
G1 X143.849 Y190.029 E.09242
G1 X143.414 Y189.18 E.09242
G1 X142.875 Y188.393 E.09242
G1 X142.239 Y187.681 E.09243
G1 X141.517 Y187.056 E.09241
G1 X140.722 Y186.528 E.09243
G1 X139.866 Y186.106 E.09242
G1 X139.073 Y185.827 E.08141
G1 X138.527 Y185.704 E.05413
G1 X137.592 Y184.463 E.1505
G1 X136.53 Y182.874 E.18506
G1 X135.742 Y181.534 E.1505
G1 X135.836 Y180.983 E.05413
G1 X135.881 Y180.03 E.09243
G1 X135.804 Y179.079 E.09242
G1 X135.607 Y178.145 E.09243
G1 X135.292 Y177.244 E.09241
G1 X134.864 Y176.39 E.09242
G1 X134.332 Y175.599 E.09243
G1 X133.702 Y174.881 E.09242
G1 X133.076 Y174.32 E.08141
G1 X132.62 Y173.997 E.05413
G1 X132.23 Y172.493 E.15049
G1 X131.857 Y170.618 E.18506
G1 X131.641 Y169.079 E.1505
G1 X131.939 Y168.606 E.05413
G1 X132.346 Y167.743 E.09243
G1 X132.639 Y166.834 E.09242
G1 X132.814 Y165.896 E.09242
G1 X132.868 Y164.943 E.09243
G1 X132.799 Y163.991 E.09242
G1 X132.61 Y163.055 E.09242
G1 X132.303 Y162.152 E.09242
G1 X131.939 Y161.394 E.08141
G1 X131.641 Y160.921 E.05413
G1 X131.857 Y159.382 E.1505
G1 X132.23 Y157.507 E.18506
G1 X132.62 Y156.003 E.1505
G1 X133.076 Y155.68 E.05413
G1 X133.782 Y155.038 E.09242
G1 X134.4 Y154.311 E.09243
G1 X134.921 Y153.511 E.09242
G1 X135.335 Y152.651 E.09242
G1 X135.637 Y151.745 E.09243
G1 X135.82 Y150.808 E.09242
G1 X135.882 Y149.856 E.09243
G1 X135.836 Y149.017 E.08141
G1 X135.742 Y148.467 E.05402
G1 X136.572 Y147.064 E.15779
G1 X137.592 Y145.537 E.17784
G1 X138.527 Y144.296 E.1505
G1 X139.073 Y144.173 E.05413
G1 X139.971 Y143.849 E.09242
G1 X140.82 Y143.414 E.09243
G1 X141.607 Y142.875 E.09242
G1 X142.319 Y142.239 E.09243
G1 X142.944 Y141.517 E.09242
G1 X143.472 Y140.722 E.09243
