; HEADER_BLOCK_START
; generated by OrcaSlicer 1.6.3 on 2023-10-30 at 18:12:05
; total layer number: 35
; HEADER_BLOCK_END

; THUMBNAIL_BLOCK_START
; THUMBNAIL_BLOCK_END

; external perimeters extrusion width = 0.62mm
; perimeters extrusion width = 0.62mm
; infill extrusion width = 0.65mm
; solid infill extrusion width = 0.65mm
; top infill extrusion width = 0.65mm
; first layer extrusion width = 0.68mm

; external perimeters extrusion width = 0.62mm
; perimeters extrusion width = 0.62mm
; infill extrusion width = 0.65mm
; solid infill extrusion width = 0.65mm
; top infill extrusion width = 0.65mm
; first layer extrusion width = 0.68mm

; EXECUTABLE_BLOCK_START
EXCLUDE_OBJECT_DEFINE NAME=lid_screw.stl_id_0_copy_0 CENTER=197.599,178.501 POLYGON=[[162.815,174.622],[163.091,172.652],[163.48,170.7],[163.978,168.774],[166.947,161.606],[167.957,159.891],[169.062,158.237],[170.26,156.648],[175.746,151.162],[177.335,149.964],[178.989,148.859],[180.704,147.849],[187.872,144.88],[189.798,144.382],[191.75,143.994],[193.72,143.717],[201.478,143.717],[203.449,143.994],[205.4,144.382],[207.327,144.88],[214.494,147.849],[216.209,148.859],[217.863,149.964],[219.452,151.162],[224.938,156.648],[226.136,158.237],[227.242,159.891],[228.251,161.606],[231.22,168.774],[231.719,170.7],[232.107,172.652],[232.384,174.622],[232.384,182.38],[232.107,184.351],[231.719,186.302],[231.22,188.229],[228.251,195.396],[227.242,197.111],[226.136,198.766],[224.938,200.355],[219.452,205.84],[217.863,207.038],[216.209,208.144],[214.494,209.153],[207.327,212.122],[205.4,212.621],[203.449,213.009],[201.478,213.286],[193.72,213.286],[191.75,213.009],[189.798,212.621],[187.872,212.122],[180.704,209.153],[178.989,208.144],[177.335,207.038],[175.746,205.84],[170.26,200.355],[169.062,198.766],[167.957,197.111],[166.947,195.396],[163.978,188.229],[163.48,186.302],[163.091,184.351],[162.815,182.38],[162.815,174.622]]
EXCLUDE_OBJECT_DEFINE NAME=base_screw.stl_id_1_copy_0 CENTER=132.401,151.499 POLYGON=[[97.6165,147.62],[97.8931,145.649],[98.2813,143.698],[98.7798,141.771],[101.749,134.604],[102.758,132.889],[103.864,131.234],[105.062,129.645],[110.548,124.16],[112.137,122.962],[113.791,121.856],[115.506,120.847],[122.673,117.878],[124.6,117.379],[126.551,116.991],[128.522,116.714],[136.28,116.714],[138.25,116.991],[140.202,117.379],[142.128,117.878],[149.296,120.847],[151.011,121.856],[152.665,122.962],[154.254,124.16],[159.74,129.645],[160.938,131.234],[162.043,132.889],[163.053,134.604],[166.022,141.771],[166.52,143.698],[166.909,145.649],[167.185,147.62],[167.185,155.378],[166.909,157.348],[166.52,159.3],[166.022,161.226],[163.053,168.394],[162.043,170.109],[160.938,171.763],[159.74,173.352],[154.254,178.838],[152.665,180.036],[151.011,181.141],[149.296,182.151],[142.128,185.12],[140.202,185.618],[138.25,186.006],[136.28,186.283],[128.522,186.283],[126.551,186.006],[124.6,185.618],[122.673,185.12],[115.506,182.151],[113.791,181.141],[112.137,180.036],[110.548,178.838],[105.062,173.352],[103.864,171.763],[102.758,170.109],[101.749,168.394],[98.7798,161.226],[98.2813,159.3],[97.8931,157.348],[97.6165,155.378],[97.6165,147.62]]
M73 P0 R32
;TYPE:Custom
START_PRINT
G90
G21
M83 ; use relative distances for extrusion
; Filament gcode
SET_PRESSURE_ADVANCE ADVANCE=0.056; Override pressure advance value
M106 S0
;LAYER_CHANGE
;Z:0.4
;HEIGHT:0.4
;BEFORE_LAYER_CHANGE
;0.4
G92 E0

;DSLR_SNAPSHOT
TIMELAPSE_TAKE_FRAME
M204 S8000
SET_VELOCITY_LIMIT SQUARE_CORNER_VELOCITY=9
G1 E-.4 F4200
G1 X104.648 Y116.304 F36000
G1 Z.4
G1 E.4 F4200
;TYPE:Skirt
;WIDTH:0.68
G1 F7200
G1 X106.687 Y114.788 E.23356
G1 X108.801 Y113.394 E.23261
G1 X110.837 Y112.21 E.21648
G1 X111.766 Y111.763 E.09468
G1 X118.77 Y108.879 E.69612
G1 X120.236 Y108.361 E.14281
G1 X122.721 Y107.737 E.23554
G1 X125.179 Y107.263 E.22997
G1 X128.201 Y106.903 E.27968
G1 X135.956 Y106.904 E.7126
G1 X137.662 Y106.988 E.15702
G1 X140.161 Y107.355 E.23202
G1 X142.377 Y107.803 E.20779
G1 X144.572 Y108.363 E.2082
G1 X145.899 Y108.807 E.12854
G1 X218.093 Y138.724 E7.18118
G1 X219.494 Y139.392 E.14261
G1 X221.437 Y140.545 E.20764
G1 X223.555 Y141.961 E.23412
G1 X225.365 Y143.317 E.20779
G1 X226.413 Y144.231 E.12779
G1 X232.444 Y150.331 E.78823
G1 X234.301 Y152.774 E.28199
G1 X235.551 Y154.658 E.20779
G1 X236.888 Y156.937 E.24285
G1 X237.334 Y157.866 E.09469
G1 X240.16 Y164.72 E.68124
G1 X240.735 Y166.329 E.15701
G1 X241.294 Y168.518 E.20764
G1 X241.742 Y170.734 E.20775
G1 X242.149 Y173.614 E.26726
G1 X242.207 Y174.643 E.09469
G1 X242.194 Y182.056 E.68123
G1 X242.11 Y183.763 E.15703
G1 X241.74 Y186.278 E.23356
G1 X241.291 Y188.498 E.2082
G1 X240.628 Y191.035 E.24089
G1 X240.288 Y192.007 E.09469
G1 X237.439 Y198.851 E.68123
G1 X236.709 Y200.395 E.15693
G1 X235.56 Y202.331 E.20685
G1 X234.305 Y204.223 E.20867
G1 X232.557 Y206.547 E.26722
G1 X231.87 Y207.315 E.09469
G1 X225.77 Y213.346 E.78823
G1 X223.543 Y215.05 E.25762
G1 X221.668 Y216.312 E.20775
G1 X218.545 Y218.096 E.33043
G1 X210.291 Y221.474 E.8196
G1 X207.323 Y222.255 E.28199
G1 X205.104 Y222.689 E.20779
G1 X201.799 Y223.097 E.30604
G1 X193.887 Y223.093 E.72702
G1 X192.337 Y223.012 E.14261
G1 X189.839 Y222.645 E.23201
G1 X187.623 Y222.197 E.20779
G1 X185.428 Y221.637 E.2082
G1 X184.101 Y221.193 E.12854
G1 X110.983 Y190.856 E7.27438
G1 X108.301 Y189.288 E.28554
G1 X106.228 Y187.885 E.22997
G1 X104.355 Y186.456 E.21648
G1 X103.587 Y185.769 E.09469
G1 X97.556 Y179.669 E.78823
G1 X95.853 Y177.443 E.25762
G1 X94.437 Y175.324 E.23412
G1 X93.284 Y173.38 E.20779
G1 X92.666 Y172.134 E.12778
G1 X89.839 Y165.278 E.68141
G1 X89.263 Y163.664 E.15751
G1 X88.7 Y161.45 E.2099
G1 X88.21 Y158.983 E.23122
G1 X87.851 Y156.386 E.24087
G1 X87.793 Y155.357 E.09469
G1 X87.842 Y146.78 E.78823
G1 X88.212 Y144.001 E.25762
G1 X88.646 Y141.782 E.20775
G1 X89.265 Y139.327 E.23262
G1 X89.712 Y137.993 E.12932
G1 X92.562 Y131.147 E.68141
G1 X93.296 Y129.598 E.15751
G1 X94.463 Y127.634 E.2099
G1 X95.861 Y125.543 E.23121
G1 X97.443 Y123.453 E.24087
G1 X98.13 Y122.685 E.09469
G1 X103.381 Y117.452 E.68124
G1 X104.581 Y116.365 E.14875
G1 X104.979 Y116.803 F36000
G1 F7200
G1 X105.004 Y116.78 E.0031
G1 X107.016 Y115.283 E.23046
G1 X109.102 Y113.906 E.2297
G1 X111.101 Y112.743 E.21252
G1 X111.992 Y112.313 E.09093
G1 X118.979 Y109.435 E.69436
G1 X120.382 Y108.937 E.13683
G1 X122.835 Y108.32 E.23247
G1 X125.262 Y107.852 E.22705
G1 X128.241 Y107.495 E.27573
G1 X135.955 Y107.498 E.70885
G1 X137.578 Y107.576 E.14932
G1 X140.045 Y107.937 E.22911
G1 X142.23 Y108.378 E.20487
G1 X144.426 Y108.938 E.2082
G1 X145.671 Y109.356 E.12074
G1 X217.848 Y139.265 E7.17936
G1 X219.191 Y139.903 E.13664
G1 X221.134 Y141.056 E.20764
G1 X223.223 Y142.454 E.23102
G1 X225.008 Y143.791 E.20487
G1 X225.992 Y144.65 E.12008
G1 X232.01 Y150.736 E.78651
G1 X233.807 Y153.104 E.2731
G1 X235.04 Y154.961 E.20487
G1 X236.355 Y157.201 E.23871
G1 X236.785 Y158.092 E.09094
G1 X239.611 Y164.946 E.68124
G1 X240.159 Y166.476 E.14931
G1 X240.718 Y168.665 E.20764
G1 X241.159 Y170.85 E.20484
G1 X241.556 Y173.654 E.2602
G1 X241.612 Y174.642 E.09094
G1 X241.6 Y182.055 E.68123
G1 X241.522 Y183.678 E.14933
G1 X241.158 Y186.16 E.23046
G1 X240.708 Y188.38 E.2082
G1 X240.065 Y190.845 E.23402
G1 X239.739 Y191.779 E.09094
G1 X236.89 Y198.623 E.68123
G1 X236.198 Y200.092 E.14924
G1 X235.049 Y202.028 E.20685
G1 X233.811 Y203.893 E.20575
G1 X232.109 Y206.156 E.26016
G1 X231.45 Y206.894 E.09094
G1 X225.364 Y212.912 E.7865
G1 X223.187 Y214.574 E.25165
G1 X221.337 Y215.818 E.20484
G1 X218.282 Y217.563 E.32337
G1 X210.082 Y220.918 E.81412
G1 X207.207 Y221.672 E.2731
G1 X205.019 Y222.101 E.20487
G1 X201.759 Y222.505 E.30189
G1 X193.907 Y222.499 E.72155
G1 X192.422 Y222.424 E.13663
G1 X189.955 Y222.063 E.2291
G1 X187.77 Y221.622 E.20487
G1 X185.574 Y221.062 E.2082
G1 X184.329 Y220.644 E.12074
G1 X111.229 Y190.315 E7.27252
G1 X108.632 Y188.795 E.2765
G1 X106.586 Y187.41 E.22705
G1 X104.746 Y186.009 E.21253
G1 X104.008 Y185.35 E.09094
G1 X97.99 Y179.264 E.78651
G1 X96.328 Y177.087 E.25164
G1 X94.933 Y174.996 E.23102
G1 X93.796 Y173.078 E.20487
G1 X93.215 Y171.908 E.12007
G1 X90.389 Y165.052 E.68141
G1 X89.839 Y163.518 E.14977
G1 X89.276 Y161.304 E.2099
G1 X88.793 Y158.869 E.22815
G1 X88.444 Y156.346 E.234
G1 X88.388 Y155.358 E.09094
G1 X88.436 Y146.799 E.78651
G1 X88.8 Y144.085 E.25165
G1 X89.229 Y141.898 E.20483
G1 X89.84 Y139.474 E.2297
G1 X90.261 Y138.221 E.12143
G1 X93.11 Y131.375 E.68141
G1 X93.806 Y129.901 E.14977
G1 X94.973 Y127.938 E.2099
G1 X96.354 Y125.874 E.22815
G1 X97.891 Y123.844 E.234
G1 X98.55 Y123.106 E.09094
G1 X103.801 Y117.873 E.68124
G1 X104.912 Y116.863 E.13795
G1 X105.31 Y117.301 F36000
G1 F7200
G1 X105.36 Y117.256 E.00613
G1 X107.344 Y115.778 E.22736
G1 X109.404 Y114.418 E.22678
G1 X111.364 Y113.275 E.20857
G1 X112.218 Y112.862 E.08718
G1 X119.187 Y109.991 E.6926
G1 X120.529 Y109.513 E.13085
G1 X122.949 Y108.903 E.22941
G1 X125.344 Y108.44 E.22414
G1 X128.281 Y108.088 E.27177
G1 X135.954 Y108.092 E.7051
G1 X137.493 Y108.164 E.14162
G1 X139.929 Y108.52 E.22619
G1 X142.083 Y108.954 E.20195
G1 X144.279 Y109.514 E.2082
G1 X145.444 Y109.905 E.11294
G1 X217.602 Y139.806 E7.17754
G1 X218.887 Y140.414 E.13066
G1 X221.012 Y141.682 E.22737
G1 X222.892 Y142.947 E.2082
G1 X224.65 Y144.266 E.20195
G1 X225.571 Y145.07 E.11237
G1 X231.576 Y151.142 E.78478
G1 X233.313 Y153.434 E.26421
G1 X234.529 Y155.264 E.20195
G1 X235.823 Y157.465 E.23457
G1 X239.061 Y165.173 E.76829
G1 X239.584 Y166.623 E.14162
G1 X240.142 Y168.812 E.20764
G1 X240.577 Y170.966 E.20193
G1 X240.964 Y173.694 E.25314
G1 X241.006 Y182.054 E.76828
G1 X240.934 Y183.594 E.14163
G1 X240.575 Y186.042 E.22736
G1 X240.126 Y188.263 E.2082
G1 X239.502 Y190.654 E.22714
G1 X236.342 Y198.395 E.76828
G1 X235.687 Y199.789 E.14155
G1 X234.538 Y201.725 E.20685
G1 X233.317 Y203.563 E.20282
G1 X231.662 Y205.765 E.2531
G1 X231.031 Y206.473 E.08719
G1 X224.958 Y212.478 E.78478
G1 X222.831 Y214.098 E.24567
G1 X221.007 Y215.324 E.20192
G1 X218.018 Y217.031 E.31631
G1 X209.873 Y220.362 E.80865
G1 X207.091 Y221.089 E.26421
G1 X204.935 Y221.513 E.20195
G1 X201.719 Y221.912 E.29775
G1 X193.927 Y221.906 E.71608
G1 X192.507 Y221.836 E.13066
G1 X190.071 Y221.48 E.22619
G1 X187.917 Y221.046 E.20195
G1 X185.721 Y220.486 E.2082
G1 X184.556 Y220.095 E.11294
G1 X111.475 Y189.775 E7.27067
G1 X108.964 Y188.302 E.26746
G1 X106.944 Y186.936 E.22414
G1 X105.137 Y185.562 E.20857
G1 X104.429 Y184.93 E.08719
G1 X98.424 Y178.858 E.78478
G1 X96.804 Y176.731 E.24567
G1 X95.428 Y174.667 E.22792
G1 X94.308 Y172.777 E.20195
G1 X93.764 Y171.681 E.11237
G1 X90.938 Y164.826 E.68141
G1 X90.415 Y163.371 E.14204
G1 X89.851 Y161.157 E.2099
G1 X89.376 Y158.755 E.22509
G1 X89.036 Y156.306 E.22712
G1 X88.982 Y155.359 E.08719
G1 X89.03 Y146.819 E.78478
G1 X89.388 Y144.17 E.24567
G1 X89.811 Y142.014 E.20192
G1 X90.416 Y139.621 E.22678
G1 X90.81 Y138.45 E.11354
G1 X93.659 Y131.604 E.68141
G1 X94.317 Y130.205 E.14203
G1 X95.484 Y128.241 E.2099
G1 X96.847 Y126.206 E.22509
G1 X98.338 Y124.235 E.22713
G1 X104.22 Y118.293 E.76829
G1 X105.244 Y117.361 E.12722
G1 X105.643 Y117.798 F36000
G1 F7200
G1 X105.716 Y117.731 E.00909
G1 X107.673 Y116.273 E.22427
G1 X109.705 Y114.93 E.22386
G1 X111.628 Y113.808 E.20461
G1 X119.396 Y110.548 E.77414
G1 X120.675 Y110.088 E.12487
G1 X123.063 Y109.486 E.22634
G1 X125.427 Y109.029 E.22122
G1 X128.32 Y108.681 E.26781
G1 X135.953 Y108.686 E.70135
G1 X137.409 Y108.752 E.13392
G1 X139.813 Y109.103 E.22328
G1 X141.936 Y109.53 E.19903
G1 X144.132 Y110.09 E.2082
G1 X145.217 Y110.454 E.10515
G1 X217.357 Y140.347 E7.17572
G1 X218.584 Y140.925 E.12468
G1 X220.68 Y142.175 E.22427
G1 X222.699 Y143.539 E.22386
G1 X224.472 Y144.886 E.20461
G1 X225.151 Y145.489 E.08344
G1 X231.142 Y151.548 E.78306
G1 X232.819 Y153.764 E.25532
G1 X234.018 Y155.567 E.19903
G1 X235.29 Y157.728 E.23043
G1 X238.512 Y165.399 E.76454
G1 X239.008 Y166.77 E.13392
G1 X239.567 Y168.959 E.20764
G1 X239.994 Y171.082 E.19901
G1 X240.371 Y173.733 E.24608
G1 X240.411 Y182.053 E.76453
G1 X240.345 Y183.509 E.13393
G1 X239.993 Y185.924 E.22426
G1 X239.505 Y188.311 E.22386
G1 X238.94 Y190.464 E.20461
G1 X235.793 Y198.166 E.76453
G1 X235.176 Y199.486 E.13386
G1 X234.027 Y201.422 E.20685
G1 X232.823 Y203.233 E.1999
G1 X231.215 Y205.374 E.24604
G1 X230.611 Y206.053 E.08344
G1 X224.552 Y212.044 E.78306
G1 X222.475 Y213.623 E.2397
G1 X220.677 Y214.83 E.19901
G1 X217.755 Y216.498 E.30925
G1 X209.664 Y219.805 E.80318
G1 X206.975 Y220.506 E.25533
G1 X204.85 Y220.925 E.19903
G1 X201.68 Y221.319 E.29361
G1 X193.947 Y221.312 E.7106
G1 X192.591 Y221.248 E.12468
G1 X190.187 Y220.897 E.22327
G1 X188.064 Y220.47 E.19903
G1 X185.868 Y219.91 E.2082
G1 X184.783 Y219.546 E.10515
G1 X111.72 Y189.234 E7.26882
G1 X109.296 Y187.809 E.25842
G1 X107.301 Y186.461 E.22122
G1 X105.528 Y185.114 E.20461
G1 X104.849 Y184.511 E.08344
G1 X98.858 Y178.452 E.78306
G1 X97.28 Y176.375 E.23969
G1 X95.923 Y174.339 E.22483
G1 X94.82 Y172.475 E.19903
G1 X94.314 Y171.455 E.10466
G1 X91.487 Y164.599 E.68141
G1 X90.99 Y163.225 E.1343
G1 X90.388 Y160.836 E.22634
G1 X89.931 Y158.473 E.22122
G1 X89.629 Y156.267 E.20461
G1 X89.576 Y155.36 E.08344
G1 X89.624 Y146.839 E.78306
G1 X89.976 Y144.254 E.2397
G1 X90.394 Y142.129 E.19901
G1 X90.992 Y139.768 E.22386
G1 X91.358 Y138.678 E.10565
G1 X94.207 Y131.832 E.68141
G1 X94.828 Y130.509 E.1343
G1 X96.091 Y128.394 E.22634
G1 X97.439 Y126.399 E.22122
G1 X98.785 Y124.626 E.20461
G1 X104.64 Y118.714 E.76454
G1 X105.576 Y117.859 E.11657
G1 X105.976 Y118.295 F36000
G1 F7200
G1 X106.072 Y118.207 E.01195
G1 X108.001 Y116.768 E.22117
G1 X110.007 Y115.442 E.22094
G1 X111.892 Y114.34 E.20065
G1 X119.605 Y111.104 E.76863
G1 X120.822 Y110.664 E.11889
G1 X123.177 Y110.069 E.22328
G1 X125.51 Y109.617 E.21831
G1 X128.36 Y109.274 E.26385
G1 X135.952 Y109.281 E.6976
M73 P1 R32
G1 X137.324 Y109.341 E.12622
G1 X139.697 Y109.686 E.22037
G1 X141.79 Y110.105 E.19611
G1 X143.985 Y110.665 E.2082
G1 X144.989 Y111.003 E.09735
G1 X217.111 Y140.888 E7.1739
G1 X218.281 Y141.436 E.1187
G1 X220.349 Y142.668 E.22117
G1 X222.341 Y144.013 E.22094
G1 X224.081 Y145.333 E.20065
G1 X224.73 Y145.908 E.07968
G1 X230.708 Y151.954 E.78133
G1 X232.325 Y154.094 E.24644
G1 X233.508 Y155.871 E.19612
G1 X234.758 Y157.992 E.22628
G1 X237.963 Y165.626 E.76079
G1 X238.432 Y166.916 E.12622
G1 X238.991 Y169.106 E.20764
G1 X239.411 Y171.198 E.1961
G1 X239.778 Y173.773 E.23902
G1 X239.817 Y182.052 E.76078
G1 X239.757 Y183.424 E.12623
G1 X239.411 Y185.806 E.22117
G1 X238.93 Y188.162 E.22094
G1 X238.377 Y190.274 E.20065
G1 X235.245 Y197.938 E.76078
G1 X234.664 Y199.183 E.12618
G1 X233.516 Y201.119 E.20685
G1 X232.328 Y202.903 E.19697
G1 X230.767 Y204.983 E.23898
G1 X230.192 Y205.632 E.07969
G1 X224.146 Y211.61 E.78133
G1 X222.119 Y213.147 E.23372
G1 X220.347 Y214.336 E.1961
G1 X217.491 Y215.966 E.30219
G1 X209.455 Y219.249 E.7977
G1 X206.859 Y219.924 E.24644
G1 X204.766 Y220.337 E.19611
G1 X201.64 Y220.726 E.28946
G1 X193.966 Y220.718 E.70513
G1 X192.676 Y220.659 E.1187
G1 X190.303 Y220.314 E.22036
G1 X188.21 Y219.895 E.19611
G1 X186.015 Y219.335 E.2082
G1 X185.011 Y218.997 E.09735
G1 X111.966 Y188.693 E7.26697
G1 X109.628 Y187.316 E.24937
G1 X107.659 Y185.987 E.21831
G1 X105.919 Y184.667 E.20065
G1 X105.27 Y184.092 E.07969
G1 X99.292 Y178.046 E.78134
G1 X97.755 Y176.019 E.23372
G1 X96.418 Y174.011 E.22173
G1 X95.332 Y172.173 E.19611
G1 X94.863 Y171.228 E.09696
G1 X91.566 Y163.078 E.80788
G1 X90.971 Y160.722 E.22328
G1 X90.519 Y158.39 E.21831
G1 X90.222 Y156.227 E.20065
G1 X90.17 Y155.361 E.07969
G1 X90.218 Y146.859 E.78133
G1 X90.564 Y144.339 E.23372
G1 X90.977 Y142.245 E.19609
G1 X91.568 Y139.915 E.22094
G1 X91.907 Y138.906 E.09776
G1 X95.339 Y130.812 E.80788
G1 X96.584 Y128.726 E.22328
G1 X97.913 Y126.757 E.21831
G1 X99.233 Y125.017 E.20065
G1 X105.059 Y119.135 E.76079
G1 X105.91 Y118.356 E.10601
; printing object lid_screw.stl id:0 copy 0
EXCLUDE_OBJECT_START NAME=lid_screw.stl_id_0_copy_0
G1 E-.4 F4200
G1 X166.739 Y153.772 F36000
G1 E.4 F4200
;TYPE:Brim
G1 F7200
G1 X167.043 Y153.425 E.04246
G1 X167.848 Y152.791 E.09415
