; HEADER_BLOCK_START
; generated by OrcaSlicer 1.6.3 on 2023-11-02 at 15:05:24
; total layer number: 120
; HEADER_BLOCK_END

; THUMBNAIL_BLOCK_START
; THUMBNAIL_BLOCK_END

; external perimeters extrusion width = 0.62mm
; perimeters extrusion width = 0.62mm
; infill extrusion width = 0.65mm
; solid infill extrusion width = 0.65mm
; top infill extrusion width = 0.65mm
; first layer extrusion width = 0.68mm

; EXECUTABLE_BLOCK_START
EXCLUDE_OBJECT_DEFINE NAME=3DBenchy.stl_id_0_copy_0 CENTER=165,165 POLYGON=[[135,155.816],[135.002,155.755],[135.007,155.699],[135.012,155.646],[135.014,155.63],[135.02,155.583],[135.028,155.525],[135.046,155.436],[135.058,155.379],[135.074,155.322],[135.081,155.296],[135.097,155.239],[135.126,155.155],[135.141,155.118],[135.162,155.064],[135.169,155.047],[135.186,155.01],[135.209,154.958],[135.231,154.916],[135.264,154.854],[135.278,154.827],[135.291,154.806],[135.34,154.727],[135.357,154.7],[135.371,154.679],[135.405,154.631],[135.44,154.584],[135.484,154.531],[135.508,154.501],[135.539,154.466],[135.578,154.423],[135.592,154.408],[135.6,154.4],[135.641,154.359],[135.661,154.34],[135.704,154.3],[135.737,154.271],[135.783,154.234],[135.793,154.225],[135.828,154.197],[135.887,154.154],[135.935,154.121],[135.979,154.092],[136.044,154.052],[136.071,154.036],[136.124,154.008],[136.148,153.995],[136.175,153.981],[136.197,153.97],[136.253,153.944],[136.312,153.919],[136.362,153.899],[136.417,153.879],[136.429,153.875],[136.472,153.861],[136.485,153.857],[136.541,153.84],[136.548,153.838],[136.584,153.828],[136.597,153.825],[136.625,153.818],[136.641,153.814],[136.71,153.799],[136.739,153.794],[136.769,153.789],[136.798,153.784],[164.812,149.886],[165.055,149.853],[165.299,149.821],[165.543,149.791],[165.882,149.752],[166.105,149.728],[166.35,149.702],[166.596,149.678],[166.842,149.656],[167.087,149.635],[167.253,149.622],[167.333,149.616],[167.523,149.602],[167.579,149.598],[167.826,149.581],[167.987,149.571],[168.071,149.566],[168.232,149.557],[168.489,149.544],[168.597,149.539],[168.619,149.538],[168.755,149.532],[168.906,149.526],[169.05,149.521],[169.167,149.517],[169.233,149.515],[169.342,149.512],[169.46,149.509],[169.548,149.507],[169.689,149.504],[169.881,149.501],[170.062,149.499],[170.18,149.498],[170.578,149.498],[170.934,149.5],[171.369,149.508],[171.45,149.51],[171.805,149.52],[171.912,149.524],[172.24,149.537],[172.677,149.558],[173.009,149.578],[173.092,149.583],[173.202,149.59],[173.375,149.602],[173.495,149.611],[173.641,149.622],[173.728,149.629],[173.909,149.644],[174.04,149.655],[174.832,149.78],[174.841,149.782],[175.269,149.888],[175.377,149.915],[175.595,149.97],[175.737,150.007],[175.813,150.027],[175.967,150.068],[176.248,150.145],[176.424,150.195],[176.68,150.27],[176.896,150.334],[177.111,150.4],[177.332,150.47],[177.558,150.543],[177.752,150.607],[178.008,150.694],[178.178,150.753],[178.232,150.772],[178.4,150.832],[178.601,150.905],[178.822,150.987],[179.033,151.067],[179.233,151.145],[179.344,151.188],[179.443,151.228],[179.453,151.232],[179.662,151.316],[179.871,151.402],[179.927,151.425],[180.134,151.513],[180.341,151.603],[180.547,151.693],[180.957,151.879],[181.16,151.974],[181.363,152.07],[181.565,152.168],[181.766,152.267],[181.967,152.367],[182.166,152.469],[182.366,152.572],[182.563,152.677],[182.762,152.783],[182.957,152.89],[183.153,152.999],[183.348,153.11],[183.543,153.221],[183.737,153.334],[183.93,153.449],[184.123,153.565],[184.314,153.683],[184.505,153.801],[184.696,153.922],[184.885,154.043],[185.075,154.167],[185.262,154.291],[185.451,154.417],[185.637,154.544],[185.824,154.673],[186.008,154.803],[186.193,154.934],[186.376,155.067],[186.56,155.201],[186.742,155.337],[186.923,155.474],[187.104,155.612],[187.284,155.752],[187.463,155.893],[187.642,156.036],[187.82,156.18],[187.998,156.325],[188.173,156.472],[188.523,156.77],[188.697,156.921],[188.87,157.074],[189.042,157.228],[189.214,157.384],[189.328,157.489],[189.498,157.645],[189.665,157.803],[189.832,157.962],[189.996,158.122],[190.161,158.283],[190.325,158.445],[190.486,158.609],[190.647,158.773],[190.807,158.939],[190.966,159.106],[191.124,159.274],[191.282,159.443],[191.438,159.614],[191.592,159.785],[191.745,159.958],[191.898,160.132],[192.05,160.306],[192.201,160.483],[192.349,160.66],[192.498,160.838],[192.645,161.017],[192.791,161.198],[192.936,161.38],[193.081,161.563],[193.223,161.747],[193.364,161.932],[193.505,162.118],[193.645,162.305],[193.784,162.493],[193.921,162.683],[194.056,162.874],[194.192,163.065],[194.326,163.258],[194.458,163.452],[194.589,163.647],[194.618,163.692],[194.651,163.745],[194.682,163.798],[194.713,163.852],[194.742,163.907],[194.769,163.962],[194.819,164.076],[194.834,164.117],[194.856,164.175],[194.876,164.233],[194.895,164.292],[194.912,164.351],[194.929,164.413],[194.943,164.47],[194.954,164.53],[194.966,164.593],[194.975,164.652],[194.984,164.713],[194.991,164.774],[194.995,164.836],[194.998,164.905],[195,164.966],[195,165.027],[194.999,165.088],[194.996,165.149],[194.992,165.209],[194.986,165.27],[194.977,165.331],[194.968,165.391],[194.958,165.449],[194.945,165.512],[194.932,165.569],[194.916,165.632],[194.901,165.686],[194.883,165.745],[194.863,165.803],[194.842,165.861],[194.82,165.918],[194.797,165.974],[194.771,166.03],[194.744,166.086],[194.716,166.14],[194.686,166.194],[194.655,166.248],[194.623,166.301],[194.589,166.353],[194.472,166.527],[194.339,166.721],[194.206,166.914],[194.071,167.106],[193.936,167.297],[193.797,167.487],[193.659,167.676],[193.52,167.864],[193.38,168.05],[193.237,168.236],[193.095,168.42],[192.951,168.604],[192.659,168.968],[192.51,169.148],[192.361,169.328],[192.21,169.506],[192.06,169.683],[191.907,169.86],[191.752,170.035],[191.597,170.209],[191.482,170.337],[191.326,170.509],[191.167,170.68],[191.008,170.85],[190.848,171.018],[190.688,171.186],[190.526,171.352],[190.2,171.68],[190.034,171.841],[189.869,172.002],[189.703,172.161],[189.535,172.319],[189.367,172.475],[189.199,172.63],[189.028,172.784],[188.857,172.937],[188.686,173.089],[188.512,173.239],[188.338,173.388],[188.164,173.536],[187.987,173.682],[187.811,173.827],[187.632,173.971],[187.454,174.114],[187.275,174.256],[187.093,174.396],[186.911,174.535],[186.728,174.673],[186.544,174.81],[186.359,174.945],[186.173,175.08],[185.799,175.344],[185.611,175.474],[185.421,175.603],[185.23,175.731],[185.039,175.857],[184.846,175.982],[184.653,176.106],[184.458,176.228],[184.263,176.349],[184.067,176.469],[183.869,176.587],[183.672,176.704],[183.472,176.819],[183.272,176.934],[183.072,177.046],[182.87,177.158],[182.595,177.307],[182.395,177.412],[182.196,177.516],[181.996,177.618],[181.796,177.719],[181.595,177.818],[181.392,177.916],[181.19,178.012],[180.987,178.107],[180.783,178.2],[180.579,178.292],[180.374,178.383],[180.169,178.472],[179.963,178.559],[179.756,178.645],[179.666,178.682],[179.549,178.73],[179.341,178.813],[179.122,178.898],[179.003,178.944],[178.704,179.057],[178.493,179.134],[178.293,179.206],[178.071,179.284],[177.884,179.348],[177.869,179.353],[177.656,179.424],[177.443,179.494],[177.207,179.57],[177.005,179.632],[176.979,179.64],[176.751,179.709],[176.523,179.776],[176.295,179.841],[176.142,179.884],[176.065,179.905],[175.924,179.943],[175.707,180.001],[175.606,180.027],[175.488,180.057],[175.269,180.112],[174.844,180.218],[174.316,180.319],[174.306,180.32],[174.05,180.344],[174.003,180.348],[173.81,180.364],[173.725,180.371],[173.561,180.384],[173.481,180.39],[173.134,180.414],[172.688,180.441],[172.649,180.443],[172.264,180.462],[172.126,180.468],[171.778,180.481],[171.564,180.487],[171.344,180.493],[170.907,180.5],[170.522,180.502],[170.177,180.502],[169.877,180.499],[169.821,180.498],[169.599,180.494],[169.457,180.491],[169.338,180.488],[169.166,180.483],[169.076,180.48],[168.93,180.475],[168.752,180.468],[168.728,180.467],[168.57,180.46],[168.463,180.455],[168.332,180.448],[168.133,180.437],[167.889,180.423],[167.644,180.407],[167.629,180.406],[167.342,180.385],[167.096,180.366],[166.849,180.345],[166.667,180.328],[166.603,180.322],[166.423,180.305],[166.179,180.28],[166.111,180.273],[165.935,180.254],[165.619,180.218],[165.373,180.188],[165.204,180.166],[164.882,180.124],[136.827,176.22],[136.792,176.215],[136.743,176.207],[136.686,176.196],[136.653,176.189],[136.597,176.175],[136.584,176.172],[136.548,176.162],[136.536,176.159],[136.481,176.142],[136.429,176.125],[136.417,176.121],[136.362,176.101],[136.312,176.081],[136.253,176.056],[136.197,176.03],[136.155,176.009],[136.105,175.982],[136.086,175.972],[136.044,175.948],[135.993,175.917],[135.979,175.908],[135.944,175.885],[135.935,175.879],[135.887,175.846],[135.847,175.817],[135.84,175.811],[135.793,175.775],[135.756,175.744],[135.749,175.738],[135.704,175.7],[135.661,175.66],[135.641,175.64],[135.592,175.592],[135.557,175.555],[135.539,175.534],[135.519,175.511],[135.481,175.466],[135.445,175.42],[135.431,175.402],[135.41,175.374],[135.407,175.37],[135.373,175.322],[135.357,175.3],[135.342,175.278],[135.308,175.224],[135.278,175.173],[135.25,175.122],[135.231,175.084],[135.218,175.06],[135.195,175.012],[135.169,174.954],[135.148,174.903],[135.127,174.849],[135.109,174.793],[135.107,174.79],[135.09,174.738],[135.075,174.682],[135.06,174.625],[135.046,174.564],[135.035,174.507],[135.026,174.454],[135.025,174.448],[135.016,174.396],[135.012,174.353],[135.008,174.325],[135.002,174.245],[135,174.208],[135,174.179],[135,155.816]]
M73 P0 R18
;TYPE:Custom
M104 S0
M140 S0
START_PRINT BED=75 HOTEND=230
G90
G21
M83 ; use relative distances for extrusion
; filament start gcode
M106 S0
;LAYER_CHANGE
;Z:0.4
;HEIGHT:0.4
;BEFORE_LAYER_CHANGE
;0.4
G92 E0

G1 E-.4 F4200
;DSLR_SNAPSHOT
TIMELAPSE_TAKE_FRAME
M204 S5000
G1 X137.693 Y157.022 F48000
G1 Z.4
G1 E.4 F4200
;TYPE:Skirt
;WIDTH:0.68
G1 F7200
G1 X138.492 Y156.37 E.09982
G1 X139.445 Y155.922 E.10197
G1 X140.483 Y155.714 E.10251
G1 X165.294 Y154.236 E2.40675
G1 X167.819 Y154.454 E.24543
G1 X169.905 Y154.917 E.20691
G1 X171.898 Y155.619 E.20464
G1 X173.939 Y156.64 E.22099
G1 X175.897 Y157.967 E.22904
G1 X177.624 Y159.508 E.22408
G1 X179.157 Y161.294 E.22798
G1 X180.399 Y163.208 E.22092
G1 X180.74 Y164.149 E.09693
G1 X180.83 Y165.189 E.10106
G1 X180.629 Y166.248 E.10437
G1 X180.252 Y167.057 E.0864
G1 X178.998 Y168.915 E.21709
G1 X177.721 Y170.391 E.18896
G1 X176.198 Y171.793 E.20047
G1 X174.53 Y172.999 E.19926
G1 X172.441 Y174.141 E.23059
G1 X171.363 Y174.596 E.11329
G1 X169.942 Y175.073 E.14516
G1 X167.412 Y175.606 E.25039
G1 X165.952 Y175.742 E.14195
G1 X164.742 Y175.762 E.11725
G1 X140.356 Y174.274 E2.3657
G1 X139.306 Y174.03 E.10445
G1 X138.492 Y173.63 E.08777
G1 X137.777 Y173.063 E.08839
G1 X137.196 Y172.35 E.08902
G1 X136.689 Y171.26 E.11642
G1 X136.491 Y170.113 E.11276
G1 X136.504 Y159.697 E1.00853
G1 X136.689 Y158.74 E.09444
G1 X137.133 Y157.75 E.10506
G1 X137.638 Y157.093 E.08027
; printing object 3DBenchy.stl id:0 copy 0
EXCLUDE_OBJECT_START NAME=3DBenchy.stl_id_0_copy_0
G1 E-.4 F4200
G1 X144.574 Y164.962 F48000
G1 E.4 F4200
;TYPE:Inner wall
;WIDTH:0.706761
G1 F7200
G2 X145.187 Y164.583 I-.624 J-1.695 E.07339
G1 X145.575 Y164.714 E.04144
G1 X145.573 Y165.644 E.09412
G1 X145.078 Y165.199 E.06734
G1 X144.585 Y164.967 E.0552
G1 E-.4 F4200
G1 X149.876 Y165.723 F48000
G1 E.4 F4200
;WIDTH:0.570967
G1 F7200
G1 X149.876 Y165.327 E.03128
;WIDTH:0.566089
G1 X149.857 Y164.551 E.06078
;WIDTH:0.525146
G1 X150.328 Y164.442 E.03459
G1 X150.318 Y164.474 E.00241
;WIDTH:0.537695
G1 X150.311 Y164.967 E.03626
;WIDTH:0.570967
G1 X150.397 Y165.464 E.03991
G1 X150.076 Y165.764 E.03474
G1 X149.876 Y166.086 E.03
G1 X149.876 Y165.735 E.0278
G1 E-.4 F4200
G1 X152.141 Y163.634 F48000
G1 E.4 F4200
;TYPE:Outer wall
;WIDTH:0.964783
G1 F7200
G1 X151.856 Y163.758 E.04444
G1 E-.4 F4200
G1 X160.461 Y166.992 F48000
G1 E.4 F4200
;WIDTH:0.595841
G1 F7200
G1 X160.668 Y166.59 E.03756
G1 E-.4 F4200
G1 X167.179 Y164.051 F48000
G1 E.4 F4200
;WIDTH:0.963775
G1 F7200
G1 X167.169 Y163.785 E.03795
G1 E-.4 F4200
G1 X171.783 Y164.084 F48000
G1 E.4 F4200
;WIDTH:0.784407
G1 F7200
G1 X171.784 Y163.9 E.02093
G1 E-.4 F4200
G1 X170.804 Y161.824 F48000
G1 E.4 F4200
;TYPE:Inner wall
;WIDTH:0.68
G1 F7200
G1 X170.498 Y161.863 E.02987
G2 X170.084 Y161.988 I.526 J2.503 E.04197
G1 X169.566 Y162.314 E.05918
G2 X169.072 Y162.005 I-1.009 J1.065 E.05686
G1 X168.499 Y161.849 E.05743
G1 X167.877 Y161.823 E.06026
G2 X167.14 Y162.09 I.289 J1.949 E.07644
G1 X167.041 Y162.025 E.01146
G1 X166.498 Y161.85 E.0553
G1 X166.155 Y161.837 E.03316
G2 X165.206 Y162.113 I.542 J3.623 E.09605
G1 X164.605 Y161.868 E.06287
G1 X164.106 Y161.804 E.04869
G1 X163.661 Y161.841 E.0433
G1 X163.18 Y162.002 E.04904
G1 X162.867 Y162.19 E.03542
G1 X162.476 Y162.526 E.04995
G1 X162.283 Y162.788 E.03147
G1 X162.078 Y163.241 E.04815
G2 X161.198 Y161.63 I-4.33 J1.317 E.17901
G1 X160.609 Y161.09 E.07733
G1 X159.956 Y160.718 E.07285
G1 X159.308 Y160.506 E.06602
G2 X157.184 Y160.345 I-1.756 J9.083 E.20665
G1 X156.674 Y160.339 E.04945
G1 X156.008 Y160.424 E.06502
G1 X155.636 Y160.568 E.03865
G1 X155.098 Y160.898 E.06106
G2 X154.181 Y160.395 I-2.291 J3.09 E.10157
;WIDTH:0.726719
G1 X154.026 Y160.335 E.01745
;WIDTH:0.773437
G1 X153.87 Y160.274 E.01872
;WIDTH:0.820156
G1 X153.714 Y160.213 E.01999
;WIDTH:0.866875
G1 X153.559 Y160.153 E.02126
;WIDTH:0.913594
G1 X153.403 Y160.092 E.02253
G1 X152.982 Y160.072 E.05694
;WIDTH:0.882818
G1 X152.286 Y160.098 E.09037
;WIDTH:0.899688
G1 X151.735 Y160.175 E.07378
G1 X151.63 Y160.231 E.01585
;WIDTH:0.855584
G1 X151.524 Y160.287 E.01499
;WIDTH:0.81148
G1 X151.419 Y160.343 E.01413
;WIDTH:0.767376
G1 X151.114 Y160.518 E.03904
;WIDTH:0.723688
G1 X150.809 Y160.692 E.03654
;WIDTH:0.68
G1 X150.555 Y160.538 E.02876
;WIDTH:0.726826
G1 X150.462 Y160.49 E.01093
;WIDTH:0.773653
G1 X150.369 Y160.442 E.01173
;WIDTH:0.820479
G1 X150.276 Y160.393 E.01253
;WIDTH:0.867305
G1 X150.183 Y160.345 E.01333
;WIDTH:0.914132
G1 X150.091 Y160.297 E.01413
G1 X149.732 Y160.28 E.0485
;WIDTH:0.886858
G1 X149.373 Y160.263 E.0469
;WIDTH:0.859584
G1 X148.796 Y160.265 E.07272
;WIDTH:0.837404
G1 X147.232 Y160.288 E.19158
;WIDTH:0.788098
G1 X147.214 Y160.288 E.00211
;WIDTH:0.787451
G1 X146.4 Y160.306 E.09307
;WIDTH:0.76732
G1 X145.897 Y160.299 E.05585
;WIDTH:0.762632
G1 X145.388 Y160.362 E.05663
;WIDTH:0.797368
G1 X145.2 Y160.412 E.02256
;WIDTH:0.832105
G1 X145.012 Y160.462 E.02367
;WIDTH:0.866842
G2 X144.667 Y160.613 I.06 J.603 E.04866
G2 X144.278 Y160.473 I-.882 J1.834 E.05272
;WIDTH:0.821361
G1 X144.118 Y160.426 E.02004
;WIDTH:0.77588
G1 X143.958 Y160.379 E.0188
;WIDTH:0.730399
G1 X143.797 Y160.331 E.01756
;WIDTH:0.684919
G1 X143.492 Y160.29 E.03007
;WIDTH:0.640964
G1 X143.187 Y160.248 E.02786
;WIDTH:0.59701
G1 X142.486 Y160.235 E.05837
;WIDTH:0.585388
G1 X141.644 Y160.322 E.06895
;WIDTH:0.618378
G1 X141.36 Y160.389 E.02534
;WIDTH:0.651368
G1 X141.076 Y160.455 E.02691
;WIDTH:0.653013
G1 X140.696 Y160.626 E.03847
G3 X140.736 Y159.956 I2.089 J-.213 E.06236
G1 X140.978 Y159.902 E.02294
;WIDTH:0.651368
G1 X141.438 Y159.852 E.04263
;WIDTH:0.607801
G1 X141.898 Y159.802 E.03935
;WIDTH:0.564234
G1 X142.488 Y159.762 E.04613
;WIDTH:0.59701
G1 X143.189 Y159.738 E.05843
;WIDTH:0.640964
G1 X143.52 Y159.74 E.02991
;WIDTH:0.684919
G1 X143.85 Y159.742 E.03228
;WIDTH:0.730399
G1 X144.038 Y159.753 E.01972
;WIDTH:0.77588
G1 X144.225 Y159.764 E.02112
;WIDTH:0.821361
G1 X144.413 Y159.775 E.02251
;WIDTH:0.866842
G2 X144.838 Y159.754 I.16 J-1.093 E.05452
;WIDTH:0.832105
G1 X145.076 Y159.722 E.02917
;WIDTH:0.797368
G1 X145.313 Y159.69 E.02782
;WIDTH:0.762632
G1 X145.857 Y159.646 E.06017
;WIDTH:0.76732
G1 X146.401 Y159.626 E.06045
;WIDTH:0.788098
G1 X147.211 Y159.586 E.09285
;WIDTH:0.837404
G1 X148.774 Y159.514 E.19158
;WIDTH:0.838319
G1 X148.8 Y159.513 E.00321
;WIDTH:0.868273
G1 X149.506 Y159.485 E.0901
;WIDTH:0.914132
G1 X150.103 Y159.471 E.08065
G1 X150.238 Y159.439 E.01875
;WIDTH:0.867305
G1 X150.374 Y159.407 E.01769
;WIDTH:0.820479
G1 X150.509 Y159.375 E.01663
;WIDTH:0.773653
G1 X150.644 Y159.344 E.01557
;WIDTH:0.726826
